;FLAVOR:Marlin
;TIME:16129
;Filament used: 23.1498m
;Layer height: 0.28
;MINX:49.009
;MINY:49.016
;MINZ:0.28
;MAXX:170.991
;MAXY:170.984
;MAXZ:15.12
;Generated with Cura_SteamEngine 4.10.0
M140 S60
M105
M190 S60
M104 S200
M105
M109 S200
M82 ;absolute extrusion mode
; Ender 3 Custom Start G-code
G92 E0 ; Reset Extruder
G28 ; Home all axes
G1 Z2.0 F3000 ; Move Z Axis up little to prevent scratching of Heat Bed
G1 X0.1 Y20 Z0.3 F5000.0 ; Move to start position
G1 X0.1 Y200.0 Z0.3 F1500.0 E15 ; Draw the first line
G1 X0.4 Y200.0 Z0.3 F5000.0 ; Move to side a little
G1 X0.4 Y20 Z0.3 F1500.0 E30 ; Draw the second line
G92 E0 ; Reset Extruder
G1 Z2.0 F3000 ; Move Z Axis up little to prevent scratching of Heat Bed
G1 X5 Y20 Z0.3 F5000.0 ; Move over to prevent blob squish
G92 E0
G92 E0
G1 F1500 E-6.5
;LAYER_COUNT:54
;LAYER:0
M107
G0 F6000 X66.841 Y66.909 Z0.28
;TYPE:SKIRT
G1 F1500 E0
G1 F1200 X67.443 Y66.31 E0.03954
G1 X67.93 Y65.844 E0.07093
G1 X69.013 Y64.838 E0.13976
G1 X69.711 Y64.209 E0.18351
G1 X69.916 Y64.029 E0.19621
G1 X70.225 Y63.765 E0.21514
G1 X71.221 Y62.93 E0.27566
G1 X71.998 Y62.296 E0.32235
G1 X72.178 Y62.152 E0.33309
G1 X72.637 Y61.795 E0.36016
G1 X73.715 Y60.981 E0.42306
G1 X74.448 Y60.442 E0.46543
G1 X74.659 Y60.291 E0.47751
G1 X75.049 Y60.019 E0.49965
G1 X76.245 Y59.205 E0.56702
G1 X76.954 Y58.737 E0.60658
G1 X77.187 Y58.587 E0.61948
G1 X77.588 Y58.337 E0.64148
G1 X78.681 Y57.668 E0.70115
G1 X79.532 Y57.164 E0.74721
G1 X79.795 Y57.013 E0.76133
G1 X80.234 Y56.77 E0.78469
G1 X81.444 Y56.112 E0.84883
G1 X82.192 Y55.717 E0.88822
G1 X82.434 Y55.593 E0.90088
G1 X82.876 Y55.374 E0.92385
G1 X84.183 Y54.746 E0.99137
G1 X84.967 Y54.383 E1.0316
G1 X85.213 Y54.273 E1.04415
G1 X85.688 Y54.068 E1.06824
G1 X86.925 Y53.548 E1.13072
G1 X87.738 Y53.218 E1.17157
G1 X87.986 Y53.121 E1.18397
G1 X88.536 Y52.913 E1.21135
G1 X89.778 Y52.463 E1.27287
G1 X90.635 Y52.165 E1.31512
G1 X90.912 Y52.073 E1.32871
G1 X91.357 Y51.932 E1.35044
G1 X92.665 Y51.529 E1.41417
G1 X93.535 Y51.274 E1.45639
G1 X93.766 Y51.209 E1.46756
G1 X94.263 Y51.076 E1.49152
G1 X95.482 Y50.766 E1.55009
G1 X96.517 Y50.519 E1.59964
G1 X96.78 Y50.459 E1.6122
G1 X97.17 Y50.377 E1.63075
G1 X98.609 Y50.086 E1.69912
G1 X99.465 Y49.926 E1.73967
G1 X99.711 Y49.883 E1.75129
G1 X100.215 Y49.802 E1.77506
G1 X101.565 Y49.599 E1.83863
G1 X102.487 Y49.474 E1.88196
G1 X102.733 Y49.443 E1.8935
G1 X103.222 Y49.389 E1.91641
G1 X104.641 Y49.249 E1.98281
G1 X105.475 Y49.177 E2.02178
G1 X105.758 Y49.156 E2.035
G1 X106.258 Y49.126 E2.05832
G1 X107.511 Y49.064 E2.11674
G1 X108.538 Y49.027 E2.16459
G1 X108.797 Y49.021 E2.17665
G1 X109.264 Y49.016 E2.1984
G1 X110.54 Y49.016 E2.25782
G1 X111.591 Y49.03 E2.30676
G1 X112.163 Y49.049 E2.33341
G1 X113.585 Y49.119 E2.3997
G1 X114.614 Y49.184 E2.44771
G1 X114.867 Y49.203 E2.45953
G1 X115.331 Y49.244 E2.48122
G1 X116.613 Y49.372 E2.54121
G1 X117.628 Y49.488 E2.58878
G1 X117.906 Y49.523 E2.60183
G1 X118.396 Y49.593 E2.62488
G1 X119.771 Y49.801 E2.68963
G1 X120.64 Y49.945 E2.73065
G1 X120.9 Y49.991 E2.74294
G1 X121.396 Y50.086 E2.76646
G1 X122.772 Y50.365 E2.83183
G1 X123.618 Y50.549 E2.87215
G1 X123.837 Y50.599 E2.88261
G1 X124.385 Y50.732 E2.90886
G1 X125.743 Y51.079 E2.97413
G1 X126.564 Y51.301 E3.01373
G1 X126.828 Y51.376 E3.02651
G1 X127.316 Y51.522 E3.05023
G1 X128.59 Y51.916 E3.11233
G1 X129.504 Y52.212 E3.15706
G1 X129.752 Y52.296 E3.16925
G1 X130.193 Y52.451 E3.19102
G1 X131.463 Y52.915 E3.25398
G1 X132.32 Y53.241 E3.29667
G1 X132.569 Y53.339 E3.30914
G1 X133.097 Y53.555 E3.3357
G1 X134.178 Y54.01 E3.39031
G1 X135.137 Y54.43 E3.43906
G1 X135.389 Y54.544 E3.45194
G1 X135.824 Y54.749 E3.47433
G1 X137.106 Y55.367 E3.5406
G1 X137.824 Y55.725 E3.57796
G1 X138.085 Y55.859 E3.59162
G1 X138.59 Y56.128 E3.61826
G1 X139.623 Y56.69 E3.67302
G1 X140.551 Y57.213 E3.72262
G1 X140.772 Y57.34 E3.73449
G1 X141.195 Y57.593 E3.75744
G1 X142.38 Y58.318 E3.82213
G1 X143.153 Y58.806 E3.8647
G1 X143.368 Y58.945 E3.87662
G1 X143.755 Y59.204 E3.8983
G1 X144.945 Y60.016 E3.96539
G1 X145.624 Y60.493 E4.00402
G1 X145.846 Y60.653 E4.01677
G1 X146.284 Y60.978 E4.04216
G1 X147.395 Y61.822 E4.10713
G1 X148.047 Y62.331 E4.14565
G1 X148.248 Y62.492 E4.15764
G1 X148.691 Y62.856 E4.18434
G1 X149.719 Y63.721 E4.2469
G1 X150.395 Y64.304 E4.28846
G1 X150.597 Y64.482 E4.301
G1 X150.964 Y64.816 E4.32411
G1 X151.941 Y65.725 E4.38624
G1 X152.648 Y66.399 E4.43173
G1 X152.854 Y66.601 E4.44516
G1 X153.148 Y66.897 E4.46459
G1 X154.167 Y67.943 E4.53259
G1 X154.73 Y68.536 E4.57066
G1 X154.924 Y68.746 E4.58397
G1 X155.221 Y69.077 E4.60468
G1 X156.182 Y70.167 E4.67235
G1 X156.766 Y70.848 E4.71412
G1 X156.944 Y71.061 E4.72704
G1 X157.232 Y71.415 E4.74829
G1 X158.122 Y72.532 E4.8148
G1 X158.648 Y73.212 E4.85483
G1 X158.818 Y73.438 E4.868
G1 X159.103 Y73.827 E4.89045
G1 X159.942 Y74.995 E4.95742
G1 X160.427 Y75.691 E4.99692
G1 X160.576 Y75.91 E5.00925
G1 X160.817 Y76.276 E5.02966
G1 X161.612 Y77.508 E5.09793
G1 X162.06 Y78.222 E5.13718
G1 X162.219 Y78.484 E5.15145
G1 X162.455 Y78.885 E5.17312
G1 X163.177 Y80.139 E5.2405
G1 X163.58 Y80.861 E5.279
G1 X163.703 Y81.087 E5.29098
G1 X163.943 Y81.544 E5.31501
G1 X164.581 Y82.791 E5.38024
G1 X164.978 Y83.595 E5.42199
G1 X165.087 Y83.822 E5.43372
G1 X165.308 Y84.298 E5.45815
G1 X165.872 Y85.549 E5.52205
G1 X166.228 Y86.369 E5.56368
G1 X166.322 Y86.592 E5.57495
G1 X166.497 Y87.024 E5.59665
G1 X167.008 Y88.33 E5.66195
G1 X167.345 Y89.226 E5.70653
G1 X167.441 Y89.492 E5.71969
G1 X167.571 Y89.867 E5.73818
G1 X168.028 Y91.234 E5.80529
G1 X168.304 Y92.096 E5.84744
G1 X168.374 Y92.321 E5.85841
G1 X168.499 Y92.747 E5.87908
G1 X168.887 Y94.133 E5.9461
G1 X169.13 Y95.049 E5.99023
G1 X169.249 Y95.529 E6.01326
G1 X169.286 Y95.684 E6.02068
G1 X169.608 Y97.101 E6.08834
G1 X169.792 Y97.958 E6.12916
G1 X169.847 Y98.232 E6.14217
G1 X169.935 Y98.703 E6.16448
G1 X170.177 Y100.085 E6.22981
G1 X170.321 Y100.978 E6.27193
G1 X170.36 Y101.241 E6.28431
G1 X170.422 Y101.699 E6.30583
G1 X170.593 Y103.073 E6.3703
G1 X170.692 Y103.964 E6.41205
G1 X170.719 Y104.247 E6.42529
G1 X170.766 Y104.803 E6.45127
G1 X170.864 Y106.123 E6.5129
G1 X170.918 Y107.017 E6.55461
G1 X170.93 Y107.273 E6.56654
G1 X170.949 Y107.785 E6.5904
G1 X170.98 Y109.035 E6.64862
G1 X170.991 Y110.052 E6.69598
G1 X170.991 Y110.319 E6.70841
G1 X170.984 Y110.805 E6.73104
G1 X170.947 Y112.24 E6.79788
G1 X170.914 Y113.082 E6.83712
G1 X170.9 Y113.343 E6.84929
G1 X170.868 Y113.841 E6.87253
G1 X170.76 Y115.257 E6.93866
G1 X170.685 Y116.097 E6.97793
G1 X170.658 Y116.367 E6.99056
G1 X170.594 Y116.925 E7.01671
G1 X170.428 Y118.241 E7.07848
G1 X170.306 Y119.121 E7.11985
G1 X170.26 Y119.423 E7.13407
G1 X170.176 Y119.923 E7.15768
G1 X169.967 Y121.111 E7.21385
G1 X169.772 Y122.134 E7.26234
G1 X169.723 Y122.375 E7.27379
G1 X169.61 Y122.897 E7.29866
G1 X169.294 Y124.274 E7.36445
G1 X169.091 Y125.108 E7.40441
G1 X169.028 Y125.355 E7.41628
G1 X168.905 Y125.808 E7.43814
G1 X168.524 Y127.158 E7.50346
G1 X168.265 Y128.033 E7.54595
G1 X168.178 Y128.312 E7.55956
G1 X168.04 Y128.736 E7.58032
G1 X167.633 Y129.948 E7.63985
G1 X167.3 Y130.895 E7.6866
G1 X167.212 Y131.136 E7.69854
G1 X167.02 Y131.643 E7.72379
G1 X166.514 Y132.928 E7.78809
G1 X166.181 Y133.742 E7.82905
G1 X166.075 Y133.993 E7.84173
G1 X165.891 Y134.41 E7.86296
G1 X165.285 Y135.749 E7.9314
G1 X164.927 Y136.512 E7.97064
G1 X164.814 Y136.747 E7.98278
G1 X164.601 Y137.172 E8.00492
G1 X163.96 Y138.421 E8.07029
G1 X163.532 Y139.227 E8.11278
G1 X163.421 Y139.431 E8.1236
G1 X163.162 Y139.892 E8.14822
G1 X162.485 Y141.062 E8.21116
G1 X162 Y141.875 E8.25524
G1 X161.858 Y142.106 E8.26787
G1 X161.634 Y142.459 E8.28734
G1 X160.835 Y143.695 E8.35587
G1 X160.368 Y144.397 E8.39513
G1 X160.197 Y144.646 E8.40919
G1 X159.95 Y144.995 E8.4291
G1 X159.131 Y146.132 E8.49435
G1 X158.584 Y146.872 E8.5372
G1 X158.414 Y147.095 E8.55026
G1 X158.132 Y147.456 E8.57159
G1 X157.264 Y148.543 E8.63636
G1 X156.661 Y149.277 E8.68059
G1 X156.487 Y149.483 E8.69315
G1 X156.217 Y149.794 E8.71233
G1 X155.232 Y150.91 E8.78164
G1 X154.7 Y151.496 E8.81849
G1 X154.52 Y151.69 E8.83082
G1 X154.143 Y152.084 E8.85621
G1 X153.159 Y153.091 E8.92177
G1 X152.557 Y153.69 E8.96131
G1 X152.07 Y154.156 E8.9927
G1 X150.987 Y155.162 E9.06153
G1 X150.289 Y155.791 E9.10528
G1 X150.084 Y155.971 E9.11798
G1 X149.775 Y156.235 E9.13691
G1 X148.779 Y157.07 E9.19743
G1 X148.002 Y157.704 E9.24412
G1 X147.52 Y158.083 E9.27267
G1 X146.406 Y158.928 E9.33778
G1 X145.552 Y159.558 E9.3872
G1 X145.341 Y159.709 E9.39928
G1 X144.951 Y159.981 E9.42142
G1 X143.755 Y160.795 E9.48878
G1 X143.046 Y161.263 E9.52834
G1 X142.813 Y161.413 E9.54124
G1 X142.412 Y161.663 E9.56325
G1 X141.319 Y162.332 E9.62292
G1 X140.468 Y162.836 E9.66897
G1 X140.205 Y162.987 E9.6831
G1 X139.766 Y163.23 E9.70646
G1 X138.556 Y163.888 E9.77059
G1 X137.808 Y164.283 E9.80998
G1 X137.566 Y164.407 E9.82264
G1 X137.124 Y164.626 E9.84561
G1 X135.817 Y165.254 E9.91313
G1 X135.033 Y165.617 E9.95336
G1 X134.787 Y165.727 E9.96591
G1 X134.312 Y165.932 E9.99
G1 X133.075 Y166.452 E10.05248
G1 X132.262 Y166.782 E10.09334
G1 X132.014 Y166.879 E10.10574
G1 X131.464 Y167.087 E10.13312
G1 X130.222 Y167.537 E10.19463
G1 X129.365 Y167.835 E10.23688
G1 X129.088 Y167.927 E10.25047
G1 X128.643 Y168.068 E10.27221
G1 X127.335 Y168.471 E10.33594
G1 X126.465 Y168.726 E10.37815
G1 X126.234 Y168.791 E10.38933
G1 X125.737 Y168.924 E10.41329
G1 X124.518 Y169.234 E10.47185
G1 X123.483 Y169.481 E10.5214
G1 X123.22 Y169.541 E10.53396
G1 X122.83 Y169.623 E10.55252
G1 X121.391 Y169.914 E10.62088
G1 X120.535 Y170.074 E10.66143
G1 X120.289 Y170.117 E10.67306
G1 X119.785 Y170.198 E10.69683
G1 X118.435 Y170.401 E10.7604
G1 X117.513 Y170.526 E10.80372
G1 X117.267 Y170.557 E10.81527
G1 X116.778 Y170.611 E10.83818
G1 X115.359 Y170.751 E10.90457
G1 X114.525 Y170.823 E10.94355
G1 X114.242 Y170.844 E10.95676
G1 X113.742 Y170.874 E10.98009
G1 X112.489 Y170.936 E11.0385
G1 X111.462 Y170.973 E11.08636
G1 X111.203 Y170.979 E11.09842
G1 X110.736 Y170.984 E11.12017
G1 X109.3 Y170.983 E11.18703
G1 X108.409 Y170.97 E11.22853
G1 X107.837 Y170.951 E11.25518
G1 X106.415 Y170.881 E11.32147
G1 X105.386 Y170.816 E11.36948
G1 X105.13 Y170.797 E11.38143
G1 X104.669 Y170.755 E11.40299
G1 X103.231 Y170.611 E11.47028
G1 X102.375 Y170.513 E11.5104
G1 X102.094 Y170.477 E11.52359
G1 X101.604 Y170.407 E11.54664
G1 X100.229 Y170.199 E11.6114
G1 X99.36 Y170.055 E11.65241
G1 X99.1 Y170.009 E11.66471
G1 X98.604 Y169.914 E11.68822
G1 X97.228 Y169.635 E11.7536
G1 X96.382 Y169.451 E11.79391
G1 X96.163 Y169.401 E11.80437
G1 X95.615 Y169.268 E11.83063
G1 X94.257 Y168.921 E11.8959
G1 X93.436 Y168.699 E11.9355
G1 X93.172 Y168.624 E11.94828
G1 X92.684 Y168.478 E11.972
G1 X91.41 Y168.084 E12.03409
G1 X90.496 Y167.788 E12.07883
G1 X90.248 Y167.704 E12.09102
G1 X89.807 Y167.549 E12.11279
G1 X88.537 Y167.085 E12.17575
G1 X87.68 Y166.759 E12.21844
G1 X87.431 Y166.661 E12.2309
G1 X86.903 Y166.445 E12.25746
G1 X85.822 Y165.99 E12.31208
G1 X84.863 Y165.57 E12.36083
G1 X84.611 Y165.456 E12.37371
G1 X84.176 Y165.251 E12.3961
G1 X82.894 Y164.633 E12.46237
G1 X82.176 Y164.275 E12.49973
G1 X81.915 Y164.141 E12.51339
G1 X81.41 Y163.872 E12.54003
G1 X80.377 Y163.31 E12.59479
G1 X79.449 Y162.787 E12.64439
G1 X79.228 Y162.66 E12.65626
G1 X78.805 Y162.407 E12.67921
G1 X77.62 Y161.682 E12.7439
G1 X76.847 Y161.194 E12.78646
G1 X76.632 Y161.055 E12.79838
G1 X76.243 Y160.795 E12.82017
G1 X75.056 Y159.985 E12.88709
G1 X74.378 Y159.509 E12.92566
G1 X74.154 Y159.347 E12.93853
G1 X73.716 Y159.022 E12.96393
G1 X72.605 Y158.178 E13.0289
G1 X71.953 Y157.669 E13.06741
G1 X71.752 Y157.508 E13.0794
G1 X71.309 Y157.144 E13.1061
G1 X70.28 Y156.278 E13.16873
G1 X69.603 Y155.694 E13.21036
G1 X69.404 Y155.518 E13.22273
G1 X69.036 Y155.184 E13.24587
G1 X68.059 Y154.275 E13.30801
G1 X67.351 Y153.6 E13.35356
G1 X67.145 Y153.398 E13.36699
G1 X66.852 Y153.103 E13.38635
G1 X65.833 Y152.057 E13.45435
G1 X65.27 Y151.464 E13.49243
G1 X65.077 Y151.256 E13.50564
G1 X64.777 Y150.922 E13.52654
G1 X63.818 Y149.833 E13.59411
G1 X63.234 Y149.152 E13.63589
G1 X63.056 Y148.939 E13.64881
G1 X62.769 Y148.586 E13.67
G1 X61.983 Y147.602 E13.72864
G1 X61.352 Y146.788 E13.7766
G1 X61.172 Y146.55 E13.79049
G1 X60.897 Y146.173 E13.81222
G1 X60.06 Y145.008 E13.87902
G1 X59.574 Y144.311 E13.91858
G1 X59.418 Y144.081 E13.93152
G1 X59.183 Y143.724 E13.95142
G1 X58.388 Y142.492 E14.0197
G1 X57.94 Y141.778 E14.05895
G1 X57.781 Y141.516 E14.07322
G1 X57.545 Y141.115 E14.09488
G1 X56.823 Y139.861 E14.16226
G1 X56.42 Y139.139 E14.20076
G1 X56.303 Y138.923 E14.2122
G1 X56.054 Y138.451 E14.23705
G1 X55.419 Y137.209 E14.30201
G1 X55.022 Y136.405 E14.34376
G1 X54.913 Y136.178 E14.35548
G1 X54.69 Y135.698 E14.38013
G1 X54.13 Y134.454 E14.44365
G1 X53.774 Y133.635 E14.48524
G1 X53.678 Y133.408 E14.49671
G1 X53.503 Y132.976 E14.51842
G1 X52.992 Y131.67 E14.58372
G1 X52.655 Y130.774 E14.62829
G1 X52.559 Y130.508 E14.64146
G1 X52.429 Y130.133 E14.65994
G1 X51.972 Y128.766 E14.72706
G1 X51.696 Y127.904 E14.7692
G1 X51.626 Y127.679 E14.78018
G1 X51.501 Y127.253 E14.80085
G1 X51.113 Y125.867 E14.86787
G1 X50.87 Y124.951 E14.912
G1 X50.811 Y124.72 E14.9231
G1 X50.715 Y124.317 E14.94239
G1 X50.392 Y122.899 E15.01011
G1 X50.208 Y122.042 E15.05092
G1 X50.153 Y121.768 E15.06394
G1 X50.065 Y121.297 E15.08625
G1 X49.823 Y119.915 E15.15158
G1 X49.679 Y119.022 E15.1937
G1 X49.64 Y118.759 E15.20608
G1 X49.578 Y118.301 E15.2276
G1 X49.407 Y116.925 E15.29216
G1 X49.308 Y116.033 E15.33395
G1 X49.281 Y115.754 E15.34701
G1 X49.234 Y115.197 E15.37303
G1 X49.136 Y113.877 E15.43467
G1 X49.082 Y112.983 E15.47637
G1 X49.07 Y112.727 E15.48831
G1 X49.051 Y112.215 E15.51216
G1 X49.02 Y110.965 E15.57039
G1 X49.009 Y109.948 E15.61774
G1 X49.009 Y109.681 E15.63018
G1 X49.016 Y109.195 E15.65281
G1 X49.053 Y107.76 E15.71965
G1 X49.086 Y106.918 E15.75889
G1 X49.1 Y106.657 E15.77106
G1 X49.132 Y106.159 E15.7943
G1 X49.24 Y104.743 E15.86042
G1 X49.315 Y103.903 E15.89969
G1 X49.342 Y103.633 E15.91233
G1 X49.406 Y103.075 E15.93848
G1 X49.572 Y101.759 E16.00024
G1 X49.694 Y100.879 E16.04161
G1 X49.74 Y100.577 E16.05584
G1 X49.824 Y100.077 E16.07945
G1 X50.033 Y98.889 E16.13561
G1 X50.228 Y97.866 E16.18411
G1 X50.277 Y97.625 E16.19556
G1 X50.39 Y97.103 E16.22043
G1 X50.706 Y95.726 E16.28621
G1 X50.909 Y94.892 E16.32618
G1 X50.972 Y94.645 E16.33805
G1 X51.095 Y94.192 E16.35991
G1 X51.476 Y92.842 E16.42523
G1 X51.735 Y91.967 E16.46772
G1 X51.823 Y91.684 E16.48152
G1 X51.967 Y91.243 E16.50312
G1 X52.367 Y90.052 E16.56162
G1 X52.7 Y89.105 E16.60836
G1 X52.788 Y88.864 E16.62031
G1 X52.98 Y88.357 E16.64555
G1 X53.486 Y87.072 E16.70986
G1 X53.819 Y86.258 E16.75081
G1 X53.922 Y86.016 E16.76306
G1 X54.111 Y85.584 E16.78502
G1 X54.648 Y84.395 E16.84577
G1 X55.073 Y83.488 E16.89241
G1 X55.186 Y83.253 E16.90455
G1 X55.399 Y82.828 E16.92668
G1 X56.04 Y81.579 E16.99206
G1 X56.468 Y80.773 E17.03455
G1 X56.586 Y80.556 E17.04605
G1 X56.835 Y80.113 E17.06971
G1 X57.515 Y78.938 E17.13293
G1 X58 Y78.125 E17.17701
G1 X58.142 Y77.894 E17.18964
G1 X58.366 Y77.541 E17.2091
G1 X59.165 Y76.305 E17.27764
G1 X59.632 Y75.603 E17.3169
G1 X59.803 Y75.354 E17.33096
G1 X60.05 Y75.005 E17.35087
G1 X60.869 Y73.868 E17.41612
G1 X61.416 Y73.128 E17.45897
G1 X61.586 Y72.905 E17.47202
G1 X61.868 Y72.544 E17.49336
G1 X62.736 Y71.457 E17.55813
G1 X63.339 Y70.723 E17.60236
G1 X63.513 Y70.517 E17.61492
G1 X63.783 Y70.206 E17.63409
G1 X64.768 Y69.09 E17.70341
G1 X65.3 Y68.504 E17.74026
G1 X65.48 Y68.31 E17.75258
G1 X65.857 Y67.916 E17.77797
G1 X66.841 Y66.909 E17.84353
G0 F6000 X67.123 Y67.193
G1 F1200 X67.725 Y66.594 E17.88308
G1 X67.893 Y66.43 E17.89401
G1 X68.303 Y66.042 E17.9203
G1 X69.281 Y65.136 E17.98237
G1 X69.979 Y64.507 E18.02612
G1 X70.177 Y64.333 E18.0384
G1 X70.482 Y64.072 E18.05709
G1 X71.591 Y63.144 E18.12443
G1 X72.424 Y62.467 E18.17441
G1 X72.878 Y62.114 E18.20119
G1 X73.952 Y61.303 E18.26385
G1 X74.685 Y60.764 E18.30622
G1 X75.171 Y60.421 E18.33392
G1 X76.332 Y59.628 E18.39939
G1 X77.175 Y59.07 E18.44646
G1 X77.399 Y58.927 E18.45883
G1 X77.797 Y58.678 E18.48069
