;FLAVOR:Marlin
;TIME:6798
;Filament used: 4.65376m
;Layer height: 0.16
;MINX:74.197
;MINY:68.208
;MINZ:0.2
;MAXX:155.148
;MAXY:172.908
;MAXZ:10
;Generated with Cura_SteamEngine 4.12.1
M140 S50
M105
M190 S50
M104 S205
M105
M109 S205
M82 ;absolute extrusion mode
; Ender 3 Custom Start G-code
G92 E0 ; Reset Extruder
G28 ; Home all axes
G1 Z2.0 F3000 ; Move Z Axis up little to prevent scratching of Heat Bed
G1 X0.1 Y20 Z0.3 F5000.0 ; Move to start position
G1 X0.1 Y200.0 Z0.3 F1500.0 E15 ; Draw the first line
G1 X0.4 Y200.0 Z0.3 F5000.0 ; Move to side a little
G1 X0.4 Y20 Z0.3 F1500.0 E30 ; Draw the second line
G92 E0 ; Reset Extruder
G1 Z2.0 F3000 ; Move Z Axis up little to prevent scratching of Heat Bed
G1 X5 Y20 Z0.3 F5000.0 ; Move over to prevent blob squish
G92 E0
G92 E0
G1 F2700 E-5
;LAYER_COUNT:58
;LAYER:0
M107
G0 F6000 X96.097 Y71.554 Z0.2
;TYPE:SKIRT
G1 F2700 E0
G1 F1200 X96.58 Y70.93 E0.02625
G1 X97.123 Y70.357 E0.0525
G1 X97.722 Y69.842 E0.07878
G1 X98.37 Y69.391 E0.10503
G1 X99.061 Y69.007 E0.13133
G1 X99.786 Y68.695 E0.15758
G1 X100.539 Y68.458 E0.18383
G1 X101.313 Y68.299 E0.21012
G1 X102.098 Y68.218 E0.23636
G1 X102.5 Y68.208 E0.24974
G1 X132.5 Y68.208 E1.24754
G1 X133.289 Y68.248 E1.27382
G1 X134.069 Y68.367 E1.30006
G1 X134.834 Y68.565 E1.32634
G1 X135.574 Y68.839 E1.35259
G1 X136.283 Y69.187 E1.37886
G1 X136.954 Y69.605 E1.40515
G1 X137.578 Y70.088 E1.4314
G1 X138.151 Y70.631 E1.45765
G1 X138.666 Y71.23 E1.48393
G1 X139.117 Y71.878 E1.51019
G1 X139.501 Y72.569 E1.53648
G1 X139.813 Y73.294 E1.56273
G1 X140.05 Y74.047 E1.58899
G1 X140.209 Y74.821 E1.61527
G1 X140.29 Y75.606 E1.64152
G1 X140.3 Y76.008 E1.65489
G1 X140.3 Y98.22 E2.39366
G1 X147.343 Y98.218 E2.62792
G1 X148.132 Y98.258 E2.65419
G1 X148.913 Y98.377 E2.68047
G1 X149.677 Y98.574 E2.70671
G1 X150.418 Y98.848 E2.73299
G1 X151.127 Y99.195 E2.75924
G1 X151.798 Y99.612 E2.78552
G1 X152.423 Y100.095 E2.81179
G1 X152.996 Y100.638 E2.83804
G1 X153.511 Y101.237 E2.86432
G1 X153.963 Y101.884 E2.89057
G1 X154.347 Y102.574 E2.91683
G1 X154.659 Y103.3 E2.94312
G1 X154.896 Y104.053 E2.96937
G1 X155.056 Y104.826 E2.99563
G1 X155.137 Y105.612 E3.02191
G1 X155.148 Y106.018 E3.03542
G1 X155.148 Y113.982 E3.3003
G1 X155.108 Y114.771 E3.32658
G1 X154.989 Y115.551 E3.35282
G1 X154.791 Y116.316 E3.3791
G1 X154.517 Y117.056 E3.40535
G1 X154.302 Y117.494 E3.42157
G1 X154.347 Y117.574 E3.42463
G1 X154.659 Y118.3 E3.45091
G1 X154.896 Y119.053 E3.47717
G1 X155.056 Y119.826 E3.50342
G1 X155.137 Y120.612 E3.5297
G1 X155.148 Y121.018 E3.54321
G1 X155.148 Y128.982 E3.80809
G1 X155.108 Y129.771 E3.83437
G1 X154.989 Y130.551 E3.86061
G1 X154.791 Y131.316 E3.8869
G1 X154.517 Y132.056 E3.91314
G1 X154.169 Y132.765 E3.93941
G1 X153.751 Y133.436 E3.9657
G1 X153.268 Y134.06 E3.99195
G1 X152.725 Y134.633 E4.01821
G1 X152.126 Y135.148 E4.04448
G1 X151.478 Y135.599 E4.07074
G1 X150.787 Y135.983 E4.09703
G1 X150.062 Y136.295 E4.12328
G1 X149.309 Y136.532 E4.14954
G1 X148.535 Y136.691 E4.17582
G1 X147.75 Y136.772 E4.20207
G1 X147.347 Y136.782 E4.21548
G1 X139.549 Y136.781 E4.47484
G1 X139.813 Y137.394 E4.49704
G1 X140.05 Y138.147 E4.52329
G1 X140.209 Y138.921 E4.54957
G1 X140.29 Y139.706 E4.57582
G1 X140.3 Y140.108 E4.5892
G1 X140.3 Y165.108 E5.4207
G1 X140.26 Y165.897 E5.44698
G1 X140.141 Y166.677 E5.47322
G1 X139.943 Y167.442 E5.4995
G1 X139.669 Y168.182 E5.52575
G1 X139.321 Y168.891 E5.55202
G1 X138.903 Y169.562 E5.57831
G1 X138.42 Y170.186 E5.60455
G1 X137.877 Y170.759 E5.63081
G1 X137.278 Y171.274 E5.65708
G1 X136.63 Y171.725 E5.68334
G1 X135.939 Y172.109 E5.70964
G1 X135.214 Y172.421 E5.73589
G1 X134.461 Y172.658 E5.76214
G1 X133.687 Y172.817 E5.78843
G1 X132.902 Y172.898 E5.81467
G1 X132.5 Y172.908 E5.82805
G1 X102.5 Y172.908 E6.82585
G1 X101.711 Y172.868 E6.85213
G1 X100.931 Y172.749 E6.87837
G1 X100.166 Y172.551 E6.90465
G1 X99.426 Y172.277 E6.9309
G1 X98.717 Y171.929 E6.95717
G1 X98.046 Y171.511 E6.98346
G1 X97.422 Y171.028 E7.00971
G1 X96.849 Y170.485 E7.03596
G1 X96.334 Y169.886 E7.06224
G1 X95.883 Y169.238 E7.0885
G1 X95.499 Y168.547 E7.11479
G1 X95.187 Y167.822 E7.14104
G1 X94.95 Y167.069 E7.1673
G1 X94.791 Y166.295 E7.19358
G1 X94.71 Y165.51 E7.21983
G1 X94.7 Y165.108 E7.2332
G1 X94.7 Y140.3 E8.05832
G1 X81.997 Y140.3 E8.48082
G1 X81.208 Y140.26 E8.5071
G1 X80.428 Y140.141 E8.53334
G1 X79.663 Y139.943 E8.55962
G1 X78.923 Y139.669 E8.58587
G1 X78.214 Y139.321 E8.61214
G1 X77.543 Y138.903 E8.63843
G1 X76.919 Y138.42 E8.66468
G1 X76.346 Y137.877 E8.69093
G1 X75.831 Y137.278 E8.71721
G1 X75.38 Y136.63 E8.74346
G1 X74.996 Y135.939 E8.76976
G1 X74.684 Y135.214 E8.79601
G1 X74.447 Y134.461 E8.82227
G1 X74.288 Y133.687 E8.84855
G1 X74.207 Y132.902 E8.87479
G1 X74.197 Y132.5 E8.88817
G1 X74.197 Y102.5 E9.88597
G1 X74.237 Y101.711 E9.91225
G1 X74.356 Y100.931 E9.93849
G1 X74.554 Y100.166 E9.96477
G1 X74.828 Y99.426 E9.99102
G1 X75.176 Y98.717 E10.01729
G1 X75.594 Y98.046 E10.04358
G1 X76.077 Y97.422 E10.06983
G1 X76.62 Y96.849 E10.09608
G1 X77.219 Y96.334 E10.12236
G1 X77.867 Y95.883 E10.14862
G1 X78.558 Y95.499 E10.17491
G1 X79.283 Y95.187 E10.20116
G1 X80.036 Y94.95 E10.22742
G1 X80.81 Y94.791 E10.2537
G1 X81.595 Y94.71 E10.27995
G1 X81.997 Y94.7 E10.29332
G1 X94.7 Y94.7 E10.71582
G1 X94.7 Y76.008 E11.33752
G1 X94.74 Y75.219 E11.3638
G1 X94.859 Y74.439 E11.39004
G1 X95.057 Y73.674 E11.41632
G1 X95.331 Y72.934 E11.44257
G1 X95.679 Y72.225 E11.46884
G1 X96.097 Y71.554 E11.49513
G0 F6000 X96.494 Y71.685
G1 F1200 X96.975 Y71.085 E11.52071
G1 X97.516 Y70.538 E11.5463
G1 X98.111 Y70.05 E11.57189
G1 X98.753 Y69.627 E11.59746
G1 X99.436 Y69.272 E11.62307
G1 X100.151 Y68.991 E11.64862
G1 X100.893 Y68.785 E11.67423
G1 X101.651 Y68.657 E11.6998
G1 X102.5 Y68.608 E11.72808
G1 X132.5 Y68.608 E12.72589
G1 X133.268 Y68.648 E12.75147
G1 X134.028 Y68.767 E12.77705
G1 X134.771 Y68.965 E12.80263
G1 X135.49 Y69.239 E12.82822
G1 X136.176 Y69.586 E12.85379
G1 X136.823 Y70.002 E12.87937
G1 X137.423 Y70.483 E12.90495
G1 X137.97 Y71.024 E12.93054
G1 X138.458 Y71.619 E12.95613
G1 X138.881 Y72.261 E12.9817
G1 X139.236 Y72.944 E13.0073
G1 X139.517 Y73.659 E13.03286
G1 X139.723 Y74.401 E13.05847
G1 X139.851 Y75.159 E13.08404
G1 X139.9 Y76.008 E13.11232
G1 X139.9 Y98.62 E13.8644
G1 X147.344 Y98.618 E14.11199
G1 X148.112 Y98.658 E14.13757
G1 X148.872 Y98.777 E14.16315
G1 X149.615 Y98.974 E14.18872
G1 X150.334 Y99.247 E14.2143
G1 X151.021 Y99.594 E14.2399
G1 X151.668 Y100.01 E14.26548
G1 X152.268 Y100.491 E14.29106
G1 X152.815 Y101.031 E14.31662
G1 X153.303 Y101.626 E14.34222
G1 X153.727 Y102.267 E14.36778
G1 X154.082 Y102.95 E14.39338
G1 X154.364 Y103.665 E14.41894
G1 X154.57 Y104.406 E14.44452
G1 X154.699 Y105.165 E14.47013
G1 X154.748 Y106.018 E14.49855
G1 X154.748 Y113.982 E14.76343
G1 X154.708 Y114.75 E14.78901
G1 X154.589 Y115.51 E14.8146
G1 X154.391 Y116.253 E14.84017
G1 X154.117 Y116.972 E14.86576
G1 X153.849 Y117.502 E14.88552
G1 X154.082 Y117.95 E14.90231
G1 X154.364 Y118.665 E14.92788
G1 X154.57 Y119.406 E14.95346
G1 X154.699 Y120.165 E14.97906
G1 X154.748 Y121.018 E15.00748
G1 X154.748 Y128.982 E15.27236
G1 X154.708 Y129.75 E15.29794
G1 X154.589 Y130.51 E15.32353
G1 X154.391 Y131.253 E15.3491
G1 X154.117 Y131.972 E15.37469
G1 X153.77 Y132.658 E15.40026
G1 X153.354 Y133.305 E15.42585
G1 X152.873 Y133.905 E15.45142
G1 X152.332 Y134.452 E15.47701
G1 X151.737 Y134.94 E15.50261
G1 X151.095 Y135.363 E15.52818
G1 X150.412 Y135.718 E15.55378
G1 X149.697 Y135.999 E15.57933
G1 X148.955 Y136.205 E15.60494
G1 X148.197 Y136.333 E15.63051
G1 X147.347 Y136.382 E15.65883
G1 X138.891 Y136.381 E15.94008
G1 X139.236 Y137.044 E15.96494
G1 X139.517 Y137.759 E15.99049
G1 X139.723 Y138.501 E16.0161
G1 X139.851 Y139.259 E16.04167
G1 X139.9 Y140.108 E16.06995
G1 X139.9 Y165.108 E16.90146
G1 X139.86 Y165.876 E16.92704
G1 X139.741 Y166.636 E16.95262
G1 X139.543 Y167.379 E16.9782
G1 X139.269 Y168.098 E17.00379
G1 X138.922 Y168.784 E17.02936
G1 X138.506 Y169.431 E17.05494
G1 X138.025 Y170.031 E17.08052
G1 X137.484 Y170.578 E17.10611
G1 X136.889 Y171.066 E17.1317
G1 X136.247 Y171.489 E17.15727
G1 X135.564 Y171.844 E17.18287
G1 X134.849 Y172.125 E17.20843
G1 X134.107 Y172.331 E17.23404
G1 X133.349 Y172.459 E17.25961
G1 X132.5 Y172.508 E17.28789
G1 X102.5 Y172.508 E18.28569
G1 X101.732 Y172.468 E18.31127
G1 X100.972 Y172.349 E18.33686
G1 X100.229 Y172.151 E18.36243
G1 X99.51 Y171.877 E18.38803
G1 X98.824 Y171.53 E18.41359
G1 X98.177 Y171.114 E18.43918
G1 X97.577 Y170.633 E18.46476
G1 X97.03 Y170.092 E18.49034
G1 X96.542 Y169.497 E18.51594
G1 X96.119 Y168.855 E18.54151
G1 X95.764 Y168.172 E18.56711
G1 X95.483 Y167.457 E18.59266
G1 X95.277 Y166.715 E18.61828
G1 X95.149 Y165.957 E18.64384
G1 X95.1 Y165.108 E18.67213
G1 X95.1 Y140.108 E19.50363
G1 X95.111 Y139.9 E19.51056
G1 X81.997 Y139.9 E19.94673
G1 X81.229 Y139.86 E19.97231
G1 X80.469 Y139.741 E19.9979
G1 X79.726 Y139.543 E20.02347
G1 X79.007 Y139.269 E20.04906
G1 X78.321 Y138.922 E20.07463
G1 X77.674 Y138.506 E20.10022
G1 X77.074 Y138.025 E20.12579
G1 X76.527 Y137.484 E20.15138
G1 X76.039 Y136.889 E20.17698
G1 X75.616 Y136.247 E20.20255
G1 X75.261 Y135.564 E20.22815
G1 X74.98 Y134.849 E20.2537
G1 X74.774 Y134.107 E20.27931
G1 X74.646 Y133.349 E20.30488
G1 X74.597 Y132.5 E20.33317
G1 X74.597 Y102.5 E21.33097
G1 X74.637 Y101.732 E21.35655
G1 X74.756 Y100.972 E21.38213
G1 X74.954 Y100.229 E21.40771
G1 X75.228 Y99.51 E21.4333
G1 X75.575 Y98.824 E21.45887
G1 X75.991 Y98.177 E21.48445
G1 X76.472 Y97.577 E21.51003
G1 X77.013 Y97.03 E21.53562
G1 X77.608 Y96.542 E21.56121
G1 X78.25 Y96.119 E21.58679
G1 X78.933 Y95.764 E21.61239
G1 X79.648 Y95.483 E21.63794
G1 X80.39 Y95.277 E21.66355
G1 X81.148 Y95.149 E21.68912
G1 X81.997 Y95.1 E21.7174
G1 X95.1 Y95.1 E22.15321
G1 X95.1 Y76.008 E22.78821
G1 X95.14 Y75.24 E22.81379
G1 X95.259 Y74.48 E22.83938
G1 X95.457 Y73.737 E22.86495
G1 X95.731 Y73.018 E22.89055
G1 X96.078 Y72.332 E22.91611
G1 X96.494 Y71.685 E22.9417
G0 F6000 X96.892 Y71.819
G1 F1200 X97.371 Y71.245 E22.96656
G1 X97.908 Y70.724 E22.99145
G1 X98.498 Y70.265 E23.01631
G1 X99.134 Y69.87 E23.04121
G1 X99.808 Y69.546 E23.06609
G1 X100.513 Y69.296 E23.09096
G1 X101.241 Y69.122 E23.11586
G1 X101.983 Y69.027 E23.14074
G1 X102.5 Y69.008 E23.15795
G1 X132.5 Y69.008 E24.15575
G1 X133.247 Y69.048 E24.18063
G1 X133.985 Y69.167 E24.2055
G1 X134.707 Y69.365 E24.2304
G1 X135.403 Y69.638 E24.25526
G1 X136.066 Y69.985 E24.28015
G1 X136.689 Y70.4 E24.30505
G1 X137.263 Y70.879 E24.32991
G1 X137.784 Y71.416 E24.3548
G1 X138.243 Y72.006 E24.37966
G1 X138.638 Y72.642 E24.40456
G1 X138.962 Y73.316 E24.42944
G1 X139.212 Y74.021 E24.45432
G1 X139.386 Y74.749 E24.47921
G1 X139.481 Y75.491 E24.50409
G1 X139.5 Y76.008 E24.5213
G1 X139.5 Y99.02 E25.28668
G1 X147.344 Y99.018 E25.54757
G1 X148.091 Y99.058 E25.57245
G1 X148.829 Y99.177 E25.59732
G1 X149.551 Y99.374 E25.62221
G1 X150.248 Y99.647 E25.64711
G1 X150.911 Y99.993 E25.67198
G1 X151.534 Y100.407 E25.69686
G1 X152.108 Y100.886 E25.72172
G1 X152.629 Y101.423 E25.74661
G1 X153.089 Y102.013 E25.77149
G1 X153.484 Y102.648 E25.79637
G1 X153.808 Y103.322 E25.82124
G1 X154.059 Y104.027 E25.84613
G1 X154.233 Y104.755 E25.87102
G1 X154.329 Y105.497 E25.89591
G1 X154.348 Y106.018 E25.91325
G1 X154.348 Y113.982 E26.17813
G1 X154.308 Y114.729 E26.20301
G1 X154.189 Y115.467 E26.22788
G1 X153.991 Y116.189 E26.25278
G1 X153.718 Y116.885 E26.27764
G1 X153.394 Y117.504 E26.30088
G1 X153.484 Y117.648 E26.30653
G1 X153.808 Y118.322 E26.3314
G1 X154.059 Y119.027 E26.35629
G1 X154.233 Y119.755 E26.38119
G1 X154.329 Y120.497 E26.40607
G1 X154.348 Y121.018 E26.42341
G1 X154.348 Y128.982 E26.6883
G1 X154.308 Y129.729 E26.71318
G1 X154.189 Y130.467 E26.73804
G1 X153.991 Y131.189 E26.76294
G1 X153.718 Y131.885 E26.78781
G1 X153.371 Y132.548 E26.8127
G1 X152.956 Y133.171 E26.83759
G1 X152.477 Y133.745 E26.86246
G1 X151.94 Y134.266 E26.88734
G1 X151.35 Y134.725 E26.91221
G1 X150.714 Y135.12 E26.93711
G1 X150.04 Y135.444 E26.96198
G1 X149.335 Y135.694 E26.98686
G1 X148.607 Y135.868 E27.01175
G1 X147.865 Y135.963 E27.03664
G1 X147.347 Y135.982 E27.05388
G1 X138.146 Y135.981 E27.3599
G1 X138.243 Y136.106 E27.36516
G1 X138.638 Y136.742 E27.39007
G1 X138.962 Y137.416 E27.41494
G1 X139.212 Y138.121 E27.43982
G1 X139.386 Y138.849 E27.46471
G1 X139.481 Y139.591 E27.48959
G1 X139.5 Y140.108 E27.5068
G1 X139.5 Y165.108 E28.3383
G1 X139.46 Y165.855 E28.36319
G1 X139.341 Y166.593 E28.38805
G1 X139.143 Y167.315 E28.41295
G1 X138.87 Y168.011 E28.43781
G1 X138.523 Y168.674 E28.4627
G1 X138.108 Y169.297 E28.4876
G1 X137.629 Y169.871 E28.51247
G1 X137.092 Y170.392 E28.53735
G1 X136.502 Y170.851 E28.56221
G1 X135.866 Y171.246 E28.58712
G1 X135.192 Y171.57 E28.61199
G1 X134.487 Y171.82 E28.63687
G1 X133.759 Y171.994 E28.66176
G1 X133.017 Y172.089 E28.68664
G1 X132.5 Y172.108 E28.70385
G1 X102.5 Y172.108 E29.70165
G1 X101.753 Y172.068 E29.72654
G1 X101.015 Y171.949 E29.7514
G1 X100.293 Y171.751 E29.7763
G1 X99.597 Y171.478 E29.80117
G1 X98.934 Y171.131 E29.82605
G1 X98.311 Y170.716 E29.85095
G1 X97.737 Y170.237 E29.87582
G1 X97.216 Y169.7 E29.9007
G1 X96.757 Y169.11 E29.92557
G1 X96.362 Y168.474 E29.95047
G1 X96.038 Y167.8 E29.97534
G1 X95.788 Y167.095 E30.00022
G1 X95.614 Y166.367 E30.02511
G1 X95.519 Y165.625 E30.04999
G1 X95.5 Y165.108 E30.0672
G1 X95.5 Y140.108 E30.89871
G1 X95.533 Y139.5 E30.91896
G1 X81.997 Y139.5 E31.36917
G1 X81.25 Y139.46 E31.39405
G1 X80.512 Y139.341 E31.41891
G1 X79.79 Y139.143 E31.44381
G1 X79.094 Y138.87 E31.46868
G1 X78.431 Y138.523 E31.49357
G1 X77.808 Y138.108 E31.51846
G1 X77.234 Y137.629 E31.54333
G1 X76.713 Y137.092 E31.56821
G1 X76.254 Y136.502 E31.59308
G1 X75.859 Y135.866 E31.61798
G1 X75.535 Y135.192 E31.64285
G1 X75.285 Y134.487 E31.66773
G1 X75.111 Y133.759 E31.69263
G1 X75.016 Y133.017 E31.71751
G1 X74.997 Y132.5 E31.73471
G1 X74.997 Y102.5 E32.73252
G1 X75.037 Y101.753 E32.7574
G1 X75.156 Y101.015 E32.78226
G1 X75.354 Y100.293 E32.80716
G1 X75.627 Y99.597 E32.83203
G1 X75.974 Y98.934 E32.85692
G1 X76.389 Y98.311 E32.88181
G1 X76.868 Y97.737 E32.90668
G1 X77.405 Y97.216 E32.93156
G1 X77.995 Y96.757 E32.95643
G1 X78.631 Y96.362 E32.98133
G1 X79.305 Y96.038 E33.0062
G1 X80.01 Y95.788 E33.03108
G1 X80.738 Y95.614 E33.05598
G1 X81.48 Y95.519 E33.08086
G1 X81.997 Y95.5 E33.09806
G1 X95.5 Y95.5 E33.54718
G1 X95.5 Y76.008 E34.19548
G1 X95.54 Y75.261 E34.22036
G1 X95.659 Y74.523 E34.24523
G1 X95.857 Y73.801 E34.27013
G1 X96.13 Y73.105 E34.29499
G1 X96.477 Y72.442 E34.31988
G1 X96.892 Y71.819 E34.34478
G0 F6000 X97.289 Y71.958
G1 F1200 X97.765 Y71.41 E34.36892
G1 X98.299 Y70.917 E34.39309
G1 X98.884 Y70.487 E34.41724
G1 X99.513 Y70.123 E34.44141
G1 X100.178 Y69.83 E34.46558
G1 X100.871 Y69.612 E34.48975
G1 X101.583 Y69.472 E34.51388
G1 X102.5 Y69.408 E34.54445
G1 X132.5 Y69.408 E35.54226
G1 X133.225 Y69.448 E35.56641
G1 X133.942 Y69.567 E35.59058
G1 X134.641 Y69.765 E35.61475
G1 X135.314 Y70.038 E35.6389
G1 X135.953 Y70.383 E35.66305
G1 X136.55 Y70.797 E35.68722
G1 X137.098 Y71.273 E35.71136
G1 X137.591 Y71.807 E35.73553
G1 X138.021 Y72.392 E35.75968
G1 X138.385 Y73.021 E35.78385
G1 X138.678 Y73.686 E35.80802
G1 X138.896 Y74.379 E35.83218
G1 X139.036 Y75.091 E35.85632
G1 X139.1 Y76.008 E35.88689
G1 X139.1 Y99.42 E36.66558
G1 X147.344 Y99.418 E36.93978
G1 X148.069 Y99.458 E36.96393
G1 X148.786 Y99.577 E36.9881
G1 X149.485 Y99.774 E37.01225
G1 X150.158 Y100.046 E37.0364
G1 X150.798 Y100.391 E37.06058
G1 X151.395 Y100.804 E37.08472
G1 X151.943 Y101.281 E37.10889
G1 X152.436 Y101.814 E37.13304
G1 X152.867 Y102.399 E37.1572
G1 X153.232 Y103.027 E37.18136
G1 X153.525 Y103.692 E37.20553
G1 X153.743 Y104.385 E37.2297
G1 X153.883 Y105.097 E37.25383
G1 X153.948 Y106.018 E37.28454
G1 X153.948 Y113.982 E37.54942
G1 X153.908 Y114.707 E37.57357
G1 X153.789 Y115.424 E37.59775
G1 X153.591 Y116.123 E37.62191
G1 X153.318 Y116.796 E37.64607
G1 X152.973 Y117.435 E37.67022
G1 X152.927 Y117.502 E37.67292
G1 X153.232 Y118.027 E37.69312
G1 X153.525 Y118.692 E37.71729
G1 X153.743 Y119.385 E37.74145
G1 X153.883 Y120.097 E37.76558
G1 X153.948 Y121.018 E37.79629
