;FLAVOR:Marlin
;TIME:5212
;Filament used: 4.67928m
;Layer height: 0.28
;MINX:65.535
;MINY:52.516
;MINZ:0.28
;MAXX:154.459
;MAXY:167.489
;MAXZ:15.12
;Generated with Cura_SteamEngine 4.10.0
M140 S60
M105
M190 S60
M104 S200
M105
M109 S200
M82 ;absolute extrusion mode
; Ender 3 Custom Start G-code
G92 E0 ; Reset Extruder
G28 ; Home all axes
G1 Z2.0 F3000 ; Move Z Axis up little to prevent scratching of Heat Bed
G1 X0.1 Y20 Z0.3 F5000.0 ; Move to start position
G1 X0.1 Y200.0 Z0.3 F1500.0 E15 ; Draw the first line
G1 X0.4 Y200.0 Z0.3 F5000.0 ; Move to side a little
G1 X0.4 Y20 Z0.3 F1500.0 E30 ; Draw the second line
G92 E0 ; Reset Extruder
G1 Z2.0 F3000 ; Move Z Axis up little to prevent scratching of Heat Bed
G1 X5 Y20 Z0.3 F5000.0 ; Move over to prevent blob squish
G92 E0
G92 E0
G1 F1500 E-6.5
;LAYER_COUNT:54
;LAYER:0
M107
G0 F6000 X69.266 Y70.64 Z0.28
;TYPE:SKIRT
G1 F1500 E0
G1 F1200 X70.087 Y69.903 E0.05137
G1 X70.182 Y69.826 E0.05707
G1 X70.491 Y69.584 E0.07534
G1 X70.661 Y69.456 E0.08525
G1 X71.156 Y69.105 E0.11351
G1 X71.488 Y68.887 E0.132
G1 X71.992 Y68.567 E0.1598
G1 X94.267 Y54.808 E1.37893
G1 X94.971 Y54.386 E1.41715
G1 X95.722 Y53.975 E1.45702
G1 X95.915 Y53.879 E1.46706
G1 X96.243 Y53.723 E1.48397
G1 X96.475 Y53.617 E1.49584
G1 X97.344 Y53.264 E1.53952
G1 X98.54 Y52.911 E1.59759
G1 X98.805 Y52.849 E1.61026
G1 X99.093 Y52.786 E1.62399
G1 X99.297 Y52.744 E1.63368
G1 X100.223 Y52.594 E1.67737
G1 X101.412 Y52.518 E1.73284
G1 X101.626 Y52.516 E1.74281
G1 X102.07 Y52.521 E1.76348
G1 X102.328 Y52.529 E1.7755
G1 X103.263 Y52.598 E1.81916
G1 X104.23 Y52.755 E1.86478
G1 X104.398 Y52.79 E1.87277
G1 X104.86 Y52.897 E1.89485
G1 X105.128 Y52.965 E1.90772
G1 X106.027 Y53.234 E1.95142
G1 X107.189 Y53.713 E2.00994
G1 X107.501 Y53.863 E2.02606
G1 X108.561 Y54.447 E2.08242
G1 X108.798 Y54.595 E2.09543
G1 X109.572 Y55.125 E2.13911
G1 X110.044 Y55.5 E2.16718
G1 X110.293 Y55.709 E2.18232
G1 X110.985 Y56.342 E2.22599
G1 X111.828 Y57.284 E2.28485
G1 X112.023 Y57.529 E2.29943
G1 X112.382 Y58.007 E2.32727
G1 X112.522 Y58.204 E2.33852
G1 X112.865 Y58.715 E2.36718
G1 X113.244 Y59.32 E2.40042
G1 X142.591 Y107.583 E5.0306
G1 X142.957 Y108.204 E5.06417
G1 X143.113 Y108.478 E5.07885
G1 X143.54 Y109.254 E5.12009
G1 X144.094 Y110.295 E5.175
G1 X144.488 Y111.063 E5.21519
G1 X144.875 Y111.904 E5.2583
G1 X145.24 Y112.797 E5.30322
G1 X145.71 Y113.999 E5.36332
G1 X145.955 Y114.651 E5.39575
G1 X146.252 Y115.559 E5.44024
G1 X146.494 Y116.43 E5.48233
G1 X146.836 Y117.733 E5.54506
G1 X147 Y118.397 E5.57691
G1 X147.067 Y118.683 E5.59058
G1 X147.227 Y119.414 E5.62543
G1 X154.14 Y153.497 E7.24479
G1 X154.269 Y154.178 E7.27707
G1 X154.404 Y155.106 E7.32073
G1 X154.459 Y156.042 E7.36439
G1 X154.435 Y156.98 E7.40808
G1 X154.331 Y157.912 E7.45175
G1 X154.148 Y158.831 E7.49538
G1 X153.887 Y159.732 E7.53906
G1 X153.55 Y160.608 E7.58277
G1 X153.14 Y161.451 E7.62642
G1 X152.66 Y162.257 E7.6701
G1 X152.113 Y163.018 E7.71374
G1 X151.502 Y163.731 E7.75746
G1 X150.834 Y164.388 E7.80109
G1 X150.112 Y164.987 E7.84477
G1 X149.341 Y165.521 E7.88844
G1 X148.528 Y165.989 E7.93212
G1 X147.678 Y166.385 E7.97579
G1 X146.797 Y166.707 E8.01947
G1 X145.892 Y166.953 E8.06313
G1 X144.969 Y167.121 E8.10682
G1 X143.728 Y167.222 E8.1648
G1 X142.699 Y167.247 E8.21273
G1 X142.477 Y167.25 E8.22306
G1 X84.026 Y167.489 E10.94481
G1 X83.175 Y167.481 E10.98444
G1 X82.239 Y167.432 E11.02808
G1 X81.31 Y167.303 E11.07175
G1 X80.395 Y167.095 E11.11545
G1 X79.502 Y166.81 E11.1591
G1 X78.635 Y166.451 E11.20279
G1 X77.803 Y166.018 E11.24647
G1 X77.011 Y165.516 E11.29013
G1 X76.264 Y164.949 E11.3338
G1 X75.568 Y164.32 E11.37748
G1 X74.929 Y163.634 E11.42113
G1 X74.35 Y162.896 E11.46481
G1 X73.836 Y162.112 E11.50846
G1 X73.391 Y161.286 E11.55215
G1 X73.017 Y160.426 E11.59582
G1 X72.719 Y159.537 E11.63948
G1 X72.497 Y158.626 E11.68314
G1 X72.36 Y157.755 E11.7242
G1 X72.324 Y157.446 E11.73868
G1 X72.292 Y157.134 E11.75329
G1 X71.939 Y153.094 E11.94212
G1 X71.886 Y152.375 E11.97569
G1 X71.857 Y151.437 E12.01939
G1 X71.908 Y150.501 E12.06304
G1 X71.988 Y149.867 E12.0928
G1 X72.102 Y149.246 E12.1222
G1 X72.238 Y148.615 E12.15225
G1 X72.586 Y147.094 E12.22491
G1 X73.082 Y144.611 E12.34281
G1 X73.493 Y142.172 E12.45798
G1 X73.846 Y139.677 E12.57532
G1 X74.129 Y137.146 E12.6939
G1 X74.338 Y134.64 E12.811
G1 X74.476 Y132.143 E12.92745
G1 X74.544 Y129.62 E13.04497
G1 X74.54 Y127.097 E13.16245
G1 X74.465 Y124.573 E13.28003
G1 X74.321 Y122.091 E13.3958
G1 X74.104 Y119.579 E13.51321
G1 X73.813 Y117.058 E13.63137
G1 X73.455 Y114.575 E13.74819
G1 X73.022 Y112.066 E13.86674
G1 X72.536 Y109.658 E13.98113
G1 X71.964 Y107.193 E14.09896
G1 X71.319 Y104.73 E14.21752
G1 X70.619 Y102.331 E14.33388
G1 X69.842 Y99.928 E14.45148
G1 X68.999 Y97.552 E14.56887
G1 X68.08 Y95.178 E14.68741
G1 X67.541 Y93.869 E14.75333
G1 X67.195 Y93.05 E14.79473
G1 X66.867 Y92.171 E14.83841
G1 X66.616 Y91.268 E14.88206
G1 X66.405 Y90.071 E14.93865
G1 X66.364 Y89.727 E14.95478
G1 X66.329 Y89.383 E14.97089
G1 X65.619 Y81.255 E15.3508
G1 X65.565 Y80.524 E15.38493
G1 X65.535 Y79.714 E15.42267
G1 X65.535 Y79.609 E15.42756
G1 X65.545 Y79.149 E15.44899
G1 X65.555 Y78.91 E15.46013
G1 X65.634 Y77.976 E15.50377
G1 X65.792 Y77.051 E15.54747
G1 X65.814 Y76.949 E15.55233
G1 X65.94 Y76.428 E15.57729
G1 X66.002 Y76.196 E15.58847
G1 X66.282 Y75.301 E15.63214
G1 X66.641 Y74.426 E15.67618
G1 X66.683 Y74.335 E15.68084
G1 X66.912 Y73.869 E15.70502
G1 X67.028 Y73.646 E15.71672
G1 X67.496 Y72.833 E15.76041
G1 X68.073 Y72.009 E15.80725
G1 X68.13 Y71.935 E15.8116
G1 X68.46 Y71.528 E15.83599
G1 X68.629 Y71.329 E15.84815
G1 X69.266 Y70.64 E15.89184
G0 F6000 X69.559 Y70.912
G1 F1200 X70.339 Y70.214 E15.94058
G1 X70.434 Y70.137 E15.94628
G1 X70.732 Y69.904 E15.96389
G1 X70.902 Y69.776 E15.9738
G1 X71.379 Y69.437 E16.00105
G1 X71.702 Y69.225 E16.01904
G1 X72.203 Y68.908 E16.04665
G1 X94.604 Y55.072 E17.27266
G1 X95.177 Y54.729 E17.30375
G1 X95.9 Y54.333 E17.34214
G1 X96.093 Y54.237 E17.35217
G1 X96.409 Y54.087 E17.36846
G1 X96.641 Y53.981 E17.38034
G1 X97.494 Y53.635 E17.4232
G1 X98.631 Y53.301 E17.47838
G1 X98.896 Y53.239 E17.49105
G1 X99.173 Y53.178 E17.50426
G1 X99.377 Y53.136 E17.51396
G1 X100.286 Y52.989 E17.55684
G1 X101.416 Y52.918 E17.60956
G1 X101.63 Y52.916 E17.61952
G1 X102.058 Y52.921 E17.63945
G1 X102.316 Y52.929 E17.65147
G1 X103.234 Y52.998 E17.69434
G1 X104.149 Y53.147 E17.73751
G1 X104.317 Y53.182 E17.7455
G1 X104.762 Y53.285 E17.76677
G1 X105.03 Y53.353 E17.77964
G1 X105.912 Y53.618 E17.82252
G1 X107.016 Y54.074 E17.87814
G1 X107.328 Y54.224 E17.89426
G1 X108.35 Y54.786 E17.94857
G1 X108.587 Y54.934 E17.96158
G1 X109.346 Y55.455 E18.00445
G1 X109.787 Y55.806 E18.0307
G1 X110.036 Y56.015 E18.04583
G1 X110.715 Y56.637 E18.08871
G1 X111.515 Y57.533 E18.14464
G1 X111.71 Y57.778 E18.15922
G1 X112.056 Y58.239 E18.18606
G1 X112.196 Y58.436 E18.19732
G1 X112.526 Y58.928 E18.2249
G1 X112.902 Y59.528 E18.25787
G1 X142.246 Y107.786 E20.88778
G1 X142.612 Y108.407 E20.92135
G1 X142.763 Y108.671 E20.93551
G1 X143.112 Y109.304 E20.96917
G1 X143.74 Y110.483 E21.03137
G1 X144.132 Y111.246 E21.07131
G1 X144.505 Y112.056 E21.11284
G1 X144.868 Y112.943 E21.15746
G1 X145.336 Y114.139 E21.21727
G1 X145.581 Y114.791 E21.2497
G1 X145.867 Y115.667 E21.29261
G1 X146.107 Y116.532 E21.33441
G1 X146.448 Y117.829 E21.39685
G1 X146.612 Y118.493 E21.4287
G1 X146.676 Y118.769 E21.4419
G1 X146.836 Y119.5 E21.47674
G1 X153.747 Y153.571 E23.09554
G1 X153.876 Y154.252 E23.12781
G1 X154.008 Y155.163 E23.17067
G1 X154.06 Y156.082 E23.21353
G1 X154.032 Y157.003 E23.25644
G1 X153.925 Y157.917 E23.29929
G1 X153.739 Y158.819 E23.34218
G1 X153.475 Y159.701 E23.38505
G1 X153.136 Y160.557 E23.42792
G1 X152.723 Y161.38 E23.47079
G1 X152.241 Y162.164 E23.51365
G1 X151.693 Y162.903 E23.55649
G1 X151.082 Y163.592 E23.59937
G1 X150.414 Y164.226 E23.64225
G1 X149.693 Y164.799 E23.68513
G1 X148.926 Y165.308 E23.728
G1 X148.117 Y165.748 E23.77088
G1 X147.273 Y166.116 E23.81375
G1 X146.401 Y166.409 E23.85659
G1 X145.506 Y166.626 E23.89947
G1 X144.596 Y166.764 E23.94233
G1 X143.718 Y166.822 E23.9833
G1 X142.689 Y166.847 E24.03123
G1 X142.475 Y166.85 E24.0412
G1 X84.024 Y167.089 E26.76294
G1 X83.179 Y167.081 E26.80229
G1 X82.26 Y167.032 E26.84514
G1 X81.348 Y166.903 E26.88803
G1 X80.451 Y166.696 E26.9309
G1 X79.576 Y166.411 E26.97375
G1 X78.728 Y166.052 E27.01663
G1 X77.915 Y165.62 E27.0595
G1 X77.142 Y165.12 E27.10236
G1 X76.416 Y164.554 E27.14523
G1 X75.741 Y163.928 E27.1881
G1 X75.124 Y163.245 E27.23096
G1 X74.568 Y162.511 E27.27383
G1 X74.077 Y161.732 E27.31671
G1 X73.657 Y160.913 E27.35957
G1 X73.308 Y160.061 E27.40244
G1 X73.036 Y159.181 E27.44533
G1 X72.84 Y158.282 E27.48817
G1 X72.757 Y157.709 E27.51513
G1 X72.721 Y157.4 E27.52962
G1 X72.691 Y157.099 E27.5437
G1 X72.338 Y153.064 E27.73231
G1 X72.285 Y152.345 E27.76588
G1 X72.257 Y151.425 E27.80874
G1 X72.309 Y150.506 E27.8516
G1 X72.383 Y149.928 E27.87873
G1 X72.493 Y149.33 E27.90705
G1 X72.628 Y148.705 E27.93682
G1 X72.973 Y147.198 E28.00881
G1 X73.474 Y144.69 E28.1279
G1 X73.891 Y142.217 E28.24468
G1 X74.245 Y139.706 E28.36275
G1 X74.527 Y137.191 E28.4806
G1 X74.735 Y134.694 E28.59727
G1 X74.876 Y132.14 E28.71638
G1 X74.944 Y129.63 E28.8333
G1 X74.94 Y127.084 E28.95185
G1 X74.866 Y124.574 E29.06878
G1 X74.72 Y122.066 E29.18576
G1 X74.498 Y119.5 E29.30569
G1 X74.212 Y117.023 E29.42179
G1 X73.847 Y114.487 E29.5411
G1 X73.422 Y112.025 E29.65743
G1 X72.931 Y109.594 E29.77292
G1 X72.346 Y107.074 E29.89338
G1 X71.704 Y104.622 E30.0114
G1 X70.997 Y102.201 E30.12884
G1 X70.224 Y99.808 E30.24594
G1 X69.373 Y97.41 E30.36442
G1 X68.455 Y95.038 E30.48286
G1 X67.873 Y93.625 E30.55401
G1 X67.564 Y92.894 E30.59097
G1 X67.242 Y92.031 E30.63386
G1 X66.997 Y91.144 E30.67671
G1 X66.802 Y90.023 E30.72969
G1 X66.761 Y89.679 E30.74582
G1 X66.727 Y89.349 E30.76127
G1 X66.029 Y81.369 E31.13427
G1 X65.964 Y80.495 E31.17508
G1 X65.935 Y79.714 E31.21147
G1 X65.935 Y79.609 E31.21636
G1 X65.944 Y79.166 E31.23699
G1 X65.954 Y78.927 E31.24813
G1 X66.033 Y78.01 E31.29099
G1 X66.183 Y77.135 E31.33233
G1 X66.205 Y77.033 E31.33719
G1 X66.326 Y76.531 E31.36123
G1 X66.388 Y76.299 E31.37241
G1 X66.664 Y75.421 E31.41527
G1 X67.005 Y74.594 E31.45692
G1 X67.047 Y74.503 E31.46159
G1 X67.267 Y74.053 E31.48491
G1 X67.383 Y73.83 E31.49662
G1 X67.843 Y73.033 E31.53947
G1 X68.389 Y72.254 E31.58376
G1 X68.446 Y72.18 E31.58811
G1 X68.764 Y71.786 E31.61169
G1 X68.933 Y71.587 E31.62385
G1 X69.559 Y70.912 E31.66671
G0 F6000 X69.853 Y71.185
G1 F1200 X70.59 Y70.525 E31.71278
G1 X70.685 Y70.448 E31.71848
G1 X70.973 Y70.224 E31.73546
G1 X71.143 Y70.096 E31.74537
G1 X71.602 Y69.769 E31.77162
G1 X71.916 Y69.562 E31.78913
G1 X72.413 Y69.248 E31.8165
G1 X94.809 Y55.415 E33.04224
G1 X95.382 Y55.072 E33.07334
G1 X96.078 Y54.691 E33.11028
G1 X96.271 Y54.595 E33.12032
G1 X96.575 Y54.45 E33.136
G1 X96.807 Y54.344 E33.14788
G1 X97.644 Y54.006 E33.18991
G1 X98.722 Y53.69 E33.24222
G1 X98.987 Y53.628 E33.25489
G1 X99.458 Y53.528 E33.27731
G1 X100.35 Y53.385 E33.31938
G1 X101.42 Y53.318 E33.3693
G1 X101.634 Y53.316 E33.37927
G1 X102.045 Y53.321 E33.39841
G1 X102.303 Y53.329 E33.41043
G1 X103.204 Y53.397 E33.4525
G1 X104.067 Y53.538 E33.49322
G1 X104.235 Y53.573 E33.50121
G1 X104.664 Y53.672 E33.52171
G1 X104.932 Y53.74 E33.53458
G1 X105.796 Y54.001 E33.57661
G1 X106.843 Y54.434 E33.62937
G1 X107.155 Y54.584 E33.64549
G1 X108.138 Y55.125 E33.69773
G1 X108.375 Y55.273 E33.71074
G1 X109.119 Y55.785 E33.7528
G1 X109.53 Y56.112 E33.77726
G1 X109.779 Y56.321 E33.79239
G1 X110.444 Y56.932 E33.83444
G1 X111.202 Y57.782 E33.88748
G1 X111.397 Y58.027 E33.90206
G1 X111.73 Y58.47 E33.92786
G1 X111.87 Y58.667 E33.93912
G1 X112.188 Y59.141 E33.96569
G1 X112.56 Y59.735 E33.99833
G1 X141.901 Y107.989 E36.62801
G1 X142.267 Y108.61 E36.66157
G1 X142.412 Y108.864 E36.67519
G1 X142.833 Y109.63 E36.71589
G1 X143.461 Y110.813 E36.77826
G1 X143.776 Y111.428 E36.81043
G1 X144.135 Y112.208 E36.85041
G1 X144.495 Y113.089 E36.89473
G1 X144.961 Y114.28 E36.95428
G1 X145.206 Y114.932 E36.98672
G1 X145.482 Y115.774 E37.02797
G1 X145.721 Y116.634 E37.06954
G1 X146.021 Y117.773 E37.12438
G1 X146.223 Y118.589 E37.16353
G1 X146.285 Y118.854 E37.1762
G1 X146.477 Y119.738 E37.21832
G1 X153.354 Y153.646 E38.82937
G1 X153.483 Y154.327 E38.86164
G1 X153.611 Y155.22 E38.90365
G1 X153.66 Y156.122 E38.94571
G1 X153.63 Y157.025 E38.98778
G1 X153.519 Y157.921 E39.02982
G1 X153.33 Y158.804 E39.07187
G1 X153.063 Y159.667 E39.11393
G1 X152.721 Y160.503 E39.15599
G1 X152.306 Y161.305 E39.19804
G1 X151.822 Y162.067 E39.24007
G1 X151.272 Y162.784 E39.28215
G1 X150.662 Y163.449 E39.32417
G1 X149.994 Y164.058 E39.36626
G1 X149.276 Y164.605 E39.40829
G1 X148.512 Y165.087 E39.45036
G1 X147.708 Y165.499 E39.49242
G1 X146.871 Y165.838 E39.53447
G1 X146.008 Y166.102 E39.57649
G1 X145.124 Y166.289 E39.61857
G1 X144.227 Y166.396 E39.66063
G1 X143.709 Y166.422 E39.68478
G1 X142.68 Y166.447 E39.73271
G1 X142.474 Y166.45 E39.74231
G1 X84.023 Y166.689 E42.46405
G1 X83.183 Y166.681 E42.50317
G1 X82.281 Y166.632 E42.54523
G1 X81.388 Y166.504 E42.58724
G1 X80.509 Y166.297 E42.62929
G1 X79.651 Y166.012 E42.67138
G1 X78.823 Y165.654 E42.71339
G1 X78.029 Y165.223 E42.75546
G1 X77.276 Y164.724 E42.79752
G1 X76.571 Y164.16 E42.83956
G1 X75.918 Y163.536 E42.88162
G1 X75.323 Y162.856 E42.92369
G1 X74.79 Y162.127 E42.96574
G1 X74.324 Y161.353 E43.00781
G1 X73.929 Y160.542 E43.04981
G1 X73.606 Y159.698 E43.09189
G1 X73.36 Y158.829 E43.13395
G1 X73.155 Y157.662 E43.18912
G1 X73.119 Y157.353 E43.20361
G1 X73.089 Y157.064 E43.21714
G1 X72.737 Y153.035 E43.40546
G1 X72.684 Y152.316 E43.43903
G1 X72.657 Y151.413 E43.48109
G1 X72.711 Y150.512 E43.52312
G1 X72.779 Y149.989 E43.54768
G1 X72.884 Y149.413 E43.57495
G1 X73.017 Y148.794 E43.60443
G1 X73.368 Y147.26 E43.6777
G1 X73.867 Y144.763 E43.79627
G1 X74.288 Y142.268 E43.91409
G1 X74.64 Y139.774 E44.03137
G1 X74.925 Y137.229 E44.15062
G1 X75.137 Y134.681 E44.26968
G1 X75.276 Y132.172 E44.38668
G1 X75.344 Y129.641 E44.50458
G1 X75.34 Y127.107 E44.62257
G1 X75.264 Y124.539 E44.7422
G1 X75.117 Y122.01 E44.86016
G1 X74.899 Y119.492 E44.97785
G1 X74.607 Y116.957 E45.09667
G1 X74.243 Y114.433 E45.21542
G1 X73.815 Y111.949 E45.33279
G1 X73.318 Y109.489 E45.44965
G1 X72.737 Y106.987 E45.56925
G1 X72.092 Y104.522 E45.6879
G1 X71.376 Y102.071 E45.8068
G1 X70.606 Y99.688 E45.92341
G1 X69.752 Y97.281 E46.04233
G1 X68.823 Y94.882 E46.16212
G1 X68.243 Y93.473 E46.23307
G1 X67.932 Y92.738 E46.27024
G1 X67.618 Y91.892 E46.31225
G1 X67.38 Y91.021 E46.3543
G1 X67.2 Y89.976 E46.40367
G1 X67.159 Y89.632 E46.41981
G1 X67.126 Y89.314 E46.43469
G1 X66.417 Y81.196 E46.81414
G1 X66.363 Y80.465 E46.84827
G1 X66.335 Y79.714 E46.88327
G1 X66.335 Y79.609 E46.88815
G1 X66.344 Y79.183 E46.908
G1 X66.354 Y78.944 E46.91913
G1 X66.432 Y78.044 E46.9612
G1 X66.574 Y77.219 E47.00018
G1 X66.596 Y77.117 E47.00504
G1 X66.713 Y76.635 E47.02813
G1 X66.775 Y76.403 E47.03932
G1 X67.046 Y75.541 E47.08139
G1 X67.368 Y74.762 E47.12064
G1 X67.41 Y74.671 E47.12531
G1 X67.622 Y74.238 E47.14776
G1 X67.738 Y74.015 E47.15946
G1 X68.19 Y73.233 E47.20152
G1 X68.706 Y72.498 E47.24334
G1 X68.763 Y72.424 E47.24769
G1 X69.069 Y72.045 E47.27037
G1 X69.238 Y71.846 E47.28252
G1 X69.853 Y71.185 E47.32457
G1 F1500 E40.82457
;MESH:bag-hanger.stl
G0 F6000 X83.199 Y150.863
G0 X83.293 Y151.936
G0 X83.826 Y155.889
;TYPE:WALL-INNER
G1 F1500 E47.32457
G1 F1200 X83.512 Y152.303 E47.49218
G1 X83.495 Y152.105 E47.50144
G1 X83.693 Y152.088 E47.50741
G1 X133.125 Y147.764 E49.81796
G1 X133.323 Y147.747 E49.82721
G1 X133.306 Y147.549 E49.83318
G1 X131.272 Y124.311 E50.91938
G1 X130.781 Y120.949 E51.07759
G1 X129.904 Y117.649 E51.23658
G1 X128.652 Y114.472 E51.39559
G1 X127.05 Y111.476 E51.55379
G1 X102.318 Y70.985 E53.76311
G1 X101.982 Y70.553 E53.78859
G1 X101.525 Y70.182 E53.816
G1 X101.002 Y69.924 E53.84316
G1 X100.438 Y69.789 E53.87016
G1 X99.85 Y69.785 E53.89754
G1 X99.28 Y69.911 E53.92472
G1 X98.788 Y70.143 E53.95005
G1 X82.147 Y80.407 E54.86046
G1 X81.808 Y80.673 E54.88053
