;FLAVOR:Marlin
;TIME:3663
;Filament used: 2.899m
;Layer height: 0.28
;MINX:69.252
;MINY:81.289
;MINZ:0.28
;MAXX:131
;MAXY:144.15
;MAXZ:22.96
;Generated with Cura_SteamEngine 5.3.1
M82 ;absolute extrusion mode
; Ender 3 Custom Start G-code
G92 E0 ; Reset Extruder
G28 ; Home all axes
M104 S175 ; Start heating up the nozzle most of the way
M190 S60 ; Start heating the bed, wait until target temperature reached
M109 S200 ; Finish heating the nozzle
G1 Z2.0 F3000 ; Move Z Axis up little to prevent scratching of Heat Bed
G1 X0.1 Y20 Z0.3 F5000.0 ; Move to start position
G1 X0.1 Y200.0 Z0.3 F1500.0 E15 ; Draw the first line
G1 X0.4 Y200.0 Z0.3 F5000.0 ; Move to side a little
G1 X0.4 Y20 Z0.3 F1500.0 E30 ; Draw the second line
G92 E0 ; Reset Extruder
G1 Z2.0 F3000 ; Move Z Axis up little to prevent scratching of Heat Bed
G1 X5 Y20 Z0.3 F5000.0 ; Move over to prevent blob squish
G92 E0
G92 E0
G1 F1500 E-6.5
;LAYER_COUNT:82
;LAYER:0
M107
G0 F6000 X73.935 Y91.739 Z0.28
;TYPE:SKIRT
G1 F1500 E0
G1 F1200 X74.668 Y91.211 E0.04206
G1 X75.444 Y90.749 E0.08412
G1 X76.258 Y90.358 E0.12617
G1 X77.104 Y90.041 E0.16823
G1 X77.688 Y89.869 E0.19658
G1 X78.65 Y89.618 E0.24288
G1 X79.474 Y89.415 E0.28239
G1 X80.761 Y89.06 E0.34456
G1 X81.458 Y88.877 E0.37811
G1 X82.606 Y88.646 E0.43264
G1 X83.362 Y88.538 E0.4682
G1 X85.938 Y88.131 E0.58964
G1 X88.474 Y87.658 E0.70976
G1 X90.939 Y87.125 E0.8272
G1 X93.387 Y86.524 E0.94457
G1 X95.835 Y85.848 E1.06283
G1 X98.289 Y85.094 E1.18237
G1 X100.665 Y84.291 E1.29915
G1 X104.111 Y83.021 E1.47016
G1 X104.973 Y82.752 E1.51221
G1 X105.545 Y82.618 E1.53956
G1 X106.532 Y82.417 E1.58647
G1 X107.489 Y82.25 E1.6317
G1 X108.385 Y82.139 E1.67374
G1 X108.975 Y82.11 E1.70125
G1 X110.001 Y82.089 E1.74903
G1 X110.936 Y82.096 E1.79257
G1 X111.838 Y82.148 E1.83464
G1 X112.428 Y82.226 E1.86235
G1 X113.453 Y82.392 E1.9107
G1 X114.371 Y82.567 E1.95422
G1 X115.248 Y82.781 E1.99625
G1 X115.823 Y82.968 E2.02441
G1 X116.826 Y83.326 E2.074
G1 X117.69 Y83.662 E2.11717
G1 X118.513 Y84.031 E2.15916
G1 X119.026 Y84.308 E2.18631
G1 X119.903 Y84.814 E2.23346
G1 X120.689 Y85.295 E2.27637
G1 X121.435 Y85.805 E2.31844
G1 X121.917 Y86.19 E2.34717
G1 X122.707 Y86.861 E2.39543
G1 X123.404 Y87.487 E2.43906
G1 X124.044 Y88.123 E2.48107
G1 X124.435 Y88.574 E2.50886
G1 X125.103 Y89.391 E2.55801
G1 X125.685 Y90.146 E2.60239
G1 X126.199 Y90.888 E2.64442
G1 X126.491 Y91.384 E2.67123
G1 X126.979 Y92.267 E2.7182
G1 X127.418 Y93.117 E2.76275
G1 X127.79 Y93.939 E2.80476
G1 X127.988 Y94.475 E2.83137
G1 X128.318 Y95.454 E2.87948
G1 X128.592 Y96.348 E2.92302
G1 X128.812 Y97.224 E2.96507
G1 X128.918 Y97.834 E2.9939
G1 X129.107 Y99.192 E3.05775
G1 X129.178 Y99.843 E3.08824
G1 X129.235 Y100.713 E3.12884
G1 X129.248 Y101.266 E3.15459
G1 X129.346 Y103.908 E3.2777
G1 X129.512 Y106.447 E3.39618
G1 X129.748 Y108.958 E3.51362
G1 X130.112 Y111.895 E3.65142
G1 X130.185 Y112.841 E3.6956
G1 X130.2 Y113.48 E3.72537
G1 X130.199 Y132.54 E4.61288
G1 X130.19 Y133.267 E4.64673
G1 X130.139 Y134.169 E4.6888
G1 X130.008 Y135.063 E4.73088
G1 X129.799 Y135.941 E4.7729
G1 X129.513 Y136.798 E4.81497
G1 X129.152 Y137.626 E4.85703
G1 X128.72 Y138.418 E4.89904
G1 X128.219 Y139.17 E4.94111
G1 X127.653 Y139.874 E4.98318
G1 X127.028 Y140.525 E5.0252
G1 X126.347 Y141.119 E5.06728
G1 X125.616 Y141.65 E5.10935
G1 X124.842 Y142.114 E5.15137
G1 X124.029 Y142.508 E5.19344
G1 X123.185 Y142.828 E5.23547
G1 X122.315 Y143.073 E5.27755
G1 X121.428 Y143.239 E5.31957
G1 X120.277 Y143.337 E5.37336
G1 X119.67 Y143.35 E5.40163
G1 X100.562 Y143.349 E6.29138
G1 X99.858 Y143.339 E6.32417
G1 X98.957 Y143.286 E6.36619
G1 X98.063 Y143.154 E6.40827
G1 X97.185 Y142.943 E6.45032
G1 X96.329 Y142.655 E6.49237
G1 X95.132 Y142.102 E6.55377
G1 X93.663 Y141.304 E6.63162
G1 X91.338 Y140.097 E6.7536
G1 X89.086 Y139.007 E6.8701
G1 X86.761 Y137.963 E6.98877
G1 X84.406 Y136.984 E7.10753
G1 X82.025 Y136.073 E7.22624
G1 X79.642 Y135.236 E7.34384
G1 X77.15 Y134.438 E7.46569
G1 X76.303 Y134.124 E7.50775
G1 X75.487 Y133.737 E7.5498
G1 X74.709 Y133.28 E7.59182
G1 X73.974 Y132.755 E7.63388
G1 X73.288 Y132.167 E7.67595
G1 X72.657 Y131.521 E7.718
G1 X72.085 Y130.822 E7.76005
G1 X71.578 Y130.075 E7.80209
G1 X71.139 Y129.286 E7.84414
G1 X70.771 Y128.461 E7.8862
G1 X70.478 Y127.607 E7.92824
G1 X70.261 Y126.73 E7.97031
G1 X70.123 Y125.837 E8.01238
G1 X70.067 Y125.041 E8.04954
G1 X70.052 Y124.402 E8.0793
G1 X70.053 Y100.268 E9.20308
G1 X70.064 Y99.577 E9.23526
G1 X70.119 Y98.675 E9.27734
G1 X70.252 Y97.782 E9.31938
G1 X70.465 Y96.904 E9.36145
G1 X70.754 Y96.049 E9.40348
G1 X71.118 Y95.222 E9.44555
G1 X71.553 Y94.431 E9.48759
G1 X72.057 Y93.681 E9.52966
G1 X72.625 Y92.979 E9.57171
G1 X73.253 Y92.33 E9.61376
G1 X73.935 Y91.739 E9.65578
G0 F6000 X73.701 Y91.414
G1 F1200 X74.463 Y90.867 E9.69946
G1 X75.239 Y90.405 E9.74151
G1 X76.118 Y89.983 E9.78692
G1 X76.964 Y89.666 E9.82898
G1 X77.587 Y89.482 E9.85923
G1 X78.554 Y89.23 E9.90576
G1 X79.368 Y89.029 E9.94481
G1 X80.659 Y88.673 E10.00716
G1 X81.379 Y88.485 E10.04181
G1 X82.549 Y88.25 E10.09738
G1 X83.305 Y88.142 E10.13294
G1 X85.876 Y87.736 E10.25414
G1 X88.389 Y87.267 E10.37318
G1 X90.854 Y86.735 E10.4906
G1 X93.281 Y86.138 E10.60698
G1 X95.729 Y85.463 E10.72522
G1 X98.161 Y84.715 E10.8437
G1 X100.537 Y83.912 E10.96049
G1 X103.992 Y82.639 E11.13194
G1 X104.854 Y82.37 E11.17399
G1 X105.465 Y82.226 E11.20322
G1 X106.463 Y82.023 E11.25064
G1 X107.44 Y81.853 E11.29682
G1 X108.365 Y81.739 E11.34022
G1 X108.967 Y81.71 E11.36828
G1 X110.004 Y81.689 E11.41658
G1 X110.959 Y81.697 E11.46105
G1 X111.89 Y81.751 E11.50447
G1 X112.492 Y81.831 E11.53275
G1 X113.528 Y81.999 E11.58162
G1 X114.466 Y82.178 E11.62608
G1 X115.343 Y82.392 E11.66812
G1 X115.957 Y82.591 E11.69817
G1 X116.971 Y82.953 E11.74831
G1 X117.854 Y83.297 E11.79244
G1 X118.677 Y83.666 E11.83443
G1 X119.226 Y83.962 E11.86348
G1 X120.112 Y84.473 E11.9111
G1 X120.915 Y84.965 E11.95495
G1 X121.685 Y85.492 E11.9984
G1 X122.176 Y85.885 E12.02769
G1 X122.974 Y86.563 E12.07644
G1 X123.686 Y87.203 E12.12102
G1 X124.326 Y87.839 E12.16304
G1 X124.745 Y88.321 E12.19278
G1 X125.42 Y89.147 E12.24245
G1 X126.014 Y89.918 E12.28777
G1 X126.544 Y90.685 E12.33118
G1 X126.841 Y91.191 E12.3585
G1 X127.334 Y92.083 E12.40596
G1 X127.782 Y92.952 E12.45148
G1 X128.165 Y93.8 E12.49481
G1 X128.367 Y94.347 E12.52196
G1 X128.7 Y95.337 E12.5706
G1 X128.98 Y96.251 E12.61511
G1 X129.2 Y97.127 E12.65717
G1 X129.314 Y97.779 E12.68799
G1 X129.505 Y99.149 E12.7524
G1 X129.577 Y99.817 E12.78368
G1 X129.635 Y100.704 E12.82507
G1 X129.648 Y101.251 E12.85055
G1 X129.746 Y103.893 E12.97366
G1 X129.91 Y106.41 E13.09111
G1 X130.145 Y108.909 E13.20798
G1 X130.511 Y111.864 E13.34663
G1 X130.585 Y112.832 E13.39184
G1 X130.6 Y113.48 E13.42202
G1 X130.599 Y132.545 E14.30977
G1 X130.589 Y133.29 E14.34446
G1 X130.535 Y134.227 E14.38816
G1 X130.404 Y135.121 E14.43024
G1 X130.188 Y136.034 E14.47392
G1 X129.88 Y136.958 E14.51928
G1 X129.519 Y137.786 E14.56134
G1 X129.053 Y138.64 E14.60664
G1 X128.531 Y139.421 E14.65038
G1 X127.965 Y140.125 E14.69244
G1 X127.317 Y140.802 E14.73608
G1 X126.582 Y141.443 E14.78149
G1 X125.851 Y141.974 E14.82356
G1 X125.048 Y142.457 E14.86719
G1 X124.171 Y142.882 E14.91257
G1 X123.327 Y143.202 E14.9546
G1 X122.389 Y143.466 E14.99998
G1 X121.462 Y143.638 E15.04388
G1 X120.311 Y143.736 E15.09767
G1 X119.679 Y143.75 E15.1271
G1 X100.556 Y143.749 E16.01755
G1 X99.852 Y143.739 E16.05034
G1 X98.899 Y143.682 E16.09479
G1 X98.005 Y143.55 E16.13687
G1 X97.057 Y143.322 E16.18227
G1 X96.201 Y143.034 E16.22433
G1 X94.964 Y142.465 E16.28773
G1 X93.479 Y141.659 E16.3664
G1 X91.154 Y140.452 E16.48839
G1 X88.922 Y139.372 E16.60384
G1 X86.597 Y138.328 E16.72252
G1 X84.263 Y137.358 E16.84021
G1 X81.882 Y136.447 E16.95892
G1 X79.52 Y135.617 E17.0755
G1 X77.011 Y134.813 E17.19818
G1 X76.164 Y134.499 E17.24024
G1 X75.284 Y134.082 E17.28559
G1 X74.506 Y133.625 E17.3276
G1 X73.714 Y133.059 E17.37293
G1 X73.002 Y132.447 E17.41665
G1 X72.347 Y131.774 E17.46038
G1 X71.754 Y131.047 E17.50406
G1 X71.228 Y130.269 E17.54779
G1 X70.789 Y129.48 E17.58983
G1 X70.393 Y128.591 E17.63515
G1 X70.09 Y127.703 E17.67884
G1 X69.866 Y126.791 E17.72257
G1 X69.724 Y125.865 E17.76619
G1 X69.667 Y125.05 E17.80423
G1 X69.652 Y124.402 E17.83442
G1 X69.653 Y100.262 E18.95848
G1 X69.665 Y99.553 E18.99149
G1 X69.723 Y98.616 E19.03521
G1 X69.856 Y97.723 E19.07725
G1 X70.076 Y96.81 E19.12098
G1 X70.375 Y95.921 E19.16465
G1 X70.752 Y95.061 E19.20838
G1 X71.221 Y94.208 E19.2537
G1 X71.746 Y93.429 E19.29745
G1 X72.314 Y92.727 E19.33949
G1 X72.991 Y92.028 E19.38481
G1 X73.701 Y91.414 E19.42851
G0 F6000 X73.439 Y91.111
G1 F1200 X74.258 Y90.523 E19.47546
G1 X75.066 Y90.044 E19.5192
G1 X75.978 Y89.608 E19.56627
G1 X76.824 Y89.291 E19.60834
G1 X77.486 Y89.095 E19.64049
G1 X78.458 Y88.842 E19.68725
G1 X79.262 Y88.643 E19.72582
G1 X80.558 Y88.286 E19.78842
G1 X81.3 Y88.093 E19.82412
G1 X82.492 Y87.854 E19.88073
G1 X83.248 Y87.746 E19.91629
G1 X85.814 Y87.341 E20.03725
G1 X88.303 Y86.876 E20.15515
G1 X90.77 Y86.344 E20.27267
G1 X93.175 Y85.752 E20.388
G1 X95.623 Y85.077 E20.50624
G1 X98.033 Y84.336 E20.62364
G1 X100.409 Y83.533 E20.74043
G1 X103.873 Y82.257 E20.91232
G1 X104.735 Y81.988 E20.95437
G1 X105.385 Y81.834 E20.98547
G1 X106.394 Y81.629 E21.03342
G1 X107.391 Y81.456 E21.08053
G1 X108.346 Y81.339 E21.12534
G1 X108.959 Y81.31 E21.15391
G1 X110.007 Y81.289 E21.20272
G1 X110.982 Y81.298 E21.24812
G1 X111.943 Y81.354 E21.29295
G1 X112.556 Y81.436 E21.32174
G1 X113.603 Y81.606 E21.37114
G1 X114.561 Y81.789 E21.41655
G1 X115.438 Y82.003 E21.45859
G1 X116.091 Y82.214 E21.49054
G1 X117.116 Y82.58 E21.54122
G1 X118.018 Y82.932 E21.58631
G1 X118.841 Y83.301 E21.6283
G1 X119.426 Y83.615 E21.65922
G1 X120.321 Y84.132 E21.70735
G1 X121.141 Y84.635 E21.75214
G1 X121.911 Y85.162 E21.79559
G1 X122.435 Y85.58 E21.8268
G1 X123.241 Y86.266 E21.87609
G1 X123.968 Y86.919 E21.92159
G1 X124.608 Y87.555 E21.9636
G1 X125.055 Y88.068 E21.99529
G1 X125.737 Y88.903 E22.04549
G1 X126.343 Y89.691 E22.09178
G1 X126.889 Y90.483 E22.13657
G1 X127.191 Y90.998 E22.16437
G1 X127.69 Y91.9 E22.21237
G1 X128.147 Y92.787 E22.25883
G1 X128.53 Y93.635 E22.30216
G1 X128.746 Y94.219 E22.33115
G1 X129.082 Y95.22 E22.38032
G1 X129.368 Y96.154 E22.4258
G1 X129.594 Y97.058 E22.46919
G1 X129.71 Y97.724 E22.50067
G1 X129.903 Y99.106 E22.56565
G1 X129.976 Y99.791 E22.59772
G1 X130.035 Y100.694 E22.63986
G1 X130.048 Y101.236 E22.66511
G1 X130.146 Y103.878 E22.78821
G1 X130.308 Y106.373 E22.90464
G1 X130.542 Y108.86 E23.02095
G1 X130.91 Y111.834 E23.16049
G1 X130.985 Y112.823 E23.20667
G1 X131 Y113.48 E23.23727
G1 X130.999 Y132.55 E24.12525
G1 X130.988 Y133.313 E24.16079
G1 X130.931 Y134.285 E24.20612
G1 X130.8 Y135.179 E24.2482
G1 X130.577 Y136.126 E24.2935
G1 X130.247 Y137.118 E24.34218
G1 X129.886 Y137.946 E24.38424
G1 X129.386 Y138.862 E24.43283
G1 X128.843 Y139.672 E24.47824
G1 X128.277 Y140.376 E24.5203
G1 X127.606 Y141.079 E24.56556
G1 X126.817 Y141.767 E24.6143
G1 X126.086 Y142.298 E24.65637
G1 X125.254 Y142.8 E24.70162
G1 X124.313 Y143.256 E24.75031
G1 X123.469 Y143.576 E24.79234
G1 X122.497 Y143.851 E24.83938
G1 X121.496 Y144.037 E24.88679
G1 X120.345 Y144.135 E24.94057
G1 X119.688 Y144.15 E24.97118
G1 X100.55 Y144.149 E25.86232
G1 X99.828 Y144.138 E25.89594
G1 X98.841 Y144.078 E25.94199
G1 X97.911 Y143.939 E25.98577
G1 X96.963 Y143.711 E26.03118
G1 X96.073 Y143.413 E26.07488
G1 X94.773 Y142.817 E26.14147
G1 X93.288 Y142.011 E26.22015
G1 X90.97 Y140.807 E26.34177
G1 X88.758 Y139.737 E26.45619
G1 X86.433 Y138.693 E26.57487
G1 X84.12 Y137.732 E26.6915
G1 X81.739 Y136.821 E26.8102
G1 X79.398 Y135.998 E26.92575
G1 X76.872 Y135.188 E27.04927
G1 X76.025 Y134.874 E27.09133
G1 X75.081 Y134.427 E27.13997
G1 X74.303 Y133.97 E27.18198
G1 X73.453 Y133.362 E27.23065
G1 X72.715 Y132.726 E27.27601
G1 X72.06 Y132.053 E27.31974
G1 X71.444 Y131.3 E27.36504
G1 X70.878 Y130.463 E27.41209
G1 X70.439 Y129.674 E27.45413
G1 X70.014 Y128.72 E27.50276
G1 X69.711 Y127.832 E27.54645
G1 X69.471 Y126.852 E27.59344
G1 X69.325 Y125.893 E27.63861
G1 X69.267 Y125.059 E27.67753
G1 X69.252 Y124.402 E27.70813
G1 X69.253 Y100.255 E28.83252
G1 X69.266 Y99.528 E28.86638
G1 X69.327 Y98.557 E28.91168
G1 X69.46 Y97.664 E28.95372
G1 X69.687 Y96.716 E28.99911
G1 X69.996 Y95.793 E29.04443
G1 X70.401 Y94.868 E29.09145
G1 X70.889 Y93.984 E29.13847
G1 X71.414 Y93.205 E29.18221
G1 X72.003 Y92.475 E29.22589
G1 X72.729 Y91.725 E29.2745
G1 X73.439 Y91.111 E29.3182
G1 F1500 E22.8182
G0 F6000 X84.252 Y98.932
G1 F1500 E29.3182
G1 F1200 X92.252 Y98.932 E29.69072
G1 X92.252 Y125.532 E30.92933
G1 X84.252 Y125.532 E31.30184
G1 X84.252 Y98.932 E32.54045
G0 F6000 X84.652 Y99.332
G1 F1200 X91.852 Y99.332 E32.87571
G1 X91.852 Y125.132 E34.07706
G1 X84.652 Y125.132 E34.41233
G1 X84.652 Y99.332 E35.61368
G0 F6000 X85.052 Y99.732
G1 F1200 X91.452 Y99.732 E35.91169
G1 X91.452 Y124.732 E37.0758
G1 X85.052 Y124.732 E37.37381
G1 X85.052 Y99.732 E38.53791
G0 F6000 X85.452 Y100.132
G1 F1200 X91.052 Y100.132 E38.79867
G1 X91.052 Y124.332 E39.92553
G1 X85.452 Y124.332 E40.18629
G1 X85.452 Y100.132 E41.31314
G0 F6000 X85.852 Y100.532
G1 F1200 X90.652 Y100.532 E41.53665
G1 X90.652 Y123.932 E42.62625
G1 X85.852 Y123.932 E42.84976
G1 X85.852 Y100.532 E43.93936
G0 F6000 X86.252 Y100.932
G1 F1200 X90.252 Y100.932 E44.12562
G1 X90.252 Y123.532 E45.17797
G1 X86.252 Y123.532 E45.36422
G1 X86.252 Y100.932 E46.41657
G0 F6000 X86.652 Y101.332
G1 F1200 X89.852 Y101.332 E46.56558
G1 X89.852 Y123.132 E47.58068
G1 X86.652 Y123.132 E47.72968
G1 X86.652 Y101.332 E48.74478
G0 F6000 X87.052 Y101.732
G1 F1200 X89.452 Y101.732 E48.85654
G1 X89.452 Y122.732 E49.83439
G1 X87.052 Y122.732 E49.94614
G1 X87.052 Y101.732 E50.92399
G0 F6000 X87.452 Y102.132
G1 F1200 X89.052 Y102.132 E50.99849
G1 X89.052 Y122.332 E51.93909
G1 X87.452 Y122.332 E52.01359
G1 X87.452 Y102.132 E52.95419
G0 F6000 X87.852 Y102.532
G1 F1200 X88.652 Y102.532 E52.99144
G1 X88.652 Y121.932 E53.89478
G1 X87.852 Y121.932 E53.93203
G1 X87.852 Y102.532 E54.83538
G1 F1500 E48.33538
G0 F6000 X87.387 Y102.532
G0 X87.387 Y121.532
G0 X88.252 Y121.532
;TYPE:SUPPORT
G1 F1500 E54.83538
G1 F1200 X88.252 Y102.932 E55.70147
G1 F1500 E49.20147
;MESH:hinges-part-door.stl
G0 F6000 X87.387 Y102.932
G0 X83.917 Y102.932
G0 X82.652 Y124.132
;TYPE:WALL-INNER
G1 F1500 E55.70147
G1 F1200 X82.652 Y100.332 E56.8097
G1 X80.852 Y100.332 E56.89352
G1 X80.852 Y124.132 E58.00174
G1 X82.652 Y124.132 E58.08556
G0 F6000 X83.052 Y124.532
;TYPE:WALL-OUTER
G1 F1200 X83.052 Y99.932 E59.23104
G1 X80.452 Y99.932 E59.35211
G1 X80.452 Y124.532 E60.49759
G1 X83.052 Y124.532 E60.61865
G0 F6000 X82.782 Y124.262
G0 X82.552 Y123.772
G0 X82.292 Y123.772
;TYPE:SKIN
G1 F1200 X81.212 Y123.772 E60.66894
G1 X81.212 Y100.692 E61.74364
G1 X82.292 Y100.692 E61.79393
G1 X82.292 Y123.772 E62.86863
G0 F6000 X81.71 Y123.571
G1 F1200 X81.412 Y123.272 E62.88829
G0 F6000 X81.412 Y122.707
G1 F1200 X82.092 Y123.387 E62.93307
G0 F6000 X82.092 Y122.821
G1 F1200 X81.412 Y122.141 E62.97785
G0 F6000 X81.412 Y121.575
G1 F1200 X82.092 Y122.255 E63.02263
G0 F6000 X82.092 Y121.69
G1 F1200 X81.412 Y121.01 E63.06741
G0 F6000 X81.412 Y120.444
G1 F1200 X82.092 Y121.124 E63.11219
G0 F6000 X82.092 Y120.558
G1 F1200 X81.412 Y119.878 E63.15697
G0 F6000 X81.412 Y119.312
G1 F1200 X82.092 Y119.993 E63.20178
G0 F6000 X82.092 Y119.427
G1 F1200 X81.412 Y118.747 E63.24656
G0 F6000 X81.412 Y118.181
G1 F1200 X82.092 Y118.861 E63.29134
G0 F6000 X82.092 Y118.296
G1 F1200 X81.412 Y117.615 E63.33615
G0 F6000 X81.412 Y117.05
G1 F1200 X82.092 Y117.73 E63.38093
G0 F6000 X82.092 Y117.164
G1 F1200 X81.412 Y116.484 E63.42571
G0 F6000 X81.412 Y115.918
G1 F1200 X82.092 Y116.599 E63.47052
G0 F6000 X82.092 Y116.033
G1 F1200 X81.412 Y115.353 E63.5153
G0 F6000 X81.412 Y114.787
G1 F1200 X82.092 Y115.467 E63.56008
G0 F6000 X82.092 Y114.902
G1 F1200 X81.412 Y114.221 E63.60489
G0 F6000 X81.412 Y113.656
G1 F1200 X82.092 Y114.336 E63.64967
G0 F6000 X82.092 Y113.77
G1 F1200 X81.412 Y113.09 E63.69445
G0 F6000 X81.412 Y112.524
G1 F1200 X82.092 Y113.204 E63.73923
