;FLAVOR:Marlin
;TIME:3712
;Filament used: 2.95391m
;Layer height: 0.28
;MINX:67.996
;MINY:81.602
;MINZ:0.28
;MAXX:131
;MAXY:143.815
;MAXZ:22.96
;Generated with Cura_SteamEngine 5.3.1
M82 ;absolute extrusion mode
; Ender 3 Custom Start G-code
G92 E0 ; Reset Extruder
G28 ; Home all axes
M104 S175 ; Start heating up the nozzle most of the way
M190 S60 ; Start heating the bed, wait until target temperature reached
M109 S200 ; Finish heating the nozzle
G1 Z2.0 F3000 ; Move Z Axis up little to prevent scratching of Heat Bed
G1 X0.1 Y20 Z0.3 F5000.0 ; Move to start position
G1 X0.1 Y200.0 Z0.3 F1500.0 E15 ; Draw the first line
G1 X0.4 Y200.0 Z0.3 F5000.0 ; Move to side a little
G1 X0.4 Y20 Z0.3 F1500.0 E30 ; Draw the second line
G92 E0 ; Reset Extruder
G1 Z2.0 F3000 ; Move Z Axis up little to prevent scratching of Heat Bed
G1 X5 Y20 Z0.3 F5000.0 ; Move over to prevent blob squish
G92 E0
G92 E0
G1 F1500 E-6.5
;LAYER_COUNT:82
;LAYER:0
M107
G0 F6000 X72.679 Y91.719 Z0.28
;TYPE:SKIRT
G1 F1500 E0
G1 F1200 X73.412 Y91.191 E0.04206
G1 X74.188 Y90.729 E0.08412
G1 X75.002 Y90.338 E0.12617
G1 X75.848 Y90.021 E0.16823
G1 X76.432 Y89.849 E0.19658
G1 X77.394 Y89.598 E0.24288
G1 X78.213 Y89.396 E0.28216
G1 X79.425 Y89.061 E0.34071
G1 X80.65 Y88.74 E0.39968
G1 X83.233 Y88.027 E0.52445
G1 X85.656 Y87.282 E0.64249
G1 X88.054 Y86.47 E0.76038
G1 X90.446 Y85.585 E0.87914
G1 X92.775 Y84.647 E0.99605
G1 X95.848 Y83.3 E1.15228
G1 X96.688 Y82.968 E1.19434
G1 X97.554 Y82.712 E1.23639
G1 X98.439 Y82.533 E1.27844
G1 X99.723 Y82.415 E1.33848
G1 X100.33 Y82.402 E1.36675
G1 X119.293 Y82.402 E2.24974
G1 X120.123 Y82.412 E2.28839
G1 X121.024 Y82.463 E2.33042
G1 X121.918 Y82.595 E2.3725
G1 X122.796 Y82.804 E2.41452
G1 X123.653 Y83.091 E2.4566
G1 X124.48 Y83.452 E2.49862
G1 X125.273 Y83.885 E2.54069
G1 X126.024 Y84.386 E2.58273
G1 X126.728 Y84.952 E2.62479
G1 X127.379 Y85.578 E2.66685
G1 X127.972 Y86.259 E2.70889
G1 X128.502 Y86.99 E2.75094
G1 X128.966 Y87.765 E2.793
G1 X129.36 Y88.578 E2.83507
G1 X129.68 Y89.422 E2.8771
G1 X129.924 Y90.292 E2.91917
G1 X130.09 Y91.18 E2.96124
G1 X130.187 Y92.31 E3.01405
G1 X130.2 Y92.916 E3.04227
G1 X130.199 Y112.051 E3.93328
G1 X130.188 Y112.769 E3.96671
G1 X130.105 Y113.917 E4.02031
G1 X129.869 Y115.75 E4.10637
G1 X129.59 Y118.293 E4.22549
G1 X129.383 Y120.856 E4.34522
G1 X129.251 Y123.38 E4.46291
G1 X129.188 Y125.885 E4.57959
G1 X129.175 Y127.038 E4.63328
G1 X129.088 Y128.258 E4.69024
G1 X128.949 Y129.308 E4.73955
G1 X128.8 Y130.236 E4.78332
G1 X128.613 Y131.12 E4.82539
G1 X128.443 Y131.703 E4.85367
G1 X128.141 Y132.637 E4.89938
G1 X127.811 Y133.568 E4.94537
G1 X127.466 Y134.403 E4.98744
G1 X127.205 Y134.925 E5.01462
G1 X126.72 Y135.828 E5.06235
G1 X126.252 Y136.645 E5.10619
G1 X125.764 Y137.405 E5.14824
G1 X125.402 Y137.885 E5.17624
G1 X124.76 Y138.688 E5.22411
G1 X124.101 Y139.466 E5.27159
G1 X123.484 Y140.124 E5.31359
G1 X122.81 Y140.726 E5.35567
G1 X122.086 Y141.266 E5.39773
G1 X121.317 Y141.739 E5.43977
G1 X120.509 Y142.143 E5.48183
G1 X119.668 Y142.473 E5.5239
G1 X118.802 Y142.728 E5.56593
G1 X117.916 Y142.905 E5.60801
G1 X117.019 Y143.004 E5.65003
G1 X115.908 Y143.015 E5.70176
G1 X114.968 Y142.973 E5.74558
G1 X113.817 Y142.908 E5.79926
G1 X111.274 Y142.835 E5.91772
G1 X108.741 Y142.833 E6.03567
G1 X106.18 Y142.905 E6.15496
G1 X104.164 Y143.01 E6.24896
G1 X103.261 Y143.017 E6.29101
G1 X102.361 Y142.945 E6.33306
G1 X101.471 Y142.792 E6.37511
G1 X100.598 Y142.562 E6.41714
G1 X99.398 Y142.104 E6.47695
G1 X97.429 Y141.206 E6.57772
G1 X95.078 Y140.204 E6.69672
G1 X92.691 Y139.268 E6.81611
G1 X90.325 Y138.415 E6.93322
G1 X87.907 Y137.621 E7.05173
G1 X85.477 Y136.897 E7.1698
G1 X83.035 Y136.245 E7.28749
G1 X81.412 Y135.865 E7.36511
G1 X80.118 Y135.544 E7.42719
G1 X79.201 Y135.292 E7.47147
G1 X76.45 Y134.58 E7.60379
G1 X75.587 Y134.315 E7.64582
G1 X74.75 Y133.975 E7.68789
G1 X73.947 Y133.563 E7.72992
G1 X73.183 Y133.08 E7.77201
G1 X72.465 Y132.533 E7.81404
G1 X71.799 Y131.924 E7.85606
G1 X71.188 Y131.258 E7.89814
G1 X70.639 Y130.541 E7.94019
G1 X70.156 Y129.778 E7.98224
G1 X69.742 Y128.975 E8.02431
G1 X69.4 Y128.139 E8.06637
G1 X69.134 Y127.276 E8.10842
G1 X68.946 Y126.393 E8.15046
G1 X68.836 Y125.497 E8.19249
G1 X68.809 Y124.979 E8.21664
G1 X68.796 Y124.37 E8.24501
G1 X68.797 Y100.248 E9.36823
G1 X68.808 Y99.557 E9.40041
G1 X68.863 Y98.655 E9.44249
G1 X68.996 Y97.762 E9.48453
G1 X69.209 Y96.884 E9.5266
G1 X69.498 Y96.029 E9.56862
G1 X69.862 Y95.202 E9.6107
G1 X70.297 Y94.411 E9.65273
G1 X70.801 Y93.661 E9.69481
G1 X71.369 Y92.959 E9.73686
G1 X71.997 Y92.31 E9.77891
G1 X72.679 Y91.719 E9.82093
G0 F6000 X72.445 Y91.394
G1 F1200 X73.207 Y90.847 E9.86461
G1 X73.983 Y90.385 E9.90666
G1 X74.862 Y89.963 E9.95206
G1 X75.708 Y89.646 E9.99413
G1 X76.331 Y89.462 E10.02438
G1 X77.298 Y89.21 E10.07091
G1 X78.106 Y89.01 E10.10967
G1 X79.324 Y88.674 E10.1685
G1 X80.544 Y88.354 E10.22723
G1 X83.127 Y87.641 E10.35201
G1 X85.528 Y86.903 E10.46897
G1 X87.926 Y86.091 E10.58686
G1 X90.307 Y85.21 E10.70507
G1 X92.619 Y84.279 E10.82113
G1 X95.701 Y82.928 E10.97782
G1 X96.575 Y82.584 E11.02156
G1 X97.441 Y82.328 E11.06361
G1 X98.36 Y82.141 E11.10728
G1 X99.714 Y82.015 E11.1706
G1 X100.321 Y82.002 E11.19887
G1 X119.298 Y82.002 E12.08252
G1 X120.146 Y82.013 E12.12201
G1 X121.082 Y82.067 E12.16566
G1 X121.976 Y82.199 E12.20774
G1 X122.889 Y82.415 E12.25143
G1 X123.813 Y82.724 E12.2968
G1 X124.64 Y83.085 E12.33882
G1 X125.495 Y83.552 E12.38418
G1 X126.275 Y84.074 E12.42788
G1 X126.979 Y84.64 E12.46994
G1 X127.681 Y85.315 E12.51529
G1 X128.274 Y85.996 E12.55734
G1 X128.826 Y86.755 E12.60104
G1 X129.326 Y87.591 E12.6464
G1 X129.734 Y88.436 E12.69009
G1 X130.054 Y89.28 E12.73212
G1 X130.317 Y90.218 E12.77748
G1 X130.489 Y91.146 E12.82143
G1 X130.586 Y92.276 E12.87424
G1 X130.6 Y92.916 E12.90405
G1 X130.599 Y112.057 E13.79534
G1 X130.587 Y112.798 E13.82984
G1 X130.502 Y113.968 E13.88447
G1 X130.266 Y115.801 E13.97052
G1 X129.988 Y118.337 E14.08932
G1 X129.781 Y120.888 E14.20849
G1 X129.651 Y123.39 E14.32516
G1 X129.588 Y125.895 E14.44184
G1 X129.574 Y127.066 E14.49637
G1 X129.485 Y128.31 E14.55444
G1 X129.344 Y129.371 E14.60428
G1 X129.191 Y130.319 E14.64899
G1 X128.997 Y131.232 E14.69246
G1 X128.824 Y131.826 E14.72126
G1 X128.518 Y132.771 E14.76752
G1 X128.181 Y133.721 E14.81445
G1 X127.836 Y134.556 E14.85652
G1 X127.557 Y135.114 E14.88557
G1 X127.067 Y136.027 E14.93382
G1 X126.589 Y136.861 E14.97858
G1 X126.101 Y137.621 E15.02064
G1 X125.714 Y138.135 E15.0506
G1 X125.065 Y138.947 E15.099
G1 X124.393 Y139.74 E15.1474
G1 X123.776 Y140.398 E15.1894
G1 X123.049 Y141.047 E15.23478
G1 X122.296 Y141.607 E15.27848
G1 X121.527 Y142.08 E15.32052
G1 X120.688 Y142.501 E15.36423
G1 X119.781 Y142.857 E15.4096
G1 X118.915 Y143.112 E15.45163
G1 X117.96 Y143.303 E15.49698
G1 X117.063 Y143.402 E15.53901
G1 X115.89 Y143.415 E15.59363
G1 X114.945 Y143.372 E15.63768
G1 X113.806 Y143.308 E15.6908
G1 X111.263 Y143.235 E15.80926
G1 X108.752 Y143.233 E15.92618
G1 X106.191 Y143.305 E16.04548
G1 X104.185 Y143.409 E16.13901
G1 X103.229 Y143.416 E16.18353
G1 X102.329 Y143.344 E16.22557
G1 X101.369 Y143.179 E16.27093
G1 X100.455 Y142.936 E16.31497
G1 X99.255 Y142.478 E16.37477
G1 X97.263 Y141.57 E16.47671
G1 X94.921 Y140.572 E16.59525
G1 X92.555 Y139.644 E16.7136
G1 X90.2 Y138.795 E16.83016
G1 X87.782 Y138.001 E16.94867
G1 X85.363 Y137.28 E17.06621
G1 X82.938 Y136.633 E17.18307
G1 X81.316 Y136.253 E17.26065
G1 X80.012 Y135.93 E17.3232
G1 X79.095 Y135.677 E17.3675
G1 X76.333 Y134.962 E17.50035
G1 X75.436 Y134.686 E17.54405
G1 X74.599 Y134.346 E17.58611
G1 X73.764 Y133.919 E17.62978
G1 X72.969 Y133.418 E17.67354
G1 X72.195 Y132.828 E17.71886
G1 X71.504 Y132.194 E17.76252
G1 X70.87 Y131.501 E17.80626
G1 X70.321 Y130.784 E17.84831
G1 X69.8 Y129.961 E17.89366
G1 X69.386 Y129.158 E17.93573
G1 X69.018 Y128.257 E17.98105
G1 X68.743 Y127.359 E18.02478
G1 X68.549 Y126.442 E18.06843
G1 X68.439 Y125.546 E18.11046
G1 X68.409 Y124.988 E18.13648
G1 X68.396 Y124.37 E18.16527
G1 X68.397 Y100.242 E19.28877
G1 X68.409 Y99.533 E19.32179
G1 X68.467 Y98.596 E19.3655
G1 X68.6 Y97.703 E19.40754
G1 X68.82 Y96.79 E19.45127
G1 X69.119 Y95.901 E19.49494
G1 X69.496 Y95.041 E19.53867
G1 X69.965 Y94.188 E19.584
G1 X70.49 Y93.409 E19.62774
G1 X71.058 Y92.707 E19.66979
G1 X71.735 Y92.008 E19.7151
G1 X72.445 Y91.394 E19.75881
G0 F6000 X72.183 Y91.091
G1 F1200 X73.002 Y90.503 E19.80575
G1 X73.81 Y90.024 E19.84949
G1 X74.722 Y89.588 E19.89656
G1 X75.568 Y89.271 E19.93863
G1 X76.23 Y89.075 E19.97078
G1 X77.202 Y88.822 E20.01754
G1 X78 Y88.624 E20.05583
G1 X79.223 Y88.287 E20.1149
G1 X80.438 Y87.968 E20.17339
G1 X83.021 Y87.255 E20.29817
G1 X85.4 Y86.524 E20.41405
G1 X87.798 Y85.712 E20.53194
G1 X90.168 Y84.835 E20.64961
G1 X92.463 Y83.911 E20.76481
G1 X95.555 Y82.556 E20.92201
G1 X96.462 Y82.2 E20.96738
G1 X97.328 Y81.944 E21.00943
G1 X98.28 Y81.749 E21.05468
G1 X99.705 Y81.615 E21.12133
G1 X100.312 Y81.602 E21.1496
G1 X119.303 Y81.602 E22.0339
G1 X120.169 Y81.614 E22.07423
G1 X121.14 Y81.671 E22.11952
G1 X122.034 Y81.803 E22.1616
G1 X123.016 Y82.036 E22.20859
G1 X123.973 Y82.357 E22.25559
G1 X124.8 Y82.718 E22.29761
G1 X125.687 Y83.201 E22.34464
G1 X126.526 Y83.762 E22.39164
G1 X127.23 Y84.328 E22.4337
G1 X127.983 Y85.052 E22.48234
G1 X128.576 Y85.733 E22.52439
G1 X129.169 Y86.55 E22.57139
G1 X129.686 Y87.417 E22.6184
G1 X130.108 Y88.294 E22.66372
G1 X130.428 Y89.138 E22.70575
G1 X130.702 Y90.11 E22.75277
G1 X130.888 Y91.112 E22.80023
G1 X130.985 Y92.242 E22.85304
G1 X131 Y92.916 E22.88443
G1 X130.999 Y112.063 E23.77599
G1 X130.986 Y112.827 E23.81157
G1 X130.899 Y114.019 E23.86723
G1 X130.663 Y115.852 E23.95328
G1 X130.386 Y118.381 E24.07175
G1 X130.179 Y120.92 E24.19037
G1 X130.051 Y123.4 E24.306
G1 X129.988 Y125.905 E24.42268
G1 X129.973 Y127.095 E24.4781
G1 X129.882 Y128.363 E24.53729
G1 X129.739 Y129.435 E24.58765
G1 X129.582 Y130.402 E24.63327
G1 X129.381 Y131.344 E24.67812
G1 X129.205 Y131.949 E24.70746
G1 X128.895 Y132.905 E24.75425
G1 X128.551 Y133.874 E24.80213
G1 X128.206 Y134.709 E24.8442
G1 X127.909 Y135.303 E24.87513
G1 X127.414 Y136.226 E24.9239
G1 X126.926 Y137.077 E24.96958
G1 X126.421 Y137.862 E25.01304
G1 X126.026 Y138.385 E25.04356
G1 X125.37 Y139.206 E25.09249
G1 X124.685 Y140.014 E25.14182
G1 X124.068 Y140.672 E25.18382
G1 X123.288 Y141.368 E25.2325
G1 X122.506 Y141.948 E25.27783
G1 X121.737 Y142.421 E25.31987
G1 X120.867 Y142.859 E25.36523
G1 X119.894 Y143.241 E25.4139
G1 X119.028 Y143.496 E25.45594
G1 X118.004 Y143.701 E25.50456
G1 X117.107 Y143.8 E25.54658
G1 X115.872 Y143.815 E25.6041
G1 X113.795 Y143.708 E25.70094
G1 X111.252 Y143.635 E25.8194
G1 X108.763 Y143.633 E25.9353
G1 X106.202 Y143.705 E26.0546
G1 X104.206 Y143.808 E26.14766
G1 X103.197 Y143.815 E26.19465
G1 X102.297 Y143.743 E26.23669
G1 X101.266 Y143.566 E26.2854
G1 X100.312 Y143.31 E26.33139
G1 X99.112 Y142.852 E26.3912
G1 X97.097 Y141.934 E26.4943
G1 X94.764 Y140.94 E26.61239
G1 X92.419 Y140.02 E26.72968
G1 X90.075 Y139.175 E26.84571
G1 X87.657 Y138.381 E26.96421
G1 X85.249 Y137.663 E27.08122
G1 X82.841 Y137.021 E27.19726
G1 X81.22 Y136.641 E27.27479
G1 X79.906 Y136.316 E27.33782
G1 X78.989 Y136.062 E27.38212
G1 X76.215 Y135.344 E27.51555
G1 X75.285 Y135.057 E27.56087
G1 X74.448 Y134.717 E27.60294
G1 X73.582 Y134.275 E27.64821
G1 X72.727 Y133.736 E27.69527
G1 X71.925 Y133.123 E27.74228
G1 X71.209 Y132.464 E27.78759
G1 X70.552 Y131.744 E27.83298
G1 X70.003 Y131.027 E27.87502
G1 X69.444 Y130.144 E27.92369
G1 X69.03 Y129.341 E27.96576
G1 X68.636 Y128.374 E28.01438
G1 X68.352 Y127.442 E28.05975
G1 X68.152 Y126.491 E28.105
G1 X68.042 Y125.595 E28.14703
G1 X68.009 Y124.996 E28.17497
G1 X67.996 Y124.37 E28.20412
G1 X67.997 Y100.235 E29.32795
G1 X68.01 Y99.508 E29.36181
G1 X68.071 Y98.537 E29.40711
G1 X68.204 Y97.644 E29.44915
G1 X68.431 Y96.696 E29.49454
G1 X68.74 Y95.773 E29.53986
G1 X69.145 Y94.848 E29.58688
G1 X69.633 Y93.964 E29.6339
G1 X70.158 Y93.185 E29.67764
G1 X70.747 Y92.455 E29.72132
G1 X71.473 Y91.705 E29.76992
G1 X72.183 Y91.091 E29.81363
G1 F1500 E23.31363
G0 F6000 X82.996 Y98.912
G1 F1500 E29.81363
G1 F1200 X90.996 Y98.912 E30.18615
G1 X90.996 Y125.512 E31.42475
G1 X82.996 Y125.512 E31.79727
G1 X82.996 Y98.912 E33.03587
G0 F6000 X83.396 Y99.312
G1 F1200 X90.596 Y99.312 E33.37114
G1 X90.596 Y125.112 E34.57249
G1 X83.396 Y125.112 E34.90775
G1 X83.396 Y99.312 E36.10911
G0 F6000 X83.796 Y99.712
G1 F1200 X90.196 Y99.712 E36.40712
G1 X90.196 Y124.712 E37.57123
G1 X83.796 Y124.712 E37.86924
G1 X83.796 Y99.712 E39.03334
G0 F6000 X84.196 Y100.112
G1 F1200 X89.796 Y100.112 E39.2941
G1 X89.796 Y124.312 E40.42095
G1 X84.196 Y124.312 E40.68171
G1 X84.196 Y100.112 E41.80857
G0 F6000 X84.596 Y100.512
G1 F1200 X89.396 Y100.512 E42.03208
G1 X89.396 Y123.912 E43.12168
G1 X84.596 Y123.912 E43.34519
G1 X84.596 Y100.512 E44.43479
G0 F6000 X84.996 Y100.912
G1 F1200 X88.996 Y100.912 E44.62104
G1 X88.996 Y123.512 E45.6734
G1 X84.996 Y123.512 E45.85965
G1 X84.996 Y100.912 E46.912
G0 F6000 X85.396 Y101.312
G1 F1200 X88.596 Y101.312 E47.06101
G1 X88.596 Y123.112 E48.07611
G1 X85.396 Y123.112 E48.22511
G1 X85.396 Y101.312 E49.24021
G0 F6000 X85.796 Y101.712
G1 F1200 X88.196 Y101.712 E49.35197
G1 X88.196 Y122.712 E50.32981
G1 X85.796 Y122.712 E50.44157
G1 X85.796 Y101.712 E51.41942
G0 F6000 X86.196 Y102.112
G1 F1200 X87.796 Y102.112 E51.49392
G1 X87.796 Y122.312 E52.43452
G1 X86.196 Y122.312 E52.50902
G1 X86.196 Y102.112 E53.44962
G0 F6000 X86.596 Y102.512
G1 F1200 X87.396 Y102.512 E53.48687
G1 X87.396 Y121.912 E54.39021
G1 X86.596 Y121.912 E54.42746
G1 X86.596 Y102.512 E55.33081
G1 F1500 E48.83081
G0 F6000 X86.131 Y102.512
G0 X86.131 Y121.512
G0 X86.996 Y121.512
;TYPE:SUPPORT
G1 F1500 E55.33081
G1 F1200 X86.996 Y102.912 E56.1969
G1 F1500 E49.6969
;MESH:hinges-part-door.stl
G0 F6000 X86.131 Y102.912
G0 X82.661 Y102.912
G0 X81.396 Y124.112
;TYPE:WALL-INNER
G1 F1500 E56.1969
G1 F1200 X81.396 Y100.312 E57.30513
G1 X79.596 Y100.312 E57.38895
G1 X79.596 Y124.112 E58.49717
G1 X81.396 Y124.112 E58.58099
G0 F6000 X81.796 Y124.512
;TYPE:WALL-OUTER
G1 F1200 X81.796 Y99.912 E59.72647
G1 X79.196 Y99.912 E59.84753
G1 X79.196 Y124.512 E60.99301
G1 X81.796 Y124.512 E61.11408
G0 F6000 X81.526 Y124.242
G0 X81.296 Y123.752
G0 X81.036 Y123.752
;TYPE:SKIN
G1 F1200 X79.956 Y123.752 E61.16437
G1 X79.956 Y100.672 E62.23907
G1 X81.036 Y100.672 E62.28936
G1 X81.036 Y123.752 E63.36406
G0 F6000 X80.559 Y123.551
G1 F1200 X80.156 Y123.148 E63.3906
G0 F6000 X80.156 Y122.582
G1 F1200 X80.836 Y123.262 E63.43538
G0 F6000 X80.836 Y122.697
G1 F1200 X80.156 Y122.016 E63.48019
G0 F6000 X80.156 Y121.451
G1 F1200 X80.836 Y122.131 E63.52497
G0 F6000 X80.836 Y121.565
G1 F1200 X80.156 Y120.885 E63.56975
G0 F6000 X80.156 Y120.319
G1 F1200 X80.836 Y121 E63.61456
G0 F6000 X80.836 Y120.434
G1 F1200 X80.156 Y119.754 E63.65934
G0 F6000 X80.156 Y119.188
G1 F1200 X80.836 Y119.868 E63.70412
G0 F6000 X80.836 Y119.303
G1 F1200 X80.156 Y118.622 E63.74893
G0 F6000 X80.156 Y118.057
G1 F1200 X80.836 Y118.737 E63.79371
G0 F6000 X80.836 Y118.171
G1 F1200 X80.156 Y117.491 E63.83849
G0 F6000 X80.156 Y116.925
G1 F1200 X80.836 Y117.605 E63.88327
G0 F6000 X80.836 Y117.04
G1 F1200 X80.156 Y116.36 E63.92805
G0 F6000 X80.156 Y115.794
G1 F1200 X80.836 Y116.474 E63.97283
G0 F6000 X80.836 Y115.908
G1 F1200 X80.156 Y115.228 E64.01761
G0 F6000 X80.156 Y114.663
G1 F1200 X80.836 Y115.343 E64.06239
G0 F6000 X80.836 Y114.777
G1 F1200 X80.156 Y114.097 E64.10717
G0 F6000 X80.156 Y113.531
G1 F1200 X80.836 Y114.211 E64.15194
G0 F6000 X80.836 Y113.646
G1 F1200 X80.156 Y112.965 E64.19676
G0 F6000 X80.156 Y112.4
G1 F1200 X80.836 Y113.08 E64.24154
G0 F6000 X80.836 Y112.514
G1 F1200 X80.156 Y111.834 E64.28632
G0 F6000 X80.156 Y111.268
G1 F1200 X80.836 Y111.949 E64.33113
G0 F6000 X80.836 Y111.383
G1 F1200 X80.156 Y110.703 E64.37591
G0 F6000 X80.156 Y110.137
G1 F1200 X80.836 Y110.817 E64.42069
G0 F6000 X80.836 Y110.252
G1 F1200 X80.156 Y109.571 E64.4655
G0 F6000 X80.156 Y109.006
G1 F1200 X80.836 Y109.686 E64.51028
G0 F6000 X80.836 Y109.12
G1 F1200 X80.156 Y108.44 E64.55506
G0 F6000 X80.156 Y107.874
