;FLAVOR:Marlin
;TIME:6707
;Filament used: 4.14806m
;Layer height: 0.2
;MINX:64
;MINY:91.5
;MINZ:0.2
;MAXX:156
;MAXY:128.5
;MAXZ:70
;Generated with Cura_SteamEngine 5.2.1
M82 ;absolute extrusion mode
; Ender 3 Custom Start G-code
G92 E0 ; Reset Extruder
G28 ; Home all axes
M104 S175 ; Start heating up the nozzle most of the way
M190 S60 ; Start heating the bed, wait until target temperature reached
M109 S200 ; Finish heating the nozzle
G1 Z2.0 F3000 ; Move Z Axis up little to prevent scratching of Heat Bed
G1 X0.1 Y20 Z0.3 F5000.0 ; Move to start position
G1 X0.1 Y200.0 Z0.3 F1500.0 E15 ; Draw the first line
G1 X0.4 Y200.0 Z0.3 F5000.0 ; Move to side a little
G1 X0.4 Y20 Z0.3 F1500.0 E30 ; Draw the second line
G92 E0 ; Reset Extruder
G1 Z2.0 F3000 ; Move Z Axis up little to prevent scratching of Heat Bed
G1 X5 Y20 Z0.3 F5000.0 ; Move over to prevent blob squish
G92 E0
G92 E0
G1 F1500 E-6.5
;LAYER_COUNT:350
;LAYER:0
M107
G0 F6000 X68.626 Y93.551 Z0.2
;TYPE:SKIRT
G1 F1500 E0
G1 F1200 X69.412 Y93.039 E0.0312
G1 X70.239 Y92.597 E0.06239
G1 X71.101 Y92.227 E0.09359
G1 X71.991 Y91.931 E0.12478
G1 X72.903 Y91.713 E0.15597
G1 X73.83 Y91.572 E0.18716
G1 X74.701 Y91.513 E0.21619
G1 X75.33 Y91.5 E0.23712
G1 X144.451 Y91.501 E2.53609
G1 X145.149 Y91.511 E2.55931
G1 X146.085 Y91.565 E2.59049
G1 X147.013 Y91.697 E2.62167
G1 X147.927 Y91.909 E2.65288
G1 X148.819 Y92.198 E2.68406
G1 X149.684 Y92.561 E2.71526
G1 X150.514 Y92.997 E2.74645
G1 X151.305 Y93.502 E2.77766
G1 X152.049 Y94.073 E2.80885
G1 X152.742 Y94.705 E2.84005
G1 X153.379 Y95.393 E2.87123
G1 X153.954 Y96.134 E2.90243
G1 X154.465 Y96.92 E2.93361
G1 X154.907 Y97.748 E2.96483
G1 X155.276 Y98.61 E2.99601
G1 X155.571 Y99.5 E3.0272
G1 X155.789 Y100.412 E3.05839
G1 X155.929 Y101.34 E3.0896
G1 X155.987 Y102.201 E3.1183
G1 X156 Y102.83 E3.13923
G1 X155.999 Y116.9 E3.6072
G1 X155.99 Y117.627 E3.63138
G1 X155.939 Y118.564 E3.66259
G1 X155.807 Y119.492 E3.69377
G1 X155.598 Y120.406 E3.72495
G1 X155.311 Y121.299 E3.75615
G1 X154.949 Y122.165 E3.78737
G1 X154.515 Y122.996 E3.81855
G1 X154.011 Y123.787 E3.84975
G1 X153.442 Y124.532 E3.88093
G1 X152.811 Y125.227 E3.91215
G1 X152.124 Y125.865 E3.94333
G1 X151.385 Y126.442 E3.97451
G1 X150.599 Y126.954 E4.00571
G1 X149.773 Y127.397 E4.03689
G1 X148.911 Y127.769 E4.06811
G1 X148.022 Y128.065 E4.09928
G1 X147.11 Y128.285 E4.13048
G1 X146.183 Y128.426 E4.16167
G1 X145.299 Y128.487 E4.19114
G1 X144.67 Y128.5 E4.21207
G1 X75.565 Y128.499 E6.51051
G1 X74.867 Y128.49 E6.53373
G1 X73.931 Y128.438 E6.5649
G1 X73.002 Y128.306 E6.59611
G1 X72.088 Y128.096 E6.62731
G1 X71.195 Y127.809 E6.6585
G1 X70.33 Y127.446 E6.6897
G1 X69.499 Y127.012 E6.72089
G1 X68.708 Y126.508 E6.75208
G1 X67.963 Y125.938 E6.78328
G1 X67.269 Y125.307 E6.81448
G1 X66.632 Y124.62 E6.84564
G1 X66.055 Y123.88 E6.87685
G1 X65.543 Y123.094 E6.90805
G1 X65.1 Y122.267 E6.93925
G1 X64.729 Y121.406 E6.97043
G1 X64.433 Y120.516 E7.00163
G1 X64.214 Y119.604 E7.03283
G1 X64.073 Y118.677 E7.06401
G1 X64.013 Y117.788 E7.09365
G1 X64 Y117.158 E7.11461
G1 X64.001 Y103.025 E7.58467
G1 X64.01 Y102.36 E7.60679
G1 X64.063 Y101.424 E7.63797
G1 X64.195 Y100.495 E7.66918
G1 X64.406 Y99.581 E7.70038
G1 X64.694 Y98.689 E7.73156
G1 X65.057 Y97.824 E7.76276
G1 X65.492 Y96.993 E7.79395
G1 X65.996 Y96.203 E7.82512
G1 X66.566 Y95.458 E7.85632
G1 X67.198 Y94.764 E7.88754
G1 X67.886 Y94.127 E7.91873
G1 X68.626 Y93.551 E7.94992
G0 F6000 X69.01 Y93.77
G1 F1200 X69.791 Y93.282 E7.98055
G1 X70.611 Y92.864 E8.01116
G1 X71.465 Y92.519 E8.04179
G1 X72.345 Y92.249 E8.07241
G1 X73.245 Y92.057 E8.10302
G1 X74.159 Y91.943 E8.13365
G1 X74.712 Y91.913 E8.15207
G1 X75.33 Y91.9 E8.17263
G1 X144.445 Y91.901 E10.4714
G1 X145.143 Y91.911 E10.49462
G1 X146.062 Y91.964 E10.52524
G1 X146.973 Y92.097 E10.55586
G1 X147.869 Y92.308 E10.58648
G1 X148.743 Y92.596 E10.61708
G1 X149.59 Y92.959 E10.64773
G1 X150.401 Y93.394 E10.67834
G1 X151.171 Y93.898 E10.70895
G1 X151.895 Y94.467 E10.73958
G1 X152.567 Y95.097 E10.77022
G1 X153.182 Y95.782 E10.80083
G1 X153.735 Y96.518 E10.83145
G1 X154.222 Y97.299 E10.86207
G1 X154.639 Y98.12 E10.89269
G1 X154.984 Y98.974 E10.92333
G1 X155.253 Y99.854 E10.95393
G1 X155.445 Y100.755 E10.98457
G1 X155.558 Y101.668 E11.01517
G1 X155.587 Y102.212 E11.03329
G1 X155.6 Y102.83 E11.05385
G1 X155.599 Y116.895 E11.52165
G1 X155.59 Y117.622 E11.54584
G1 X155.539 Y118.541 E11.57645
G1 X155.408 Y119.453 E11.60709
G1 X155.198 Y120.349 E11.6377
G1 X154.912 Y121.224 E11.66832
G1 X154.551 Y122.071 E11.69894
G1 X154.117 Y122.883 E11.72957
G1 X153.615 Y123.655 E11.76019
G1 X153.047 Y124.38 E11.79083
G1 X152.419 Y125.053 E11.82144
G1 X151.735 Y125.669 E11.85206
G1 X151 Y126.223 E11.88267
G1 X150.22 Y126.712 E11.91329
G1 X149.4 Y127.131 E11.94392
G1 X148.547 Y127.477 E11.97453
G1 X147.667 Y127.748 E12.00516
G1 X146.767 Y127.941 E12.03577
G1 X145.853 Y128.056 E12.06641
G1 X145.288 Y128.087 E12.08523
G1 X144.67 Y128.1 E12.10579
G1 X75.57 Y128.099 E14.40407
G1 X74.872 Y128.09 E14.42729
G1 X73.953 Y128.038 E14.4579
G1 X73.042 Y127.907 E14.48851
G1 X72.146 Y127.697 E14.51912
G1 X71.271 Y127.41 E14.54975
G1 X70.424 Y127.048 E14.58039
G1 X69.612 Y126.614 E14.61101
G1 X68.841 Y126.112 E14.64161
G1 X68.116 Y125.544 E14.67224
G1 X67.443 Y124.915 E14.70288
G1 X66.828 Y124.231 E14.73347
G1 X66.274 Y123.496 E14.76409
G1 X65.786 Y122.715 E14.79472
G1 X65.367 Y121.895 E14.82534
G1 X65.021 Y121.042 E14.85596
G1 X64.751 Y120.162 E14.88658
G1 X64.558 Y119.261 E14.91722
G1 X64.444 Y118.348 E14.94782
G1 X64.413 Y117.777 E14.96684
G1 X64.4 Y117.158 E14.98744
G1 X64.401 Y103.031 E15.4573
G1 X64.41 Y102.366 E15.47942
G1 X64.462 Y101.446 E15.51007
G1 X64.594 Y100.535 E15.54069
G1 X64.805 Y99.639 E15.5713
G1 X65.092 Y98.764 E15.60193
G1 X65.455 Y97.918 E15.63255
G1 X65.889 Y97.106 E15.66317
G1 X66.392 Y96.335 E15.69379
G1 X66.961 Y95.611 E15.72442
G1 X67.589 Y94.939 E15.75501
G1 X68.274 Y94.323 E15.78565
G1 X69.01 Y93.77 E15.81627
G0 F6000 X69.394 Y93.994
G1 F1200 X70.169 Y93.531 E15.8463
G1 X70.982 Y93.138 E15.87633
G1 X71.827 Y92.818 E15.90638
G1 X72.696 Y92.575 E15.9364
G1 X73.584 Y92.409 E15.96644
G1 X74.723 Y92.313 E16.00446
G1 X75.33 Y92.3 E16.02465
G1 X144.439 Y92.301 E18.32323
G1 X145.137 Y92.311 E18.34645
G1 X146.039 Y92.364 E18.3765
G1 X146.932 Y92.496 E18.40652
G1 X147.81 Y92.707 E18.43656
G1 X148.666 Y92.995 E18.46659
G1 X149.493 Y93.357 E18.49662
G1 X150.285 Y93.792 E18.52667
G1 X151.036 Y94.294 E18.55672
G1 X151.739 Y94.861 E18.58676
G1 X152.389 Y95.488 E18.6168
G1 X152.981 Y96.17 E18.64683
G1 X153.511 Y96.901 E18.67686
G1 X153.973 Y97.677 E18.7069
G1 X154.366 Y98.49 E18.73694
G1 X154.684 Y99.335 E18.76697
G1 X154.927 Y100.205 E18.79701
G1 X155.092 Y101.093 E18.82705
G1 X155.187 Y102.223 E18.86477
G1 X155.2 Y102.83 E18.88496
G1 X155.199 Y116.89 E19.3526
G1 X155.19 Y117.617 E19.37678
G1 X155.139 Y118.519 E19.40683
G1 X155.008 Y119.413 E19.43688
G1 X154.799 Y120.291 E19.4669
G1 X154.513 Y121.148 E19.49695
G1 X154.152 Y121.976 E19.52699
G1 X153.72 Y122.768 E19.557
G1 X153.219 Y123.52 E19.58705
G1 X152.653 Y124.224 E19.6171
G1 X152.028 Y124.875 E19.64711
G1 X151.347 Y125.469 E19.67717
G1 X150.616 Y126 E19.70722
G1 X149.842 Y126.464 E19.73723
G1 X149.029 Y126.858 E19.76728
G1 X148.185 Y127.178 E19.7973
G1 X147.315 Y127.423 E19.82736
G1 X146.428 Y127.589 E19.85738
G1 X145.277 Y127.687 E19.8958
G1 X144.67 Y127.7 E19.91599
G1 X75.575 Y127.699 E22.2141
G1 X74.877 Y127.69 E22.23732
G1 X73.976 Y127.639 E22.26733
G1 X73.082 Y127.507 E22.29739
G1 X72.204 Y127.298 E22.32741
G1 X71.347 Y127.011 E22.35747
G1 X70.52 Y126.65 E22.38748
G1 X69.727 Y126.217 E22.41753
G1 X68.976 Y125.716 E22.44756
G1 X68.272 Y125.15 E22.4776
G1 X67.621 Y124.524 E22.50764
G1 X67.028 Y123.843 E22.53768
G1 X66.498 Y123.112 E22.56771
G1 X66.034 Y122.337 E22.59775
G1 X65.64 Y121.524 E22.6278
G1 X65.32 Y120.68 E22.65782
G1 X65.076 Y119.81 E22.68787
G1 X64.91 Y118.922 E22.71792
G1 X64.813 Y117.767 E22.75647
G1 X64.8 Y117.158 E22.77673
G1 X64.801 Y103.036 E23.24643
G1 X64.81 Y102.371 E23.26855
G1 X64.862 Y101.469 E23.2986
G1 X64.994 Y100.576 E23.32863
G1 X65.204 Y99.698 E23.35865
G1 X65.491 Y98.841 E23.38871
G1 X65.853 Y98.014 E23.41874
G1 X66.286 Y97.222 E23.44876
G1 X66.788 Y96.471 E23.4788
G1 X67.355 Y95.767 E23.50887
G1 X67.981 Y95.117 E23.53888
G1 X68.662 Y94.524 E23.56892
G1 X69.394 Y93.994 E23.59898
G1 F1500 E17.09898
;MESH:frame-corner-main.stl
G0 F6000 X75.414 Y101.835
G0 X75.6 Y116.9
;TYPE:WALL-INNER
G1 F1500 E23.59898
G1 F1200 X144.4 Y116.9 E25.88727
G1 X144.4 Y110 E26.11677
G1 X144.4 Y103.1 E26.34626
G1 X75.6 Y103.1 E28.63456
G1 X75.6 Y116.9 E29.09355
G0 F6000 X75.2 Y117.3
;TYPE:WALL-OUTER
G1 F1200 X144.8 Y117.3 E31.40846
G1 X144.8 Y110 E31.65125
G1 X144.8 Y102.7 E31.89405
G1 X75.2 Y102.7 E34.20896
G1 X75.2 Y117.3 E34.69456
G0 F6000 X75.47 Y117.03
G0 X75.7 Y116.54
G0 X75.96 Y116.54
;TYPE:SKIN
G1 F1200 X144.04 Y116.54 E36.95891
G1 X144.04 Y110 E37.17643
G1 X144.04 Y103.46 E37.39395
G1 X75.96 Y103.46 E39.6583
G1 X75.96 Y116.54 E40.09334
G0 F6000 X76.741 Y116.339
G1 F1200 X76.159 Y115.757 E40.12072
G0 F6000 X76.159 Y115.191
G1 F1200 X77.307 Y116.339 E40.17472
G0 F6000 X77.872 Y116.339
G1 F1200 X76.159 Y114.626 E40.25529
G0 F6000 X76.159 Y114.06
G1 F1200 X78.438 Y116.339 E40.36249
G0 F6000 X79.004 Y116.339
G1 F1200 X76.159 Y113.494 E40.49631
G0 F6000 X76.159 Y112.929
G1 F1200 X79.57 Y116.339 E40.65673
G0 F6000 X80.135 Y116.339
G1 F1200 X76.159 Y112.363 E40.84375
G0 F6000 X76.159 Y111.797
G1 F1200 X80.701 Y116.339 E41.05739
G0 F6000 X81.267 Y116.339
G1 F1200 X76.159 Y111.232 E41.29763
G0 F6000 X76.159 Y110.666
G1 F1200 X81.832 Y116.339 E41.56447
G0 F6000 X82.398 Y116.339
G1 F1200 X76.159 Y110.1 E41.85793
G0 F6000 X76.159 Y109.535
G1 F1200 X82.964 Y116.339 E42.178
G0 F6000 X83.529 Y116.339
G1 F1200 X76.159 Y108.969 E42.52466
G0 F6000 X76.159 Y108.403
G1 F1200 X84.095 Y116.339 E42.89794
G0 F6000 X84.661 Y116.339
G1 F1200 X76.159 Y107.838 E43.29783
G0 F6000 X76.159 Y107.272
G1 F1200 X85.226 Y116.339 E43.72431
G0 F6000 X85.792 Y116.339
G1 F1200 X76.159 Y106.706 E44.17742
G0 F6000 X76.159 Y106.14
G1 F1200 X86.358 Y116.339 E44.65715
G0 F6000 X86.923 Y116.339
G1 F1200 X76.159 Y105.575 E45.16345
G0 F6000 X76.159 Y105.009
G1 F1200 X87.489 Y116.339 E45.69638
G0 F6000 X88.055 Y116.339
G1 F1200 X76.159 Y104.443 E46.25593
G0 F6000 X76.159 Y103.878
G1 F1200 X88.62 Y116.339 E46.84206
G0 F6000 X89.186 Y116.339
G1 F1200 X76.506 Y103.659 E47.43849
G0 F6000 X77.072 Y103.659
G1 F1200 X89.752 Y116.339 E48.03492
G0 F6000 X90.318 Y116.339
G1 F1200 X77.638 Y103.659 E48.63135
G0 F6000 X78.203 Y103.659
G1 F1200 X90.883 Y116.339 E49.22777
G0 F6000 X91.449 Y116.339
G1 F1200 X78.769 Y103.659 E49.8242
G0 F6000 X79.335 Y103.659
G1 F1200 X92.015 Y116.339 E50.42063
G0 F6000 X92.58 Y116.339
G1 F1200 X79.9 Y103.659 E51.01706
G0 F6000 X80.466 Y103.659
G1 F1200 X93.146 Y116.339 E51.61349
G0 F6000 X93.712 Y116.339
G1 F1200 X81.032 Y103.659 E52.20992
G0 F6000 X81.598 Y103.659
G1 F1200 X94.277 Y116.339 E52.80632
G0 F6000 X94.843 Y116.339
G1 F1200 X82.163 Y103.659 E53.40275
G0 F6000 X82.729 Y103.659
G1 F1200 X95.409 Y116.339 E53.99918
G0 F6000 X95.974 Y116.339
G1 F1200 X83.295 Y103.659 E54.59558
G0 F6000 X83.86 Y103.659
G1 F1200 X96.54 Y116.339 E55.19201
G0 F6000 X97.106 Y116.339
G1 F1200 X84.426 Y103.659 E55.78844
G0 F6000 X84.992 Y103.659
G1 F1200 X97.671 Y116.339 E56.38484
G0 F6000 X98.237 Y116.339
G1 F1200 X85.557 Y103.659 E56.98127
G0 F6000 X86.123 Y103.659
G1 F1200 X98.803 Y116.339 E57.5777
G0 F6000 X99.369 Y116.339
G1 F1200 X86.689 Y103.659 E58.17413
G0 F6000 X87.254 Y103.659
G1 F1200 X99.934 Y116.339 E58.77056
G0 F6000 X100.5 Y116.339
G1 F1200 X87.82 Y103.659 E59.36698
G0 F6000 X88.386 Y103.659
G1 F1200 X101.066 Y116.339 E59.96341
G0 F6000 X101.631 Y116.339
G1 F1200 X88.951 Y103.659 E60.55984
G0 F6000 X89.517 Y103.659
G1 F1200 X102.197 Y116.339 E61.15627
G0 F6000 X102.763 Y116.339
G1 F1200 X90.083 Y103.659 E61.7527
G0 F6000 X90.648 Y103.659
G1 F1200 X103.328 Y116.339 E62.34913
G0 F6000 X103.894 Y116.339
G1 F1200 X91.214 Y103.659 E62.94555
G0 F6000 X91.78 Y103.659
G1 F1200 X104.46 Y116.339 E63.54198
G0 F6000 X105.025 Y116.339
G1 F1200 X92.346 Y103.659 E64.13839
G0 F6000 X92.911 Y103.659
G1 F1200 X105.591 Y116.339 E64.73482
G0 F6000 X106.157 Y116.339
G1 F1200 X93.477 Y103.659 E65.33124
G0 F6000 X94.043 Y103.659
G1 F1200 X106.722 Y116.339 E65.92765
G0 F6000 X107.288 Y116.339
G1 F1200 X94.608 Y103.659 E66.52408
G0 F6000 X95.174 Y103.659
G1 F1200 X107.854 Y116.339 E67.12051
G0 F6000 X108.419 Y116.339
G1 F1200 X95.74 Y103.659 E67.71691
G0 F6000 X96.305 Y103.659
G1 F1200 X108.985 Y116.339 E68.31334
G0 F6000 X109.551 Y116.339
G1 F1200 X96.871 Y103.659 E68.90977
G0 F6000 X97.437 Y103.659
G1 F1200 X110.117 Y116.339 E69.5062
G0 F6000 X110.682 Y116.339
G1 F1200 X98.002 Y103.659 E70.10262
G0 F6000 X98.568 Y103.659
G1 F1200 X111.248 Y116.339 E70.69905
G0 F6000 X111.814 Y116.339
G1 F1200 X99.134 Y103.659 E71.29548
G0 F6000 X99.699 Y103.659
G1 F1200 X112.379 Y116.339 E71.89191
G0 F6000 X112.945 Y116.339
G1 F1200 X100.265 Y103.659 E72.48834
G0 F6000 X100.831 Y103.659
G1 F1200 X113.511 Y116.339 E73.08477
G0 F6000 X114.076 Y116.339
G1 F1200 X101.396 Y103.659 E73.68119
G0 F6000 X101.962 Y103.659
G1 F1200 X114.642 Y116.339 E74.27762
G0 F6000 X115.208 Y116.339
G1 F1200 X102.528 Y103.659 E74.87405
G0 F6000 X103.094 Y103.659
G1 F1200 X115.773 Y116.339 E75.47046
G0 F6000 X116.339 Y116.339
G1 F1200 X103.659 Y103.659 E76.06688
G0 F6000 X104.225 Y103.659
G1 F1200 X116.905 Y116.339 E76.66331
G0 F6000 X117.47 Y116.339
G1 F1200 X104.791 Y103.659 E77.25972
G0 F6000 X105.356 Y103.659
G1 F1200 X118.036 Y116.339 E77.85614
G0 F6000 X118.602 Y116.339
G1 F1200 X105.922 Y103.659 E78.45257
G0 F6000 X106.488 Y103.659
G1 F1200 X119.167 Y116.339 E79.04898
G0 F6000 X119.733 Y116.339
G1 F1200 X107.053 Y103.659 E79.64541
G0 F6000 X107.619 Y103.659
G1 F1200 X120.299 Y116.339 E80.24183
G0 F6000 X120.865 Y116.339
G1 F1200 X108.185 Y103.659 E80.83826
G0 F6000 X108.75 Y103.659
G1 F1200 X121.43 Y116.339 E81.43469
G0 F6000 X121.996 Y116.339
G1 F1200 X109.316 Y103.659 E82.03112
G0 F6000 X109.882 Y103.659
G1 F1200 X122.562 Y116.339 E82.62755
G0 F6000 X123.127 Y116.339
G1 F1200 X110.447 Y103.659 E83.22398
G0 F6000 X111.013 Y103.659
G1 F1200 X123.693 Y116.339 E83.8204
G0 F6000 X124.259 Y116.339
G1 F1200 X111.579 Y103.659 E84.41683
G0 F6000 X112.145 Y103.659
G1 F1200 X124.824 Y116.339 E85.01324
G0 F6000 X125.39 Y116.339
G1 F1200 X112.71 Y103.659 E85.60967
G0 F6000 X113.276 Y103.659
G1 F1200 X125.956 Y116.339 E86.20609
G0 F6000 X126.521 Y116.339
G1 F1200 X113.842 Y103.659 E86.8025
G0 F6000 X114.407 Y103.659
G1 F1200 X127.087 Y116.339 E87.39893
G0 F6000 X127.653 Y116.339
G1 F1200 X114.973 Y103.659 E87.99536
G0 F6000 X115.539 Y103.659
G1 F1200 X128.218 Y116.339 E88.59176
G0 F6000 X128.784 Y116.339
G1 F1200 X116.104 Y103.659 E89.18819
G0 F6000 X116.67 Y103.659
G1 F1200 X129.35 Y116.339 E89.78462
G0 F6000 X129.916 Y116.339
G1 F1200 X117.236 Y103.659 E90.38105
G0 F6000 X117.801 Y103.659
G1 F1200 X130.481 Y116.339 E90.97747
G0 F6000 X131.047 Y116.339
G1 F1200 X118.367 Y103.659 E91.5739
G0 F6000 X118.933 Y103.659
G1 F1200 X131.613 Y116.339 E92.17033
G0 F6000 X132.178 Y116.339
G1 F1200 X119.498 Y103.659 E92.76676
G0 F6000 X120.064 Y103.659
G1 F1200 X132.744 Y116.339 E93.36319
G0 F6000 X133.31 Y116.339
G1 F1200 X120.63 Y103.659 E93.95962
G0 F6000 X121.195 Y103.659
G1 F1200 X133.875 Y116.339 E94.55604
G0 F6000 X134.441 Y116.339
G1 F1200 X121.761 Y103.659 E95.15247
G0 F6000 X122.327 Y103.659
G1 F1200 X135.007 Y116.339 E95.7489
G0 F6000 X135.572 Y116.339
G1 F1200 X122.893 Y103.659 E96.34531
G0 F6000 X123.458 Y103.659
G1 F1200 X136.138 Y116.339 E96.94173
G0 F6000 X136.704 Y116.339
G1 F1200 X124.024 Y103.659 E97.53816
G0 F6000 X124.59 Y103.659
G1 F1200 X137.269 Y116.339 E98.13457
G0 F6000 X137.835 Y116.339
G1 F1200 X125.155 Y103.659 E98.731
G0 F6000 X125.721 Y103.659
G1 F1200 X138.401 Y116.339 E99.32742
G0 F6000 X138.966 Y116.339
G1 F1200 X126.287 Y103.659 E99.92383
G0 F6000 X126.852 Y103.659
G1 F1200 X139.532 Y116.339 E100.52026
