;FLAVOR:Marlin
;TIME:10898
;Filament used: 8.32612m
;Layer height: 0.2
;MINX:44.016
;MINY:25.926
;MINZ:0.2
;MAXX:175.985
;MAXY:194.074
;MAXZ:12
;Generated with Cura_SteamEngine 5.2.1
M82 ;absolute extrusion mode
; Ender 3 Custom Start G-code
G92 E0 ; Reset Extruder
G28 ; Home all axes
M104 S175 ; Start heating up the nozzle most of the way
M190 S60 ; Start heating the bed, wait until target temperature reached
M109 S200 ; Finish heating the nozzle
G1 Z2.0 F3000 ; Move Z Axis up little to prevent scratching of Heat Bed
G1 X0.1 Y20 Z0.3 F5000.0 ; Move to start position
G1 X0.1 Y200.0 Z0.3 F1500.0 E15 ; Draw the first line
G1 X0.4 Y200.0 Z0.3 F5000.0 ; Move to side a little
G1 X0.4 Y20 Z0.3 F1500.0 E30 ; Draw the second line
G92 E0 ; Reset Extruder
G1 Z2.0 F3000 ; Move Z Axis up little to prevent scratching of Heat Bed
G1 X5 Y20 Z0.3 F5000.0 ; Move over to prevent blob squish
G92 E0
G92 E0
G1 F1500 E-6.5
;LAYER_COUNT:60
;LAYER:0
M107
G0 F6000 X46.013 Y30.625 Z0.2
;TYPE:SKIRT
G1 F1500 E0
G1 F1200 X46.584 Y29.882 E0.03117
G1 X47.217 Y29.189 E0.06238
G1 X47.906 Y28.553 E0.09357
G1 X48.647 Y27.978 E0.12477
G1 X49.434 Y27.468 E0.15596
G1 X50.262 Y27.027 E0.18716
G1 X51.124 Y26.658 E0.21835
G1 X52.014 Y26.364 E0.24952
G1 X52.927 Y26.147 E0.28073
G1 X53.854 Y26.008 E0.31191
G1 X54.785 Y25.949 E0.34294
G1 X55.836 Y25.927 E0.3779
G1 X164.451 Y25.926 E3.99045
G1 X165.145 Y25.936 E4.01354
G1 X166.082 Y25.99 E4.04475
G1 X167.01 Y26.123 E4.07593
G1 X167.924 Y26.334 E4.10713
G1 X168.816 Y26.623 E4.13832
G1 X169.681 Y26.987 E4.16953
G1 X170.511 Y27.423 E4.20072
G1 X171.301 Y27.928 E4.2319
G1 X172.046 Y28.498 E4.2631
G1 X172.739 Y29.13 E4.2943
G1 X173.375 Y29.819 E4.32548
G1 X173.951 Y30.559 E4.35667
G1 X174.461 Y31.346 E4.38786
G1 X174.903 Y32.174 E4.41908
G1 X175.273 Y33.036 E4.45028
G1 X175.567 Y33.926 E4.48146
G1 X175.785 Y34.838 E4.51264
G1 X175.925 Y35.766 E4.54386
G1 X175.985 Y36.702 E4.57505
G1 X175.964 Y37.639 E4.60623
G1 X175.865 Y38.572 E4.63743
G1 X175.661 Y39.592 E4.67203
G1 X175.495 Y40.251 E4.69463
G1 X169.856 Y61.298 E5.41935
G1 X169.615 Y62.146 E5.44867
G1 X169.221 Y63.288 E5.48885
G1 X168.997 Y63.838 E5.5086
G1 X168.479 Y64.933 E5.54889
G1 X168.351 Y65.169 E5.55782
G1 X167.861 Y65.986 E5.58951
G1 X167.653 Y66.301 E5.60206
G1 X167.054 Y67.123 E5.63589
G1 X166.693 Y67.573 E5.65508
G1 X166.076 Y68.279 E5.68626
G1 X165.469 Y68.869 E5.71442
G1 X165.002 Y69.289 E5.73531
G1 X164.358 Y69.825 E5.76318
G1 X163.342 Y70.607 E5.80582
G1 X161.317 Y72.214 E5.8918
G1 X159.375 Y73.845 E5.97615
G1 X157.504 Y75.51 E6.05945
G1 X155.67 Y77.236 E6.14322
G1 X153.896 Y79.006 E6.22657
G1 X152.159 Y80.837 E6.31051
G1 X150.473 Y82.719 E6.39455
G1 X148.852 Y84.634 E6.478
G1 X147.282 Y86.6 E6.56168
G1 X145.761 Y88.619 E6.64576
G1 X144.297 Y90.681 E6.72987
G1 X142.929 Y92.728 E6.81175
G1 X141.56 Y94.907 E6.89734
G1 X140.292 Y97.059 E6.98042
G1 X139.076 Y99.261 E7.06408
G1 X137.926 Y101.493 E7.1476
G1 X136.832 Y103.772 E7.23168
G1 X135.806 Y106.072 E7.31544
G1 X134.839 Y108.42 E7.3999
G1 X133.956 Y110.746 E7.48265
G1 X133.129 Y113.123 E7.56636
G1 X132.368 Y115.528 E7.65026
G1 X131.608 Y118.202 E7.74272
G1 X114.331 Y182.665 E9.96243
G1 X114.198 Y183.132 E9.97858
G1 X114 Y183.758 E10.00042
G1 X113.783 Y184.377 E10.02224
G1 X113.435 Y185.248 E10.05343
G1 X113.052 Y186.018 E10.08204
G1 X112.814 Y186.453 E10.09853
G1 X112.269 Y187.345 E10.1333
G1 X112.128 Y187.553 E10.14166
G1 X111.592 Y188.278 E10.17164
G1 X111.229 Y188.729 E10.1909
G1 X110.61 Y189.434 E10.2221
G1 X110.097 Y189.937 E10.246
G1 X109.806 Y190.204 E10.25913
G1 X109.029 Y190.854 E10.29283
G1 X108.724 Y191.086 E10.30557
G1 X107.862 Y191.679 E10.34037
G1 X107.467 Y191.924 E10.35583
G1 X106.508 Y192.455 E10.39229
G1 X106.214 Y192.599 E10.40318
G1 X105.26 Y193.011 E10.43774
G1 X104.86 Y193.162 E10.45196
G1 X103.829 Y193.494 E10.48799
G1 X103.319 Y193.631 E10.50555
G1 X102.403 Y193.836 E10.53677
G1 X101.673 Y193.941 E10.5613
G1 X101.302 Y193.982 E10.57372
G1 X100.317 Y194.047 E10.60655
G1 X99.231 Y194.069 E10.64268
G1 X96.629 Y194.074 E10.72922
G1 X95.535 Y194.056 E10.76561
G1 X94.342 Y193.969 E10.8054
G1 X93.833 Y193.904 E10.82246
G1 X92.79 Y193.72 E10.85769
G1 X92.451 Y193.643 E10.86925
G1 X91.424 Y193.357 E10.90471
G1 X91.023 Y193.224 E10.91876
G1 X90.029 Y192.84 E10.9542
G1 X89.668 Y192.68 E10.96734
G1 X88.674 Y192.178 E11.00437
G1 X88.22 Y191.919 E11.02176
G1 X87.426 Y191.42 E11.05295
G1 X86.829 Y190.977 E11.07768
G1 X86.396 Y190.633 E11.09607
G1 X85.687 Y190.019 E11.12726
G1 X85.214 Y189.544 E11.14956
G1 X84.778 Y189.079 E11.17076
G1 X84.166 Y188.368 E11.20196
G1 X83.693 Y187.721 E11.22862
G1 X83.406 Y187.297 E11.24565
G1 X82.827 Y186.353 E11.28248
G1 X82.359 Y185.412 E11.31744
G1 X82.184 Y185.019 E11.33175
G1 X81.797 Y184.023 E11.36729
G1 X81.606 Y183.45 E11.38737
G1 X81.439 Y182.899 E11.40652
G1 X81.282 Y182.326 E11.42628
G1 X44.492 Y40.221 E16.30854
G1 X44.332 Y39.569 E16.33087
G1 X44.147 Y38.649 E16.36208
G1 X44.042 Y37.717 E16.39328
G1 X44.016 Y36.78 E16.42446
G1 X44.071 Y35.843 E16.45567
G1 X44.204 Y34.915 E16.48685
G1 X44.417 Y34.002 E16.51804
G1 X44.706 Y33.109 E16.54925
G1 X45.07 Y32.245 E16.58044
G1 X45.507 Y31.415 E16.61164
G1 X46.013 Y30.625 E16.64284
G0 F6000 X46.438 Y30.718
G1 F1200 X47.011 Y29.997 E16.67347
G1 X47.645 Y29.329 E16.7041
G1 X48.333 Y28.718 E16.73471
G1 X49.073 Y28.169 E16.76535
G1 X49.857 Y27.687 E16.79596
G1 X50.68 Y27.274 E16.82659
G1 X51.535 Y26.934 E16.85719
G1 X52.417 Y26.67 E16.88781
G1 X53.319 Y26.484 E16.91844
G1 X54.233 Y26.376 E16.94906
G1 X54.793 Y26.349 E16.9677
G1 X55.844 Y26.327 E17.00267
G1 X164.446 Y26.326 E20.61478
G1 X165.14 Y26.336 E20.63787
G1 X166.059 Y26.389 E20.66849
G1 X166.97 Y26.522 E20.69911
G1 X167.866 Y26.733 E20.72972
G1 X168.74 Y27.022 E20.76034
G1 X169.586 Y27.385 E20.79096
G1 X170.398 Y27.82 E20.8216
G1 X171.168 Y28.324 E20.85221
G1 X171.892 Y28.893 E20.88283
G1 X172.564 Y29.522 E20.91345
G1 X173.179 Y30.208 E20.94409
G1 X173.731 Y30.944 E20.97469
G1 X174.218 Y31.725 E21.0053
G1 X174.636 Y32.546 E21.03595
G1 X174.98 Y33.4 E21.06657
G1 X175.249 Y34.28 E21.09717
G1 X175.441 Y35.18 E21.12778
G1 X175.554 Y36.094 E21.15841
G1 X175.587 Y37.014 E21.18903
G1 X175.54 Y37.934 E21.21967
G1 X175.413 Y38.846 E21.2503
G1 X175.273 Y39.496 E21.27241
G1 X175.109 Y40.148 E21.29477
G1 X169.514 Y61.034 E22.01394
G1 X169.23 Y62.037 E22.04861
G1 X168.851 Y63.137 E22.08731
G1 X168.627 Y63.687 E22.10706
G1 X168.128 Y64.743 E22.1459
G1 X168 Y64.979 E22.15483
G1 X167.528 Y65.766 E22.18536
G1 X167.32 Y66.081 E22.19791
G1 X166.742 Y66.873 E22.23052
G1 X166.381 Y67.323 E22.24971
G1 X165.774 Y68.015 E22.28033
G1 X165.201 Y68.571 E22.30688
G1 X164.734 Y68.991 E22.32777
G1 X164.114 Y69.508 E22.35462
G1 X163.091 Y70.296 E22.39757
G1 X161.057 Y71.909 E22.48391
G1 X159.138 Y73.522 E22.56729
G1 X157.228 Y75.221 E22.65231
G1 X155.397 Y76.945 E22.73596
G1 X153.606 Y78.731 E22.82008
G1 X151.854 Y80.578 E22.90476
G1 X150.171 Y82.457 E22.98866
G1 X148.533 Y84.392 E23.07298
G1 X146.965 Y86.355 E23.15654
G1 X145.46 Y88.353 E23.23974
G1 X143.971 Y90.45 E23.32528
G1 X142.575 Y92.539 E23.40884
G1 X141.22 Y94.697 E23.4936
G1 X139.955 Y96.842 E23.57642
G1 X138.713 Y99.091 E23.66187
G1 X137.56 Y101.33 E23.74564
G1 X136.483 Y103.572 E23.82836
G1 X135.429 Y105.935 E23.91442
G1 X134.471 Y108.261 E23.99809
G1 X133.579 Y110.61 E24.08166
G1 X132.753 Y112.987 E24.16536
G1 X131.979 Y115.435 E24.25075
G1 X131.244 Y118.016 E24.34001
G1 X113.947 Y182.555 E26.56234
G1 X113.814 Y183.022 E26.57849
G1 X113.622 Y183.626 E26.59957
G1 X113.405 Y184.245 E26.62138
G1 X113.063 Y185.1 E26.65201
G1 X112.701 Y185.826 E26.67899
G1 X112.463 Y186.261 E26.69549
G1 X111.938 Y187.121 E26.729
G1 X111.797 Y187.329 E26.73736
G1 X111.281 Y188.027 E26.76623
G1 X110.918 Y188.478 E26.78548
G1 X110.31 Y189.17 E26.81612
G1 X109.826 Y189.642 E26.83861
G1 X109.535 Y189.909 E26.85174
G1 X108.786 Y190.536 E26.88423
G1 X108.481 Y190.768 E26.89698
G1 X107.651 Y191.339 E26.93048
G1 X107.256 Y191.584 E26.94594
G1 X106.332 Y192.095 E26.98106
G1 X106.038 Y192.239 E26.99195
G1 X105.119 Y192.637 E27.02526
G1 X104.719 Y192.788 E27.03948
G1 X103.725 Y193.108 E27.07421
G1 X103.215 Y193.245 E27.09178
G1 X102.316 Y193.445 E27.12241
G1 X101.629 Y193.544 E27.14549
G1 X101.258 Y193.585 E27.15791
G1 X100.309 Y193.647 E27.18954
G1 X99.223 Y193.669 E27.22567
G1 X96.628 Y193.674 E27.31198
G1 X95.542 Y193.656 E27.3481
G1 X94.392 Y193.573 E27.38645
G1 X93.883 Y193.508 E27.40352
G1 X92.878 Y193.33 E27.43746
G1 X92.539 Y193.253 E27.44903
G1 X91.55 Y192.977 E27.48318
G1 X91.149 Y192.844 E27.49723
G1 X90.191 Y192.474 E27.53139
G1 X89.83 Y192.314 E27.54452
G1 X88.872 Y191.83 E27.58022
G1 X88.418 Y191.571 E27.5976
G1 X87.639 Y191.081 E27.62821
G1 X87.077 Y190.664 E27.65149
G1 X86.644 Y190.32 E27.66988
G1 X85.949 Y189.716 E27.70051
G1 X85.505 Y189.27 E27.72144
G1 X85.069 Y188.805 E27.74264
G1 X84.469 Y188.107 E27.77325
G1 X84.024 Y187.497 E27.79837
G1 X83.737 Y187.073 E27.8154
G1 X83.177 Y186.158 E27.85108
G1 X82.725 Y185.249 E27.88484
G1 X82.55 Y184.856 E27.89915
G1 X82.177 Y183.896 E27.93341
G1 X81.986 Y183.323 E27.95349
G1 X81.824 Y182.792 E27.97196
G1 X81.669 Y182.226 E27.99148
G1 X44.88 Y40.125 E32.8736
G1 X44.72 Y39.473 E32.89593
G1 X44.54 Y38.57 E32.92655
G1 X44.439 Y37.655 E32.95717
G1 X44.417 Y36.735 E32.98778
G1 X44.475 Y35.816 E33.01841
G1 X44.613 Y34.906 E33.04902
G1 X44.83 Y34.011 E33.07965
G1 X45.123 Y33.138 E33.11028
G1 X45.491 Y32.294 E33.1409
G1 X45.93 Y31.485 E33.17151
G1 X46.438 Y30.718 E33.20211
G0 F6000 X46.864 Y30.814
G1 F1200 X47.439 Y30.118 E33.23214
G1 X48.073 Y29.474 E33.2622
G1 X48.761 Y28.889 E33.29223
G1 X49.498 Y28.368 E33.32225
G1 X50.279 Y27.913 E33.35232
G1 X51.096 Y27.53 E33.38233
G1 X51.945 Y27.22 E33.41239
G1 X52.817 Y26.987 E33.44241
G1 X53.707 Y26.831 E33.47246
G1 X54.802 Y26.749 E33.50898
G1 X55.853 Y26.727 E33.54395
G1 X164.44 Y26.726 E37.15557
G1 X165.134 Y26.736 E37.17865
G1 X166.036 Y26.789 E37.2087
G1 X166.929 Y26.922 E37.23873
G1 X167.807 Y27.133 E37.26877
G1 X168.663 Y27.42 E37.2988
G1 X169.49 Y27.783 E37.32883
G1 X170.282 Y28.217 E37.35887
G1 X171.032 Y28.72 E37.38891
G1 X171.735 Y29.287 E37.41895
G1 X172.385 Y29.913 E37.44896
G1 X172.978 Y30.595 E37.47902
G1 X173.507 Y31.327 E37.50906
G1 X173.97 Y32.103 E37.53911
G1 X174.362 Y32.916 E37.56913
G1 X174.681 Y33.761 E37.59917
G1 X174.923 Y34.631 E37.62921
G1 X175.088 Y35.519 E37.65925
G1 X175.174 Y36.418 E37.68929
G1 X175.18 Y37.321 E37.71932
G1 X175.106 Y38.221 E37.74936
G1 X174.885 Y39.399 E37.78922
G1 X174.723 Y40.044 E37.81134
G1 X169.128 Y60.93 E38.53051
G1 X168.845 Y61.927 E38.56498
G1 X168.481 Y62.986 E38.60222
G1 X168.257 Y63.536 E38.62197
G1 X167.776 Y64.552 E38.65936
G1 X167.648 Y64.788 E38.66829
G1 X167.194 Y65.545 E38.69765
G1 X166.986 Y65.86 E38.7102
G1 X166.43 Y66.623 E38.7416
G1 X166.069 Y67.073 E38.76079
G1 X165.473 Y67.751 E38.79082
G1 X164.934 Y68.274 E38.8158
G1 X164.467 Y68.694 E38.83669
G1 X163.87 Y69.191 E38.86252
G1 X162.848 Y69.978 E38.90543
G1 X160.814 Y71.591 E38.99177
G1 X158.86 Y73.232 E39.07664
G1 X156.951 Y74.932 E39.16166
G1 X155.105 Y76.669 E39.24596
G1 X153.333 Y78.437 E39.32922
G1 X151.566 Y80.3 E39.41462
G1 X149.884 Y82.177 E39.49845
G1 X148.231 Y84.13 E39.58355
G1 X146.636 Y86.127 E39.66855
G1 X145.113 Y88.149 E39.75275
G1 X143.656 Y90.201 E39.83645
G1 X142.236 Y92.326 E39.92146
G1 X140.895 Y94.461 E40.00531
G1 X139.595 Y96.667 E40.09048
G1 X138.373 Y98.879 E40.17453
G1 X137.202 Y101.152 E40.25957
G1 X136.116 Y103.415 E40.34306
G1 X135.071 Y105.756 E40.42833
G1 X134.087 Y108.147 E40.51432
G1 X133.203 Y110.473 E40.59708
G1 X132.369 Y112.873 E40.68159
G1 X131.61 Y115.272 E40.76528
G1 X130.825 Y118.031 E40.86069
G1 X113.562 Y182.446 E43.07874
G1 X113.429 Y182.913 E43.09489
G1 X113.245 Y183.493 E43.11513
G1 X113.028 Y184.112 E43.13695
G1 X112.691 Y184.951 E43.16702
G1 X112.35 Y185.634 E43.19241
G1 X112.112 Y186.069 E43.2089
G1 X111.607 Y186.896 E43.24113
G1 X111.466 Y187.104 E43.24949
G1 X110.969 Y187.776 E43.27729
G1 X110.606 Y188.227 E43.29654
G1 X110.009 Y188.905 E43.32659
G1 X109.556 Y189.348 E43.34766
G1 X109.265 Y189.615 E43.3608
G1 X108.544 Y190.217 E43.39204
G1 X108.239 Y190.449 E43.40479
G1 X107.44 Y190.999 E43.43705
G1 X107.045 Y191.244 E43.45251
G1 X106.156 Y191.736 E43.4863
G1 X105.862 Y191.88 E43.49719
G1 X104.977 Y192.263 E43.52926
G1 X104.577 Y192.414 E43.54348
G1 X103.621 Y192.722 E43.57689
G1 X103.111 Y192.859 E43.59445
G1 X102.229 Y193.054 E43.6245
G1 X101.585 Y193.146 E43.64614
G1 X101.214 Y193.187 E43.65855
G1 X100.301 Y193.247 E43.68898
G1 X99.021 Y193.271 E43.73156
G1 X96.628 Y193.274 E43.81115
G1 X95.55 Y193.256 E43.84701
G1 X94.443 Y193.176 E43.88393
G1 X93.934 Y193.111 E43.901
G1 X92.967 Y192.94 E43.93366
G1 X92.628 Y192.863 E43.94522
G1 X91.676 Y192.597 E43.9781
G1 X91.275 Y192.464 E43.99215
G1 X90.353 Y192.108 E44.02502
G1 X89.992 Y191.948 E44.03815
G1 X89.071 Y191.483 E44.07247
G1 X88.617 Y191.224 E44.08985
G1 X87.853 Y190.742 E44.1199
G1 X87.326 Y190.35 E44.14174
G1 X86.893 Y190.006 E44.16014
G1 X86.212 Y189.414 E44.19015
G1 X85.797 Y188.997 E44.20972
G1 X85.361 Y188.532 E44.23092
G1 X84.773 Y187.846 E44.26097
G1 X84.355 Y187.273 E44.28456
G1 X84.068 Y186.849 E44.30159
G1 X83.527 Y185.965 E44.33606
G1 X83.09 Y185.086 E44.36871
G1 X82.915 Y184.693 E44.38302
G1 X82.556 Y183.77 E44.41596
G1 X82.365 Y183.197 E44.43605
G1 X82.21 Y182.686 E44.45381
G1 X82.099 Y182.284 E44.46768
G1 X45.269 Y40.03 E49.35507
G1 X45.109 Y39.378 E49.3774
G1 X44.933 Y38.492 E49.40744
G1 X44.836 Y37.594 E49.43748
G1 X44.818 Y36.691 E49.46752
G1 X44.881 Y35.79 E49.49756
G1 X45.023 Y34.899 E49.52757
G1 X45.243 Y34.023 E49.55761
G1 X45.54 Y33.17 E49.58765
G1 X45.911 Y32.347 E49.61768
G1 X46.354 Y31.559 E49.64775
G1 X46.864 Y30.814 E49.67777
G1 F1500 E43.17777
;MESH:screen-support-2.stl
G0 F6000 X66.183 Y47.122
G0 X99.48 Y175.009
;TYPE:WALL-INNER
G1 F1500 E49.67777
G1 F1200 X66.339 Y47.004 E54.07562
G1 X66.363 Y46.754 E54.08397
G1 X66.448 Y46.579 E54.09044
G1 X66.649 Y46.399 E54.09941
G1 X66.859 Y46.325 E54.10682
G1 X134.394 Y46.325 E56.35304
G1 X134.68 Y46.444 E56.36334
G1 X134.788 Y46.549 E56.36835
G1 X134.9 Y46.769 E56.37657
G1 X134.9 Y47.081 E56.38694
G1 X100.621 Y175.014 E60.79211
G1 X100.454 Y175.241 E60.80148
G1 X100.32 Y175.329 E60.80681
G1 X100.06 Y175.388 E60.81568
G1 X99.879 Y175.365 E60.82175
G1 X99.691 Y175.274 E60.8287
G1 X99.48 Y175.009 E60.83996
G0 F6000 X99.925 Y174.95
;TYPE:WALL-OUTER
G1 F1200 X99.86 Y174.87 E60.84339
G1 X66.739 Y46.939 E65.23868
G1 X66.775 Y46.809 E65.24317
G1 X66.904 Y46.727 E65.24825
G1 X134.355 Y46.727 E67.49168
G1 X134.457 Y46.778 E67.49548
G1 X134.52 Y46.943 E67.50135
G1 X100.243 Y174.88 E71.90663
G1 X100.102 Y174.983 E71.91244
G1 X99.925 Y174.95 E71.91843
G1 F1500 E65.41843
G0 F6000 X99.592 Y175.036
G0 X98.771 Y172.91
G0 X100.813 Y182.093
G0 X100.34 Y182.43
;TYPE:WALL-INNER
G1 F1500 E71.91843
G1 F1200 X100.731 Y182.334 E71.93182
G1 X101.054 Y182.221 E71.9432
G1 X101.354 Y182.081 E71.95421
G1 X101.638 Y181.914 E71.96517
G1 X101.906 Y181.719 E71.97619
G1 X102.213 Y181.446 E71.98985
G1 X102.477 Y181.131 E72.00352
G1 X102.664 Y180.858 E72.01453
G1 X102.862 Y180.497 E72.02822
G1 X103.013 Y180.097 E72.04245
G1 X138.742 Y46.769 E76.63342
G1 X138.854 Y46.549 E76.64163
G1 X138.962 Y46.444 E76.64664
G1 X139.254 Y46.325 E76.65713
G1 X152.32 Y46.325 E77.0917
G1 X152.505 Y46.353 E77.09793
G1 X152.664 Y46.432 E77.10383
G1 X152.874 Y46.691 E77.11492
G1 X152.919 Y47.01 E77.12564
G1 X150.235 Y57.031 E77.47068
G1 X150.16 Y57.374 E77.48236
G1 X150.122 Y57.708 E77.49354
G1 X150.118 Y58.046 E77.50479
G1 X150.153 Y58.457 E77.51851
G1 X150.268 Y58.944 E77.53515
G1 X150.428 Y59.348 E77.5496
G1 X150.581 Y59.644 E77.56068
G1 X150.766 Y59.924 E77.57185
G1 X150.978 Y60.187 E77.58308
G1 X151.216 Y60.429 E77.59437
G1 X151.473 Y60.643 E77.60549
G1 X151.818 Y60.875 E77.61932
G1 X152.203 Y61.06 E77.63353
G1 X152.532 Y61.178 E77.64515
G1 X152.929 Y61.278 E77.65877
G1 X153.347 Y61.32 E77.67274
G1 X155.396 Y61.32 E77.74089
G1 X155.802 Y61.28 E77.75446
G1 X156.193 Y61.184 E77.76785
