;FLAVOR:Marlin
;TIME:9088
;Filament used: 7.35878m
;Layer height: 0.2
;MINX:44.014
;MINY:37.284
;MINZ:0.2
;MAXX:175.986
;MAXY:182.716
;MAXZ:10
;Generated with Cura_SteamEngine 5.2.1
M82 ;absolute extrusion mode
; Ender 3 Custom Start G-code
G92 E0 ; Reset Extruder
G28 ; Home all axes
M104 S175 ; Start heating up the nozzle most of the way
M190 S60 ; Start heating the bed, wait until target temperature reached
M109 S200 ; Finish heating the nozzle
G1 Z2.0 F3000 ; Move Z Axis up little to prevent scratching of Heat Bed
G1 X0.1 Y20 Z0.3 F5000.0 ; Move to start position
G1 X0.1 Y200.0 Z0.3 F1500.0 E15 ; Draw the first line
G1 X0.4 Y200.0 Z0.3 F5000.0 ; Move to side a little
G1 X0.4 Y20 Z0.3 F1500.0 E30 ; Draw the second line
G92 E0 ; Reset Extruder
G1 Z2.0 F3000 ; Move Z Axis up little to prevent scratching of Heat Bed
G1 X5 Y20 Z0.3 F5000.0 ; Move over to prevent blob squish
G92 E0
G92 E0
G1 F1500 E-6.5
;LAYER_COUNT:50
;LAYER:0
M107
G0 F6000 X46.525 Y41.297 Z0.2
;TYPE:SKIRT
G1 F1500 E0
G1 F1200 X47.151 Y40.599 E0.03118
G1 X47.835 Y39.957 E0.06239
G1 X48.571 Y39.376 E0.09357
G1 X49.354 Y38.86 E0.12476
G1 X50.178 Y38.412 E0.15596
G1 X51.037 Y38.036 E0.18715
G1 X51.925 Y37.734 E0.21834
G1 X52.836 Y37.51 E0.24954
G1 X53.762 Y37.363 E0.28073
G1 X54.848 Y37.293 E0.31692
G1 X55.444 Y37.284 E0.33675
G1 X164.451 Y37.284 E3.96234
G1 X165.146 Y37.294 E3.98545
G1 X166.083 Y37.348 E4.01667
G1 X167.011 Y37.481 E4.04785
G1 X167.925 Y37.692 E4.07905
G1 X168.817 Y37.981 E4.11024
G1 X169.682 Y38.345 E4.14145
G1 X170.512 Y38.781 E4.17263
G1 X171.302 Y39.286 E4.20382
G1 X172.046 Y39.856 E4.23499
G1 X172.739 Y40.488 E4.26619
G1 X173.376 Y41.177 E4.2974
G1 X173.952 Y41.917 E4.32859
G1 X174.462 Y42.704 E4.35978
G1 X174.904 Y43.531 E4.39097
G1 X175.274 Y44.393 E4.42217
G1 X175.568 Y45.284 E4.45337
G1 X175.786 Y46.196 E4.48456
G1 X175.926 Y47.123 E4.51574
G1 X175.986 Y48.059 E4.54694
G1 X175.965 Y48.997 E4.57814
G1 X175.866 Y49.929 E4.60932
G1 X175.664 Y50.945 E4.64377
G1 X175.495 Y51.617 E4.66682
G1 X169.847 Y72.679 E5.39209
G1 X169.652 Y73.368 E5.41591
G1 X169.452 Y73.997 E5.43786
G1 X169.31 Y74.402 E5.45214
G1 X168.899 Y75.411 E5.48837
G1 X168.712 Y75.812 E5.50309
G1 X168.212 Y76.761 E5.53877
G1 X167.959 Y77.189 E5.5553
G1 X167.448 Y77.975 E5.58648
G1 X166.988 Y78.576 E5.61166
G1 X166.614 Y79.031 E5.63125
G1 X165.988 Y79.729 E5.66243
G1 X165.569 Y80.137 E5.68188
G1 X165.252 Y80.429 E5.69622
G1 X164.841 Y80.788 E5.71437
G1 X164.29 Y81.243 E5.73813
G1 X162.566 Y82.609 E5.81129
G1 X160.645 Y84.225 E5.89479
G1 X158.759 Y85.903 E5.97875
G1 X156.925 Y87.629 E6.06251
G1 X155.151 Y89.399 E6.14586
G1 X153.419 Y91.225 E6.22957
G1 X151.726 Y93.115 E6.31396
G1 X150.108 Y95.027 E6.39727
G1 X148.53 Y97.003 E6.48138
G1 X147.026 Y99.001 E6.56456
G1 X145.553 Y101.075 E6.64916
G1 X144.185 Y103.122 E6.73105
G1 X142.816 Y105.301 E6.81664
G1 X141.554 Y107.442 E6.8993
G1 X140.329 Y109.662 E6.98364
G1 X139.184 Y111.885 E7.0668
G1 X138.088 Y114.168 E7.15103
G1 X137.063 Y116.467 E7.23475
G1 X136.096 Y118.815 E7.31921
G1 X135.213 Y121.141 E7.40196
G1 X134.391 Y123.506 E7.48524
G1 X133.625 Y125.926 E7.56966
G1 X132.871 Y128.58 E7.66143
G1 X121.452 Y171.189 E9.12862
G1 X121.232 Y171.972 E9.15567
G1 X120.793 Y173.234 E9.20011
G1 X120.64 Y173.6 E9.21331
G1 X120.224 Y174.482 E9.24574
G1 X119.956 Y174.991 E9.26487
G1 X119.484 Y175.801 E9.29606
G1 X119.108 Y176.351 E9.31821
G1 X118.881 Y176.662 E9.33102
G1 X118.177 Y177.53 E9.36819
G1 X117.893 Y177.846 E9.38232
G1 X117.193 Y178.558 E9.41553
G1 X116.889 Y178.84 E9.42932
G1 X116.061 Y179.535 E9.46528
G1 X115.641 Y179.854 E9.48282
G1 X114.871 Y180.389 E9.51401
G1 X114.402 Y180.669 E9.53217
G1 X114.043 Y180.872 E9.54589
G1 X112.81 Y181.471 E9.59148
G1 X112.355 Y181.658 E9.60785
G1 X111.279 Y182.037 E9.64579
G1 X110.844 Y182.165 E9.66087
G1 X109.934 Y182.391 E9.69206
G1 X109.386 Y182.488 E9.71057
G1 X108.805 Y182.576 E9.73011
G1 X107.873 Y182.677 E9.76129
G1 X107.34 Y182.698 E9.77903
G1 X106.385 Y182.713 E9.8108
G1 X103.411 Y182.716 E9.90971
G1 X102.301 Y182.697 E9.94664
G1 X101.134 Y182.612 E9.98556
G1 X100.5 Y182.532 E10.00681
G1 X99.575 Y182.375 E10.03802
G1 X98.769 Y182.171 E10.06567
G1 X98.27 Y182.024 E10.08297
G1 X97.136 Y181.627 E10.12293
G1 X96.193 Y181.198 E10.15739
G1 X95.81 Y181.004 E10.17167
G1 X94.871 Y180.468 E10.20763
G1 X94.375 Y180.152 E10.22719
G1 X93.606 Y179.615 E10.25839
G1 X92.999 Y179.116 E10.28452
G1 X92.576 Y178.742 E10.3033
G1 X91.9 Y178.091 E10.33452
G1 X91.497 Y177.644 E10.35453
G1 X91.269 Y177.377 E10.36621
G1 X90.64 Y176.568 E10.4003
G1 X90.29 Y176.071 E10.42051
G1 X89.784 Y175.281 E10.45172
G1 X89.436 Y174.637 E10.47606
G1 X89.231 Y174.225 E10.49137
G1 X88.818 Y173.288 E10.52543
G1 X88.343 Y172.054 E10.56941
G1 X44.847 Y52.546 E14.79934
G1 X44.623 Y51.901 E14.82205
G1 X44.353 Y51.002 E14.85327
G1 X44.161 Y50.084 E14.88446
G1 X44.048 Y49.153 E14.91566
G1 X44.014 Y48.216 E14.94684
G1 X44.061 Y47.279 E14.97804
G1 X44.187 Y46.35 E15.00923
G1 X44.392 Y45.435 E15.04041
G1 X44.674 Y44.54 E15.07162
G1 X45.031 Y43.673 E15.10281
G1 X45.46 Y42.84 E15.13397
G1 X45.96 Y42.046 E15.16518
G1 X46.525 Y41.297 E15.19639
G0 F6000 X46.964 Y41.396
G1 F1200 X47.593 Y40.724 E15.227
G1 X48.277 Y40.108 E15.25762
G1 X49.013 Y39.554 E15.28826
G1 X49.794 Y39.067 E15.31887
G1 X50.614 Y38.648 E15.3495
G1 X51.467 Y38.303 E15.3801
G1 X52.347 Y38.033 E15.41072
G1 X53.248 Y37.84 E15.44136
G1 X54.161 Y37.726 E15.47196
G1 X54.854 Y37.693 E15.49504
G1 X55.45 Y37.684 E15.51487
G1 X164.446 Y37.684 E19.14009
G1 X165.141 Y37.694 E19.16321
G1 X166.06 Y37.747 E19.19382
G1 X166.971 Y37.88 E19.22444
G1 X167.867 Y38.091 E19.25506
G1 X168.741 Y38.38 E19.28568
G1 X169.587 Y38.743 E19.3163
G1 X170.398 Y39.178 E19.34691
G1 X171.169 Y39.682 E19.37754
G1 X171.893 Y40.25 E19.40815
G1 X172.565 Y40.88 E19.43879
G1 X173.179 Y41.565 E19.46938
G1 X173.732 Y42.302 E19.50003
G1 X174.219 Y43.083 E19.53064
G1 X174.636 Y43.904 E19.56127
G1 X174.981 Y44.757 E19.59187
G1 X175.25 Y45.638 E19.62251
G1 X175.442 Y46.538 E19.65312
G1 X175.555 Y47.452 E19.68375
G1 X175.588 Y48.372 E19.71437
G1 X175.541 Y49.291 E19.74497
G1 X175.414 Y50.203 E19.7756
G1 X175.275 Y50.849 E19.79758
G1 X175.108 Y51.514 E19.82038
G1 X169.417 Y72.732 E20.55104
G1 X169.267 Y73.259 E20.56926
G1 X169.075 Y73.864 E20.59037
G1 X168.933 Y74.269 E20.60465
G1 X168.537 Y75.242 E20.63959
G1 X168.35 Y75.643 E20.6543
G1 X167.868 Y76.557 E20.68867
G1 X167.615 Y76.985 E20.70521
G1 X167.113 Y77.756 E20.73581
G1 X166.679 Y78.322 E20.75953
G1 X166.305 Y78.777 E20.77912
G1 X165.69 Y79.462 E20.80974
G1 X165.298 Y79.842 E20.8279
G1 X164.981 Y80.134 E20.84223
G1 X164.585 Y80.481 E20.85974
G1 X164.042 Y80.93 E20.88318
G1 X162.307 Y82.306 E20.95683
G1 X160.388 Y83.919 E21.04021
G1 X158.483 Y85.614 E21.12502
G1 X156.652 Y87.338 E21.20866
G1 X154.861 Y89.124 E21.29279
G1 X153.114 Y90.966 E21.37723
G1 X151.424 Y92.853 E21.46148
G1 X149.789 Y94.785 E21.54566
G1 X148.23 Y96.736 E21.62872
G1 X146.708 Y98.757 E21.71287
G1 X145.227 Y100.844 E21.79799
G1 X143.831 Y102.933 E21.88156
G1 X142.476 Y105.091 E21.96631
G1 X141.217 Y107.226 E22.04874
G1 X139.966 Y109.493 E22.13486
G1 X138.825 Y111.708 E22.21773
G1 X137.734 Y113.981 E22.30159
G1 X136.686 Y116.33 E22.38714
G1 X135.728 Y118.656 E22.47081
G1 X134.837 Y121.004 E22.55434
G1 X134.008 Y123.391 E22.63838
G1 X133.242 Y125.811 E22.72281
G1 X132.505 Y128.403 E22.81244
G1 X121.066 Y171.085 E24.28214
G1 X120.847 Y171.864 E24.30906
G1 X120.424 Y173.079 E24.35185
G1 X120.271 Y173.445 E24.36504
G1 X119.87 Y174.295 E24.3963
G1 X119.602 Y174.804 E24.41543
G1 X119.138 Y175.6 E24.44608
G1 X118.785 Y176.115 E24.46685
G1 X118.558 Y176.426 E24.47965
G1 X117.88 Y177.263 E24.51548
G1 X117.596 Y177.579 E24.52961
G1 X116.921 Y178.264 E24.5616
G1 X116.617 Y178.546 E24.57539
G1 X115.819 Y179.216 E24.61004
G1 X115.399 Y179.535 E24.62758
G1 X114.643 Y180.06 E24.6582
G1 X114.206 Y180.321 E24.67513
G1 X113.847 Y180.524 E24.68884
G1 X112.658 Y181.101 E24.7328
G1 X112.203 Y181.288 E24.74916
G1 X111.166 Y181.653 E24.78573
G1 X110.731 Y181.781 E24.80081
G1 X109.838 Y182.002 E24.83141
G1 X109.326 Y182.092 E24.8487
G1 X108.745 Y182.18 E24.86824
G1 X107.83 Y182.279 E24.89885
G1 X107.334 Y182.299 E24.91536
G1 X106.55 Y182.312 E24.94144
G1 X103.411 Y182.316 E25.04585
G1 X102.308 Y182.297 E25.08254
G1 X101.184 Y182.216 E25.12002
G1 X100.55 Y182.136 E25.14127
G1 X99.642 Y181.981 E25.17191
G1 X98.882 Y181.787 E25.198
G1 X98.383 Y181.64 E25.2153
G1 X97.287 Y181.257 E25.25391
G1 X96.374 Y180.841 E25.28728
G1 X95.991 Y180.647 E25.30156
G1 X95.085 Y180.131 E25.33624
G1 X94.589 Y179.815 E25.3558
G1 X93.835 Y179.287 E25.38642
G1 X93.264 Y178.816 E25.41104
G1 X92.841 Y178.442 E25.42982
G1 X92.178 Y177.803 E25.46044
G1 X91.801 Y177.384 E25.47919
G1 X91.573 Y177.117 E25.49087
G1 X90.967 Y176.337 E25.52372
G1 X90.617 Y175.84 E25.54394
G1 X90.12 Y175.065 E25.57456
G1 X89.794 Y174.459 E25.59745
G1 X89.589 Y174.047 E25.61275
G1 X89.191 Y173.144 E25.64557
G1 X88.719 Y171.917 E25.6893
G1 X45.225 Y52.415 E29.91902
G1 X45.001 Y51.77 E29.94173
G1 X44.737 Y50.888 E29.97235
G1 X44.55 Y49.986 E30.00299
G1 X44.443 Y49.072 E30.0336
G1 X44.415 Y48.151 E30.06425
G1 X44.467 Y47.232 E30.09486
G1 X44.599 Y46.321 E30.12548
G1 X44.809 Y45.425 E30.15609
G1 X45.096 Y44.55 E30.18672
G1 X45.459 Y43.704 E30.21733
G1 X45.893 Y42.892 E30.24796
G1 X46.396 Y42.121 E30.27858
G1 X46.964 Y41.396 E30.30921
G0 F6000 X47.403 Y41.501
G1 F1200 X48.034 Y40.854 E30.33927
G1 X48.719 Y40.266 E30.36929
G1 X49.454 Y39.741 E30.39934
G1 X50.232 Y39.282 E30.42938
G1 X51.048 Y38.895 E30.45942
G1 X51.894 Y38.581 E30.48943
G1 X52.766 Y38.343 E30.51949
G1 X53.655 Y38.183 E30.54954
G1 X54.86 Y38.093 E30.58973
G1 X55.456 Y38.084 E30.60955
G1 X164.44 Y38.084 E34.23438
G1 X165.135 Y38.094 E34.25749
G1 X166.036 Y38.147 E34.28751
G1 X166.93 Y38.28 E34.31758
G1 X167.808 Y38.49 E34.3476
G1 X168.664 Y38.778 E34.37764
G1 X169.491 Y39.141 E34.40768
G1 X170.283 Y39.575 E34.43772
G1 X171.033 Y40.077 E34.46773
G1 X171.736 Y40.644 E34.49777
G1 X172.386 Y41.271 E34.52781
G1 X172.978 Y41.953 E34.55785
G1 X173.508 Y42.685 E34.58791
G1 X173.971 Y43.46 E34.61793
G1 X174.363 Y44.274 E34.64798
G1 X174.682 Y45.119 E34.67802
G1 X174.924 Y45.989 E34.70806
G1 X175.089 Y46.877 E34.7381
G1 X175.175 Y47.776 E34.76814
G1 X175.181 Y48.679 E34.79817
G1 X175.107 Y49.579 E34.82821
G1 X174.887 Y50.752 E34.8679
G1 X174.722 Y51.41 E34.89046
G1 X169.074 Y72.472 E35.61574
G1 X168.882 Y73.149 E35.63914
G1 X168.698 Y73.732 E35.65948
G1 X168.556 Y74.137 E35.67375
G1 X168.174 Y75.073 E35.70738
G1 X167.987 Y75.474 E35.72209
G1 X167.524 Y76.353 E35.75514
G1 X167.271 Y76.781 E35.77167
G1 X166.777 Y77.538 E35.80174
G1 X166.37 Y78.068 E35.82396
G1 X165.996 Y78.523 E35.84355
G1 X165.392 Y79.195 E35.8736
G1 X165.027 Y79.548 E35.89049
G1 X164.71 Y79.84 E35.90483
G1 X164.329 Y80.174 E35.92168
G1 X163.793 Y80.616 E35.94479
G1 X162.084 Y81.971 E36.01733
G1 X160.11 Y83.63 E36.10309
G1 X158.206 Y85.325 E36.18788
G1 X156.36 Y87.062 E36.27218
G1 X154.588 Y88.83 E36.35544
G1 X152.826 Y90.688 E36.4406
G1 X151.138 Y92.573 E36.52476
G1 X149.487 Y94.523 E36.60974
G1 X147.897 Y96.514 E36.69449
G1 X146.365 Y98.548 E36.77918
G1 X144.912 Y100.595 E36.86268
G1 X143.492 Y102.72 E36.94768
G1 X142.151 Y104.855 E37.03154
G1 X140.842 Y107.077 E37.11731
G1 X139.64 Y109.253 E37.19999
G1 X138.467 Y111.531 E37.28521
G1 X137.366 Y113.824 E37.36982
G1 X136.328 Y116.151 E37.45456
G1 X135.344 Y118.542 E37.54056
G1 X134.456 Y120.879 E37.62371
G1 X133.635 Y123.244 E37.70698
G1 X132.865 Y125.678 E37.79189
G1 X132.078 Y128.447 E37.88763
G1 X120.645 Y171.105 E39.35652
G1 X120.462 Y171.755 E39.37898
G1 X120.055 Y172.925 E39.42018
G1 X119.902 Y173.291 E39.43337
G1 X119.516 Y174.109 E39.46345
G1 X119.248 Y174.618 E39.48259
G1 X118.793 Y175.398 E39.51262
G1 X118.462 Y175.88 E39.53207
G1 X118.235 Y176.191 E39.54488
G1 X117.582 Y176.995 E39.57933
G1 X117.298 Y177.311 E39.59346
G1 X116.649 Y177.971 E39.62424
G1 X116.345 Y178.253 E39.63803
G1 X115.577 Y178.898 E39.67139
G1 X115.157 Y179.217 E39.68893
G1 X114.415 Y179.731 E39.71896
G1 X114.009 Y179.973 E39.73468
G1 X113.65 Y180.176 E39.74839
G1 X112.506 Y180.731 E39.79068
G1 X112.051 Y180.918 E39.80705
G1 X111.053 Y181.269 E39.84223
G1 X110.618 Y181.397 E39.85731
G1 X109.742 Y181.613 E39.88732
G1 X109.267 Y181.697 E39.90337
G1 X108.686 Y181.785 E39.92291
G1 X107.787 Y181.881 E39.95298
G1 X107.327 Y181.899 E39.96829
G1 X106.543 Y181.912 E39.99437
G1 X103.41 Y181.916 E40.09858
G1 X102.316 Y181.897 E40.13497
G1 X101.234 Y181.819 E40.17105
G1 X100.6 Y181.739 E40.1923
G1 X99.71 Y181.586 E40.22234
G1 X98.995 Y181.403 E40.24689
G1 X98.496 Y181.256 E40.26419
G1 X97.438 Y180.886 E40.30147
G1 X96.555 Y180.484 E40.33374
G1 X96.172 Y180.29 E40.34802
G1 X95.3 Y179.793 E40.3814
G1 X94.804 Y179.477 E40.40096
G1 X94.065 Y178.959 E40.43098
G1 X93.529 Y178.516 E40.4541
G1 X93.106 Y178.142 E40.47288
G1 X92.456 Y177.515 E40.50292
G1 X92.105 Y177.125 E40.52037
G1 X91.877 Y176.858 E40.53205
G1 X91.294 Y176.107 E40.56367
G1 X90.944 Y175.61 E40.58389
G1 X90.458 Y174.849 E40.61392
G1 X90.152 Y174.281 E40.63538
G1 X89.947 Y173.869 E40.65069
G1 X89.564 Y173 E40.68227
G1 X89.095 Y171.781 E40.72571
G1 X45.603 Y52.283 E44.95529
G1 X45.379 Y51.638 E44.978
G1 X45.12 Y50.773 E45.00803
G1 X44.94 Y49.888 E45.03807
G1 X44.838 Y48.991 E45.0681
G1 X44.816 Y48.088 E45.09814
G1 X44.874 Y47.187 E45.12817
G1 X45.012 Y46.294 E45.15822
G1 X45.228 Y45.417 E45.18826
G1 X45.52 Y44.563 E45.21828
G1 X45.887 Y43.738 E45.24831
G1 X46.326 Y42.948 E45.27837
G1 X46.833 Y42.201 E45.3084
G1 X47.403 Y41.501 E45.33843
G1 F1500 E38.83843
;MESH:screen-support.stl
G0 F6000 X69.797 Y63.741
G0 X103.702 Y147.201
;TYPE:WALL-INNER
G1 F1500 E45.33843
G1 F1200 X103.189 Y147.185 E45.3555
G1 X102.653 Y147.114 E45.37348
G1 X102.129 Y146.966 E45.39159
G1 X101.699 Y146.798 E45.40694
G1 X101.166 Y146.526 E45.42685
G1 X100.61 Y146.121 E45.44973
G1 X100.189 Y145.704 E45.46943
G1 X99.897 Y145.352 E45.48465
G1 X99.641 Y144.97 E45.49994
G1 X99.427 Y144.57 E45.51503
G1 X99.274 Y144.206 E45.52816
G1 X69.949 Y63.62 E48.38041
G1 X69.839 Y63.176 E48.39563
G1 X69.779 Y62.785 E48.40878
G1 X69.752 Y62.337 E48.42371
G1 X69.77 Y61.881 E48.43889
G1 X69.843 Y61.372 E48.45599
G1 X69.971 Y60.856 E48.47367
G1 X70.174 Y60.358 E48.49156
G1 X70.414 Y59.905 E48.50861
G1 X70.653 Y59.546 E48.52296
G1 X70.956 Y59.183 E48.53868
G1 X71.37 Y58.776 E48.55799
G1 X71.815 Y58.446 E48.57642
G1 X72.278 Y58.167 E48.5944
G1 X72.766 Y57.964 E48.61198
G1 X73.201 Y57.829 E48.62713
G1 X73.704 Y57.729 E48.64418
G1 X74.095 Y57.69 E48.65725
G1 X125.366 Y57.69 E50.36253
G1 X125.758 Y57.729 E50.37563
G1 X126.268 Y57.831 E50.39293
G1 X126.7 Y57.967 E50.408
G1 X127.061 Y58.117 E50.421
G1 X127.517 Y58.364 E50.43825
G1 X127.845 Y58.585 E50.4514
G1 X128.197 Y58.876 E50.46659
G1 X128.619 Y59.299 E50.48647
G1 X128.937 Y59.734 E50.50439
G1 X129.246 Y60.256 E50.52456
G1 X129.463 Y60.803 E50.54414
G1 X129.575 Y61.184 E50.55734
G1 X129.662 Y61.637 E50.57269
G1 X129.703 Y62.089 E50.58778
G1 X129.701 Y62.545 E50.60295
G1 X129.652 Y62.997 E50.61807
G1 X129.554 Y63.462 E50.63388
G1 X107.975 Y143.983 E53.40652
G1 X107.762 Y144.549 E53.42663
G1 X107.428 Y145.148 E53.44944
G1 X107.063 Y145.615 E53.46916
G1 X106.792 Y145.903 E53.48231
G1 X106.447 Y146.206 E53.49758
G1 X106.023 Y146.504 E53.51482
G1 X105.554 Y146.77 E53.53275
G1 X105.046 Y146.964 E53.55084
G1 X104.611 Y147.087 E53.56587
G1 X104.158 Y147.167 E53.58117
G1 X103.702 Y147.201 E53.59638
G0 F6000 X103.675 Y146.802
;TYPE:WALL-OUTER
G1 F1200 X103.241 Y146.789 E53.61082
G1 X102.747 Y146.724 E53.6274
G1 X102.239 Y146.581 E53.64495
G1 X101.828 Y146.418 E53.65966
G1 X101.392 Y146.192 E53.67599
G1 X100.859 Y145.804 E53.69792
G1 X100.495 Y145.446 E53.7149
G1 X100.24 Y145.143 E53.72807
G1 X99.993 Y144.779 E53.7427
G1 X99.796 Y144.415 E53.75647
G1 X99.64 Y144.042 E53.76991
G1 X70.337 Y63.522 E56.61985
G1 X70.235 Y63.115 E56.63381
G1 X70.175 Y62.724 E56.64696
G1 X70.152 Y62.315 E56.66059
G1 X70.17 Y61.899 E56.67444
G1 X70.231 Y61.468 E56.68891
G1 X70.349 Y60.992 E56.70523
