;FLAVOR:Marlin
;TIME:6154
;Filament used: 4.36626m
;Layer height: 0.2
;MINX:72.589
;MINY:86.407
;MINZ:0.2
;MAXX:136.99
;MAXY:133.592
;MAXZ:28
;Generated with Cura_SteamEngine 4.10.0
M140 S60
M105
M190 S60
M104 S200
M105
M109 S200
M82 ;absolute extrusion mode
; Ender 3 Custom Start G-code
G92 E0 ; Reset Extruder
G28 ; Home all axes
G1 Z2.0 F3000 ; Move Z Axis up little to prevent scratching of Heat Bed
G1 X0.1 Y20 Z0.3 F5000.0 ; Move to start position
G1 X0.1 Y200.0 Z0.3 F1500.0 E15 ; Draw the first line
G1 X0.4 Y200.0 Z0.3 F5000.0 ; Move to side a little
G1 X0.4 Y20 Z0.3 F1500.0 E30 ; Draw the second line
G92 E0 ; Reset Extruder
G1 Z2.0 F3000 ; Move Z Axis up little to prevent scratching of Heat Bed
G1 X5 Y20 Z0.3 F5000.0 ; Move over to prevent blob squish
G92 E0
G92 E0
G1 F1500 E-6.5
;LAYER_COUNT:140
;LAYER:0
M107
G0 F6000 X76.724 Y93.534 Z0.2
;TYPE:SKIRT
G1 F1500 E0
G1 F1200 X77.441 Y92.945 E0.03086
G1 X78.137 Y92.421 E0.05984
G1 X78.407 Y92.224 E0.07096
G1 X79.92 Y91.157 E0.13253
G1 X80.381 Y90.841 E0.15112
G1 X83.179 Y88.789 E0.26653
G1 X83.328 Y88.675 E0.27277
G1 X84.097 Y88.138 E0.30396
G1 X84.909 Y87.669 E0.33515
G1 X85.758 Y87.27 E0.36635
G1 X86.638 Y86.945 E0.39755
G1 X87.542 Y86.697 E0.42873
G1 X88.464 Y86.526 E0.45992
G1 X89.649 Y86.424 E0.49948
G1 X89.96 Y86.414 E0.50983
G1 X90.314 Y86.408 E0.52161
G1 X114.291 Y86.407 E1.31908
G1 X115.151 Y86.418 E1.34769
G1 X116.088 Y86.471 E1.3789
G1 X117.016 Y86.604 E1.41008
G1 X117.93 Y86.816 E1.44129
G1 X118.822 Y87.104 E1.47247
G1 X119.687 Y87.468 E1.50368
G1 X120.517 Y87.904 E1.53486
G1 X121.307 Y88.409 E1.56605
G1 X122.052 Y88.979 E1.59725
G1 X122.745 Y89.611 E1.62844
G1 X123.345 Y90.256 E1.65774
G1 X124.003 Y91.025 E1.69141
G1 X124.573 Y91.711 E1.72107
G1 X126.259 Y93.624 E1.80588
G1 X127.949 Y95.439 E1.88837
G1 X128.423 Y95.921 E1.91085
G1 X128.921 Y96.444 E1.93487
G1 X129.536 Y97.152 E1.96606
G1 X130.089 Y97.91 E1.99727
G1 X130.575 Y98.712 E2.02846
G1 X130.992 Y99.552 E2.05965
G1 X131.341 Y100.444 E2.09151
G1 X131.624 Y101.27 E2.12055
G1 X131.724 Y101.577 E2.13129
G1 X131.929 Y102.238 E2.15431
G1 X132.019 Y102.544 E2.16492
G1 X132.275 Y103.464 E2.19668
G1 X133.012 Y105.966 E2.28343
G1 X133.805 Y108.407 E2.36879
G1 X134.632 Y110.716 E2.45037
G1 X135.763 Y113.599 E2.55337
G1 X135.845 Y113.8 E2.56059
G1 X136.068 Y114.39 E2.58157
G1 X136.281 Y115.007 E2.60328
G1 X136.392 Y115.346 E2.61515
G1 X136.508 Y115.721 E2.6282
G1 X136.746 Y116.628 E2.65939
G1 X136.907 Y117.552 E2.69058
G1 X136.988 Y118.487 E2.7218
G1 X136.99 Y119.425 E2.753
G1 X136.911 Y120.359 E2.78417
G1 X136.753 Y121.284 E2.81538
G1 X136.515 Y122.199 E2.84683
G1 X136.291 Y122.929 E2.87223
G1 X136.174 Y123.29 E2.88485
G1 X136.046 Y123.661 E2.8979
G1 X135.702 Y124.533 E2.92908
G1 X135.286 Y125.374 E2.96029
G1 X134.799 Y126.175 E2.99147
G1 X134.246 Y126.933 E3.02267
G1 X133.63 Y127.64 E3.05386
G1 X132.957 Y128.293 E3.08505
G1 X132.23 Y128.886 E3.11626
G1 X131.455 Y129.414 E3.14745
G1 X130.62 Y129.885 E3.17933
G1 X129.819 Y130.291 E3.2092
G1 X129.49 Y130.451 E3.22137
G1 X128.951 Y130.702 E3.24114
G1 X128.084 Y131.061 E3.27235
G1 X127.191 Y131.345 E3.30352
G1 X126.276 Y131.552 E3.33472
G1 X125.372 Y131.678 E3.36508
G1 X124.677 Y131.746 E3.38831
G1 X122.13 Y132.029 E3.47354
G1 X119.607 Y132.382 E3.55828
G1 X116.516 Y132.913 E3.66259
G1 X115.586 Y133.033 E3.69378
G1 X114.829 Y133.071 E3.71899
G1 X114.197 Y133.081 E3.74001
G1 X113.867 Y133.081 E3.75098
G1 X113.514 Y133.076 E3.76273
G1 X110.91 Y133.076 E3.84934
G1 X108.425 Y133.147 E3.93202
G1 X105.935 Y133.289 E4.01497
G1 X104.398 Y133.43 E4.06631
G1 X104.015 Y133.449 E4.07906
G1 X102.933 Y133.542 E4.11518
G1 X102.299 Y133.579 E4.13631
G1 X101.98 Y133.588 E4.14692
G1 X101.67 Y133.592 E4.15723
G1 X90.545 Y133.591 E4.52725
G1 X89.864 Y133.581 E4.5499
G1 X88.928 Y133.527 E4.58109
G1 X88 Y133.394 E4.61227
G1 X87.086 Y133.182 E4.64347
G1 X86.194 Y132.893 E4.67466
G1 X85.33 Y132.529 E4.70584
G1 X84.499 Y132.093 E4.73706
G1 X83.709 Y131.587 E4.76826
G1 X82.965 Y131.017 E4.79943
G1 X82.272 Y130.385 E4.83063
G1 X81.636 Y129.696 E4.86181
G1 X81.06 Y128.955 E4.89303
G1 X80.55 Y128.168 E4.92422
G1 X80.288 Y127.698 E4.94212
G1 X80.257 Y127.639 E4.94434
G1 X79.857 Y126.791 E4.97552
G1 X79.53 Y125.912 E5.00671
G1 X79.314 Y125.154 E5.03293
G1 X78.675 Y122.56 E5.12178
G1 X77.992 Y120.09 E5.20702
G1 X77.265 Y117.722 E5.28941
G1 X76.461 Y115.346 E5.37284
G1 X75.583 Y112.975 E5.45693
G1 X74.628 Y110.601 E5.54204
G1 X74.031 Y109.221 E5.59205
G1 X73.878 Y108.852 E5.60533
G1 X73.683 Y108.328 E5.62393
G1 X73.38 Y107.447 E5.65492
G1 X73.273 Y107.12 E5.66636
G1 X73.071 Y106.467 E5.68909
G1 X72.833 Y105.56 E5.72028
G1 X72.672 Y104.636 E5.75148
G1 X72.591 Y103.701 E5.78269
G1 X72.589 Y102.764 E5.81386
G1 X72.668 Y101.829 E5.84507
G1 X72.826 Y100.904 E5.87628
G1 X73.064 Y99.989 E5.90772
G1 X73.327 Y99.132 E5.93754
G1 X73.434 Y98.801 E5.94911
G1 X73.648 Y98.175 E5.97111
G1 X73.989 Y97.301 E6.00232
G1 X74.403 Y96.46 E6.03349
G1 X74.888 Y95.656 E6.06472
G1 X75.439 Y94.897 E6.09592
G1 X76.052 Y94.188 E6.12709
G1 X76.724 Y93.534 E6.15828
G0 F6000 X77.067 Y93.765
G1 F1200 X77.681 Y93.265 E6.18462
G1 X78.377 Y92.741 E6.21359
G1 X78.638 Y92.551 E6.22433
G1 X80.146 Y91.487 E6.28572
G1 X80.609 Y91.17 E6.30438
G1 X83.436 Y89.096 E6.42099
G1 X83.571 Y88.993 E6.42664
G1 X84.326 Y88.466 E6.45727
G1 X85.124 Y88.008 E6.48787
G1 X85.959 Y87.62 E6.51849
G1 X86.824 Y87.306 E6.5491
G1 X87.714 Y87.068 E6.57974
G1 X88.621 Y86.909 E6.61037
G1 X89.662 Y86.823 E6.64511
G1 X89.973 Y86.813 E6.65546
G1 X90.314 Y86.808 E6.6668
G1 X114.291 Y86.807 E7.46428
G1 X115.146 Y86.818 E7.49272
G1 X116.065 Y86.871 E7.52334
G1 X116.976 Y87.004 E7.55396
G1 X117.872 Y87.215 E7.58457
G1 X118.746 Y87.503 E7.61518
G1 X119.592 Y87.866 E7.6458
G1 X120.404 Y88.301 E7.67644
G1 X121.174 Y88.805 E7.70705
G1 X121.898 Y89.373 E7.73765
G1 X122.57 Y90.003 E7.76829
G1 X123.041 Y90.517 E7.79148
G1 X123.695 Y91.281 E7.82493
G1 X124.264 Y91.966 E7.85455
G1 X125.933 Y93.859 E7.93848
G1 X127.691 Y95.747 E8.02429
G1 X128.272 Y96.34 E8.0519
G1 X128.631 Y96.719 E8.06926
G1 X129.234 Y97.415 E8.09989
G1 X129.775 Y98.16 E8.13051
G1 X130.249 Y98.949 E8.16113
G1 X130.653 Y99.776 E8.19174
G1 X130.963 Y100.573 E8.22018
G1 X131.246 Y101.399 E8.24922
G1 X131.342 Y101.695 E8.25957
G1 X131.547 Y102.356 E8.28259
G1 X131.634 Y102.651 E8.29282
G1 X131.904 Y103.619 E8.32625
G1 X132.63 Y106.087 E8.41181
G1 X133.414 Y108.498 E8.49613
G1 X134.267 Y110.882 E8.58035
G1 X135.392 Y113.749 E8.68278
G1 X135.475 Y113.952 E8.69008
G1 X135.69 Y114.521 E8.71031
G1 X135.903 Y115.138 E8.73202
G1 X136.01 Y115.465 E8.74346
G1 X136.126 Y115.84 E8.75652
G1 X136.359 Y116.73 E8.78712
G1 X136.515 Y117.637 E8.81773
G1 X136.591 Y118.555 E8.84836
G1 X136.587 Y119.476 E8.879
G1 X136.503 Y120.392 E8.90959
G1 X136.341 Y121.299 E8.94024
G1 X136.133 Y122.082 E8.96718
G1 X135.909 Y122.812 E8.99258
G1 X135.795 Y123.159 E9.00473
G1 X135.667 Y123.53 E9.01778
G1 X135.33 Y124.387 E9.04841
G1 X134.919 Y125.211 E9.07904
G1 X134.438 Y125.996 E9.10966
G1 X133.891 Y126.736 E9.14026
G1 X133.282 Y127.426 E9.17087
G1 X132.615 Y128.061 E9.2015
G1 X131.895 Y128.636 E9.23215
G1 X131.129 Y129.145 E9.26274
G1 X130.439 Y129.528 E9.28899
G1 X129.638 Y129.934 E9.31885
G1 X129.321 Y130.088 E9.33058
G1 X128.782 Y130.339 E9.35035
G1 X127.931 Y130.691 E9.38098
G1 X127.053 Y130.968 E9.4116
G1 X126.154 Y131.168 E9.44224
G1 X125.333 Y131.28 E9.4698
G1 X124.669 Y131.345 E9.49199
G1 X122.063 Y131.635 E9.5792
G1 X119.554 Y131.986 E9.66346
G1 X116.449 Y132.519 E9.76824
G1 X115.535 Y132.635 E9.79889
G1 X114.823 Y132.671 E9.8226
G1 X114.191 Y132.681 E9.84362
G1 X113.873 Y132.681 E9.8542
G1 X113.52 Y132.676 E9.86594
G1 X110.934 Y132.676 E9.95195
G1 X108.392 Y132.749 E10.03653
G1 X105.905 Y132.891 E10.11938
G1 X104.362 Y133.032 E10.17092
G1 X103.997 Y133.049 E10.18307
G1 X102.899 Y133.144 E10.21973
G1 X102.288 Y133.179 E10.24008
G1 X101.969 Y133.188 E10.2507
G1 X101.67 Y133.192 E10.26064
G1 X90.551 Y133.191 E10.63046
G1 X89.87 Y133.181 E10.65311
G1 X88.951 Y133.127 E10.68373
G1 X88.04 Y132.994 E10.71435
G1 X87.144 Y132.783 E10.74497
G1 X86.27 Y132.494 E10.77559
G1 X85.424 Y132.131 E10.80621
G1 X84.613 Y131.696 E10.83682
G1 X83.842 Y131.192 E10.86745
G1 X83.119 Y130.622 E10.89807
G1 X82.447 Y129.993 E10.92869
G1 X81.833 Y129.307 E10.95931
G1 X81.28 Y128.571 E10.98993
G1 X80.642 Y127.512 E11.03105
G1 X80.611 Y127.453 E11.03327
G1 X80.219 Y126.621 E11.06386
G1 X79.9 Y125.757 E11.09449
G1 X79.703 Y125.059 E11.11861
G1 X79.063 Y122.462 E11.20757
G1 X78.381 Y119.995 E11.2927
G1 X77.645 Y117.598 E11.3761
G1 X76.836 Y115.204 E11.46015
G1 X75.965 Y112.854 E11.54351
G1 X75 Y110.455 E11.62951
G1 X74.398 Y109.062 E11.67998
G1 X74.249 Y108.703 E11.69291
G1 X74.061 Y108.197 E11.71087
G1 X73.758 Y107.316 E11.74185
G1 X73.655 Y107.002 E11.75284
G1 X73.453 Y106.349 E11.77558
G1 X73.22 Y105.458 E11.80621
G1 X73.064 Y104.551 E11.83682
G1 X72.988 Y103.633 E11.86746
G1 X72.992 Y102.712 E11.89809
G1 X73.076 Y101.796 E11.92868
G1 X73.238 Y100.889 E11.95933
G1 X73.446 Y100.106 E11.98627
G1 X73.709 Y99.249 E12.01609
G1 X73.813 Y98.93 E12.02725
G1 X74.027 Y98.304 E12.04925
G1 X74.362 Y97.447 E12.07986
G1 X74.771 Y96.622 E12.11048
G1 X75.249 Y95.835 E12.14111
G1 X75.794 Y95.093 E12.17173
G1 X76.402 Y94.401 E12.20237
G1 X77.067 Y93.765 E12.23297
G0 F6000 X77.408 Y93.998
G1 F1200 X77.922 Y93.584 E12.25492
G1 X78.618 Y93.06 E12.2839
G1 X78.869 Y92.877 E12.29423
G1 X80.372 Y91.817 E12.3554
G1 X80.857 Y91.485 E12.37495
G1 X83.633 Y89.448 E12.48947
G1 X83.813 Y89.311 E12.497
G1 X84.555 Y88.795 E12.52706
G1 X85.339 Y88.347 E12.55709
G1 X86.159 Y87.97 E12.58711
G1 X87.01 Y87.667 E12.61715
G1 X87.884 Y87.44 E12.64719
G1 X88.775 Y87.292 E12.67723
G1 X89.675 Y87.223 E12.70725
G1 X89.986 Y87.213 E12.7176
G1 X90.314 Y87.208 E12.72851
G1 X114.291 Y87.207 E13.52599
G1 X115.14 Y87.218 E13.55423
G1 X116.041 Y87.271 E13.58425
G1 X116.935 Y87.403 E13.6143
G1 X117.813 Y87.614 E13.64434
G1 X118.669 Y87.902 E13.67438
G1 X119.496 Y88.264 E13.7044
G1 X120.288 Y88.698 E13.73444
G1 X121.039 Y89.2 E13.76448
G1 X121.742 Y89.767 E13.79452
G1 X122.392 Y90.394 E13.82456
G1 X122.738 Y90.777 E13.84173
G1 X123.388 Y91.537 E13.87499
G1 X123.958 Y92.223 E13.90466
G1 X125.657 Y94.151 E13.99013
G1 X127.393 Y96.015 E14.07485
G1 X127.852 Y96.482 E14.09663
G1 X128.34 Y96.995 E14.12018
G1 X128.932 Y97.677 E14.15021
G1 X129.46 Y98.409 E14.18023
G1 X129.922 Y99.185 E14.21027
G1 X130.314 Y99.999 E14.24032
G1 X130.584 Y100.703 E14.2654
G1 X130.867 Y101.529 E14.29444
G1 X130.96 Y101.814 E14.30441
G1 X131.165 Y102.475 E14.32743
G1 X131.249 Y102.759 E14.33728
G1 X131.509 Y103.694 E14.36956
G1 X132.253 Y106.219 E14.45711
G1 X133.043 Y108.65 E14.54212
G1 X133.883 Y110.997 E14.62504
G1 X135.029 Y113.92 E14.72946
G1 X135.105 Y114.104 E14.73608
G1 X135.312 Y114.652 E14.75556
G1 X135.525 Y115.269 E14.77727
G1 X135.627 Y115.583 E14.78826
G1 X135.743 Y115.958 E14.80131
G1 X135.972 Y116.831 E14.83133
G1 X136.122 Y117.722 E14.86138
G1 X136.193 Y118.622 E14.89141
G1 X136.184 Y119.525 E14.92144
G1 X136.095 Y120.424 E14.95149
G1 X135.927 Y121.311 E14.98152
G1 X135.75 Y121.964 E15.00402
G1 X135.526 Y122.694 E15.02942
G1 X135.417 Y123.029 E15.04113
G1 X135.289 Y123.4 E15.05419
G1 X134.957 Y124.24 E15.08423
G1 X134.552 Y125.047 E15.11426
G1 X134.077 Y125.815 E15.14429
G1 X133.536 Y126.538 E15.17433
G1 X132.934 Y127.211 E15.20436
G1 X132.274 Y127.827 E15.23439
G1 X131.562 Y128.383 E15.26443
G1 X130.804 Y128.874 E15.29447
G1 X130.258 Y129.171 E15.31515
G1 X129.457 Y129.577 E15.34501
G1 X129.152 Y129.726 E15.3563
G1 X128.613 Y129.977 E15.37608
G1 X127.778 Y130.321 E15.40612
G1 X126.916 Y130.591 E15.43616
G1 X126.034 Y130.783 E15.46618
G1 X125.294 Y130.882 E15.49101
G1 X124.591 Y130.95 E15.51451
G1 X122.035 Y131.235 E15.60005
G1 X119.492 Y131.591 E15.68545
G1 X116.381 Y132.125 E15.79044
G1 X115.485 Y132.238 E15.82047
G1 X114.816 Y132.271 E15.84275
G1 X114.184 Y132.281 E15.86377
G1 X113.879 Y132.281 E15.87392
G1 X113.526 Y132.276 E15.88566
G1 X110.922 Y132.276 E15.97227
G1 X108.358 Y132.349 E16.05758
G1 X105.874 Y132.491 E16.14034
G1 X104.325 Y132.633 E16.19207
G1 X103.965 Y132.65 E16.20406
G1 X102.864 Y132.745 E16.24082
G1 X102.277 Y132.779 E16.26037
G1 X101.958 Y132.788 E16.27099
G1 X101.67 Y132.792 E16.28057
G1 X90.557 Y132.791 E16.65019
G1 X89.876 Y132.781 E16.67284
G1 X88.975 Y132.728 E16.70286
G1 X88.081 Y132.595 E16.73292
G1 X87.203 Y132.384 E16.76295
G1 X86.347 Y132.096 E16.79299
G1 X85.52 Y131.733 E16.82303
G1 X84.729 Y131.298 E16.85306
G1 X83.978 Y130.796 E16.8831
G1 X83.276 Y130.229 E16.91311
G1 X82.626 Y129.602 E16.94315
G1 X82.034 Y128.919 E16.97321
G1 X81.504 Y128.188 E17.00325
G1 X80.997 Y127.326 E17.03651
G1 X80.966 Y127.267 E17.03872
G1 X80.581 Y126.45 E17.06876
G1 X80.271 Y125.602 E17.09879
G1 X80.091 Y124.963 E17.12087
G1 X79.439 Y122.318 E17.21148
G1 X78.776 Y119.918 E17.29429
G1 X78.02 Y117.458 E17.37989
G1 X77.214 Y115.074 E17.46359
G1 X76.329 Y112.683 E17.54839
G1 X75.387 Y110.343 E17.63229
G1 X74.765 Y108.904 E17.68443
G1 X74.621 Y108.553 E17.69705
G1 X74.44 Y108.067 E17.7143
G1 X74.137 Y107.186 E17.74528
G1 X74.038 Y106.883 E17.75589
G1 X73.836 Y106.23 E17.77862
G1 X73.607 Y105.357 E17.80864
G1 X73.457 Y104.466 E17.83869
G1 X73.386 Y103.566 E17.86872
G1 X73.395 Y102.663 E17.89875
G1 X73.484 Y101.764 E17.9288
G1 X73.652 Y100.877 E17.95883
G1 X73.829 Y100.224 E17.98133
G1 X74.092 Y99.367 E18.01114
G1 X74.191 Y99.06 E18.02187
G1 X74.405 Y98.434 E18.04388
G1 X74.735 Y97.593 E18.07393
G1 X75.138 Y96.784 E18.10399
G1 X75.61 Y96.015 E18.134
G1 X76.149 Y95.29 E18.16404
G1 X76.75 Y94.616 E18.19408
G1 X77.408 Y93.998 E18.2241
G0 F6000 X85.922 Y103.079
G1 F1200 X86.033 Y102.998 E18.22867
G1 X86.167 Y102.998 E18.23313
G1 X86.278 Y103.079 E18.2377
G1 X86.319 Y103.207 E18.24217
G1 X86.278 Y103.335 E18.24664
G1 X86.167 Y103.416 E18.25121
G1 X86.033 Y103.416 E18.25567
G1 X85.922 Y103.335 E18.26024
G1 X85.881 Y103.207 E18.26471
G1 X85.922 Y103.079 E18.26918
G0 F6000 X85.583 Y102.831
G1 F1200 X85.903 Y102.598 E18.28235
G1 X86.297 Y102.598 E18.29545
G1 X86.617 Y102.831 E18.30862
G1 X86.74 Y103.207 E18.32177
G1 X86.617 Y103.583 E18.33493
G1 X86.297 Y103.816 E18.3481
G1 X85.903 Y103.816 E18.3612
G1 X85.583 Y103.583 E18.37437
G1 X85.46 Y103.207 E18.38753
G1 X85.583 Y102.831 E18.40068
G0 F6000 X85.241 Y102.585
G1 F1200 X85.774 Y102.198 E18.42259
G1 X86.426 Y102.198 E18.44428
G1 X86.959 Y102.585 E18.46619
G1 X87.161 Y103.207 E18.48794
G1 X86.959 Y103.829 E18.50969
G1 X86.426 Y104.216 E18.5316
G1 X85.774 Y104.216 E18.55328
G1 X85.241 Y103.829 E18.57519
G1 X85.039 Y103.207 E18.59694
G1 X85.241 Y102.585 E18.61869
G0 F6000 X84.902 Y102.338
G1 F1200 X85.644 Y101.798 E18.64921
G1 X86.556 Y101.798 E18.67955
G1 X87.298 Y102.338 E18.71007
G1 X87.581 Y103.207 E18.74047
G1 X87.298 Y104.076 E18.77086
G1 X86.556 Y104.616 E18.80139
G1 X85.644 Y104.616 E18.83172
G1 X84.902 Y104.076 E18.86224
G1 X84.619 Y103.207 E18.89264
G1 X84.902 Y102.338 E18.92304
G0 F6000 X84.562 Y102.09
G1 F1200 X85.513 Y101.398 E18.96216
G1 X86.687 Y101.398 E19.0012
G1 X87.638 Y102.09 E19.04032
G1 X88.001 Y103.207 E19.07939
G1 X87.638 Y104.324 E19.11845
G1 X86.687 Y105.016 E19.15757
G1 X85.513 Y105.016 E19.19661
G1 X84.562 Y104.324 E19.23573
G1 X84.199 Y103.207 E19.2748
G1 X84.562 Y102.09 E19.31386
G0 F6000 X84.221 Y101.844
G1 F1200 X85.384 Y100.998 E19.36169
G1 X86.816 Y100.998 E19.40932
G1 X87.979 Y101.844 E19.45716
G1 X88.423 Y103.207 E19.50483
G1 X87.979 Y104.57 E19.55251
G1 X86.816 Y105.416 E19.60035
G1 X85.384 Y105.416 E19.64797
G1 X84.221 Y104.57 E19.69581
G1 X83.777 Y103.207 E19.74349
G1 X84.221 Y101.844 E19.79116
G1 F1500 E13.29116
G0 F6000 X89.339 Y122.749
G0 X89.843 Y123.253
G0 X102.157 Y123.253
G0 X102.661 Y122.749
G0 X103.726 Y109.444
G1 F1500 E19.79116
G1 F1200 X104.453 Y108.915 E19.82107
G1 X105.347 Y108.915 E19.8508
G1 X106.074 Y109.444 E19.88071
G1 X106.352 Y110.295 E19.91048
G1 X106.142 Y110.938 E19.93298
G1 X106.133 Y111.023 E19.93582
G1 X106.326 Y112.717 E19.99253
G1 X106.147 Y114.999 E20.06866
G1 X106.222 Y117.029 E20.13623
