;FLAVOR:Marlin
;TIME:5991
;Filament used: 4.71238m
;Layer height: 0.2
;MINX:92.5
;MINY:88.015
;MINZ:0.2
;MAXX:142.5
;MAXY:146.985
;MAXZ:40
;Generated with Cura_SteamEngine 4.9.0
M140 S50
M105
M190 S50
M104 S205
M105
M109 S205
M82 ;absolute extrusion mode
; Ender 3 Custom Start G-code
G92 E0 ; Reset Extruder
G28 ; Home all axes
G1 Z2.0 F3000 ; Move Z Axis up little to prevent scratching of Heat Bed
G1 X0.1 Y20 Z0.3 F5000.0 ; Move to start position
G1 X0.1 Y200.0 Z0.3 F1500.0 E15 ; Draw the first line
G1 X0.4 Y200.0 Z0.3 F5000.0 ; Move to side a little
G1 X0.4 Y20 Z0.3 F1500.0 E30 ; Draw the second line
G92 E0 ; Reset Extruder
G1 Z2.0 F3000 ; Move Z Axis up little to prevent scratching of Heat Bed
G1 X5 Y20 Z0.3 F5000.0 ; Move over to prevent blob squish
G92 E0
G92 E0
G1 F2700 E-5
;LAYER_COUNT:200
;LAYER:0
M107
G0 F6000 X95.927 Y97.045 Z0.2
;TYPE:SKIRT
G1 F2700 E0
G1 F1200 X96.71 Y96.301 E0.03592
G1 X97.482 Y95.592 E0.07079
G1 X98.137 Y95.009 E0.09995
G1 X98.849 Y94.429 E0.1305
G1 X99.178 Y94.186 E0.1441
G1 X99.566 Y93.91 E0.15994
G1 X100.731 Y93.1 E0.20713
G1 X101.465 Y92.607 E0.23654
G1 X102.232 Y92.138 E0.26644
G1 X102.578 Y91.949 E0.27955
G1 X103.046 Y91.704 E0.29712
G1 X104.373 Y91.028 E0.34666
G1 X105.041 Y90.699 E0.37142
G1 X105.904 Y90.319 E0.40279
G1 X106.275 Y90.177 E0.416
G1 X106.733 Y90.011 E0.4322
G1 X108.168 Y89.509 E0.48276
G1 X108.878 Y89.272 E0.50766
G1 X109.803 Y89.008 E0.53965
G1 X110.173 Y88.922 E0.55229
G1 X110.662 Y88.817 E0.56892
G1 X112.156 Y88.51 E0.61965
G1 X112.84 Y88.38 E0.64281
G1 X113.745 Y88.247 E0.67323
G1 X113.945 Y88.226 E0.67992
G1 X114.231 Y88.2 E0.68947
G1 X114.656 Y88.167 E0.70365
G1 X116.255 Y88.06 E0.75695
G1 X116.922 Y88.025 E0.77917
G1 X117.817 Y88.015 E0.80894
G1 X118.261 Y88.032 E0.82372
G1 X118.796 Y88.063 E0.84154
G1 X120.308 Y88.166 E0.89195
G1 X121.018 Y88.225 E0.91564
G1 X121.915 Y88.337 E0.94571
G1 X122.307 Y88.405 E0.95894
G1 X122.85 Y88.51 E0.97734
G1 X124.163 Y88.78 E1.02192
G1 X125.045 Y88.975 E1.05196
G1 X125.885 Y89.196 E1.08085
G1 X126.045 Y89.245 E1.08642
G1 X126.357 Y89.346 E1.09733
G1 X126.815 Y89.502 E1.11342
G1 X128.298 Y90.024 E1.16571
G1 X128.87 Y90.234 E1.18598
G1 X129.567 Y90.517 E1.211
G1 X129.746 Y90.597 E1.21752
G1 X130.155 Y90.79 E1.23256
G1 X130.627 Y91.026 E1.25011
G1 X131.964 Y91.711 E1.30008
G1 X132.595 Y92.046 E1.32384
G1 X133.413 Y92.527 E1.3554
G1 X133.776 Y92.764 E1.36982
G1 X134.128 Y93.004 E1.38399
G1 X135.44 Y93.916 E1.43713
G1 X135.992 Y94.313 E1.45975
G1 X136.666 Y94.839 E1.48818
G1 X136.801 Y94.953 E1.49406
G1 X137.046 Y95.166 E1.50486
G1 X137.386 Y95.471 E1.52005
G1 X138.537 Y96.53 E1.57207
G1 X139.034 Y96.999 E1.5948
G1 X139.688 Y97.671 E1.62599
G1 X140.282 Y98.396 E1.65716
G1 X140.812 Y99.17 E1.68836
G1 X141.275 Y99.986 E1.71957
G1 X141.667 Y100.838 E1.75076
G1 X141.984 Y101.72 E1.78193
G1 X142.225 Y102.627 E1.81315
G1 X142.388 Y103.55 E1.84432
G1 X142.482 Y104.8 E1.88601
G1 X142.5 Y105.883 E1.92204
G1 X142.499 Y129.451 E2.70591
G1 X142.489 Y130.145 E2.729
G1 X142.435 Y131.082 E2.76022
G1 X142.302 Y132.01 E2.7914
G1 X142.091 Y132.924 E2.8226
G1 X141.802 Y133.816 E2.85378
G1 X141.438 Y134.681 E2.885
G1 X141.002 Y135.511 E2.91618
G1 X140.497 Y136.301 E2.94736
G1 X139.927 Y137.046 E2.97856
G1 X139.073 Y137.955 E3.02005
G1 X138.29 Y138.699 E3.05597
G1 X137.518 Y139.408 E3.09083
G1 X136.872 Y139.983 E3.1196
G1 X136.189 Y140.542 E3.14895
G1 X135.822 Y140.814 E3.16415
G1 X135.429 Y141.093 E3.18018
G1 X134.118 Y142.002 E3.23324
G1 X133.556 Y142.379 E3.25574
G1 X132.81 Y142.838 E3.28488
G1 X132.433 Y143.045 E3.29918
G1 X131.957 Y143.294 E3.31705
G1 X130.626 Y143.973 E3.36675
G1 X129.958 Y144.302 E3.39151
G1 X129.057 Y144.697 E3.42423
G1 X128.725 Y144.823 E3.43604
G1 X128.267 Y144.989 E3.45225
G1 X126.832 Y145.491 E3.50281
G1 X126.122 Y145.728 E3.52771
G1 X125.197 Y145.992 E3.5597
G1 X124.827 Y146.078 E3.57234
G1 X124.338 Y146.183 E3.58897
G1 X122.844 Y146.49 E3.6397
G1 X122.16 Y146.62 E3.66286
G1 X121.255 Y146.753 E3.69328
G1 X121.055 Y146.774 E3.69997
G1 X120.769 Y146.8 E3.70952
G1 X120.344 Y146.833 E3.7237
G1 X118.745 Y146.94 E3.777
G1 X118.078 Y146.975 E3.79922
G1 X117.183 Y146.985 E3.82898
G1 X116.739 Y146.968 E3.84376
G1 X116.204 Y146.937 E3.86159
G1 X114.692 Y146.834 E3.91199
G1 X113.982 Y146.775 E3.93569
G1 X113.085 Y146.663 E3.96576
G1 X112.688 Y146.593 E3.97916
G1 X112.095 Y146.478 E3.99925
G1 X110.723 Y146.195 E4.04585
G1 X109.996 Y146.036 E4.0706
G1 X109.068 Y145.79 E4.10253
G1 X108.656 Y145.659 E4.11691
G1 X108.204 Y145.505 E4.13279
G1 X106.779 Y145.003 E4.18304
G1 X106.093 Y144.751 E4.20735
G1 X105.272 Y144.411 E4.23691
G1 X104.854 Y144.213 E4.25229
G1 X104.335 Y143.955 E4.27157
G1 X103.235 Y143.393 E4.31265
G1 X102.411 Y142.957 E4.34366
G1 X101.619 Y142.494 E4.37417
G1 X101.44 Y142.379 E4.38125
G1 X100.998 Y142.083 E4.39894
G1 X99.711 Y141.191 E4.45102
G1 X99.012 Y140.69 E4.47963
G1 X98.329 Y140.158 E4.50842
G1 X98.193 Y140.043 E4.51434
G1 X97.942 Y139.824 E4.52542
G1 X97.589 Y139.505 E4.54125
G1 X96.463 Y138.47 E4.59212
G1 X95.966 Y138.001 E4.61484
G1 X95.312 Y137.329 E4.64603
G1 X94.718 Y136.604 E4.67721
G1 X94.188 Y135.83 E4.70841
G1 X93.725 Y135.014 E4.73961
G1 X93.333 Y134.162 E4.7708
G1 X93.016 Y133.28 E4.80198
G1 X92.775 Y132.373 E4.83319
G1 X92.612 Y131.45 E4.86437
G1 X92.518 Y130.2 E4.90606
G1 X92.5 Y129.117 E4.94208
G1 X92.501 Y105.549 E5.72596
G1 X92.511 Y104.855 E5.74904
G1 X92.565 Y103.918 E5.78026
G1 X92.698 Y102.99 E5.81144
G1 X92.909 Y102.076 E5.84264
G1 X93.198 Y101.184 E5.87383
G1 X93.562 Y100.319 E5.90504
G1 X93.998 Y99.489 E5.93622
G1 X94.503 Y98.699 E5.96741
G1 X95.073 Y97.954 E5.99861
G1 X95.927 Y97.045 E6.04009
G0 F6000 X96.203 Y97.334
G1 F1200 X96.844 Y96.724 E6.06952
G1 X97.753 Y95.887 E6.11062
G1 X98.402 Y95.309 E6.13952
G1 X99.088 Y94.749 E6.16898
G1 X99.411 Y94.511 E6.18232
G1 X99.794 Y94.239 E6.19795
G1 X100.959 Y93.429 E6.24514
G1 X101.687 Y92.94 E6.27431
G1 X102.426 Y92.488 E6.30312
G1 X102.765 Y92.303 E6.31597
G1 X103.228 Y92.06 E6.33336
G1 X104.413 Y91.455 E6.37761
G1 X105.218 Y91.058 E6.40746
G1 X106.049 Y90.692 E6.43767
G1 X106.412 Y90.553 E6.45059
G1 X106.865 Y90.389 E6.46662
G1 X108.295 Y89.888 E6.51701
G1 X109.005 Y89.651 E6.54191
G1 X109.896 Y89.397 E6.57272
G1 X110.257 Y89.313 E6.58505
G1 X110.742 Y89.208 E6.60156
G1 X112.231 Y88.903 E6.65211
G1 X112.915 Y88.773 E6.67527
G1 X113.787 Y88.645 E6.70458
G1 X113.987 Y88.624 E6.71127
G1 X114.262 Y88.599 E6.72045
G1 X114.683 Y88.566 E6.7345
G1 X116.115 Y88.469 E6.78224
G1 X116.943 Y88.425 E6.80981
G1 X117.805 Y88.414 E6.83849
G1 X117.943 Y88.418 E6.84308
G1 X118.238 Y88.431 E6.8529
G1 X118.769 Y88.462 E6.87059
G1 X120.275 Y88.564 E6.9208
G1 X120.985 Y88.623 E6.94449
G1 X121.85 Y88.731 E6.97349
G1 X122.232 Y88.798 E6.98639
G1 X122.769 Y88.902 E7.00458
G1 X124.242 Y89.206 E7.0546
G1 X124.959 Y89.365 E7.07903
G1 X125.768 Y89.579 E7.10686
G1 X125.928 Y89.628 E7.11243
G1 X126.228 Y89.725 E7.12291
G1 X126.682 Y89.879 E7.13886
G1 X128.16 Y90.399 E7.19097
G1 X128.732 Y90.609 E7.21124
G1 X129.404 Y90.883 E7.23538
G1 X129.583 Y90.963 E7.2419
G1 X129.977 Y91.148 E7.25637
G1 X130.445 Y91.382 E7.27378
G1 X131.777 Y92.065 E7.32356
G1 X132.408 Y92.4 E7.34733
G1 X133.195 Y92.863 E7.37769
G1 X133.551 Y93.096 E7.39185
G1 X133.9 Y93.332 E7.40586
G1 X135.059 Y94.136 E7.45277
G1 X135.758 Y94.637 E7.48138
G1 X136.408 Y95.144 E7.5088
G1 X136.543 Y95.258 E7.51467
G1 X136.779 Y95.463 E7.52507
G1 X137.115 Y95.766 E7.54012
G1 X138.262 Y96.821 E7.59195
G1 X138.759 Y97.29 E7.61468
G1 X139.401 Y97.95 E7.6453
G1 X139.982 Y98.664 E7.67592
G1 X140.5 Y99.425 E7.70654
G1 X140.95 Y100.228 E7.73715
G1 X141.328 Y101.068 E7.76779
G1 X141.632 Y101.937 E7.79841
G1 X141.859 Y102.829 E7.82903
G1 X142.009 Y103.737 E7.85964
G1 X142.082 Y104.807 E7.89531
G1 X142.1 Y105.883 E7.9311
G1 X142.099 Y129.446 E8.71481
G1 X142.089 Y130.14 E8.73789
G1 X142.036 Y131.059 E8.76851
G1 X141.903 Y131.97 E8.79913
G1 X141.692 Y132.866 E8.82975
G1 X141.403 Y133.74 E8.86036
G1 X141.04 Y134.586 E8.89098
G1 X140.605 Y135.398 E8.92162
G1 X140.101 Y136.168 E8.95223
G1 X139.532 Y136.892 E8.98286
G1 X138.797 Y137.666 E9.01836
G1 X138.156 Y138.276 E9.04779
G1 X137.247 Y139.113 E9.08889
G1 X136.606 Y139.684 E9.11744
G1 X135.949 Y140.222 E9.14568
G1 X135.589 Y140.489 E9.16059
G1 X135.201 Y140.765 E9.17643
G1 X133.895 Y141.67 E9.22927
G1 X133.333 Y142.047 E9.25178
G1 X132.614 Y142.489 E9.27985
G1 X132.246 Y142.691 E9.29382
G1 X131.775 Y142.938 E9.31151
G1 X130.449 Y143.614 E9.36101
G1 X129.781 Y143.943 E9.38578
G1 X128.913 Y144.324 E9.4173
G1 X128.588 Y144.447 E9.42886
G1 X128.135 Y144.611 E9.44489
G1 X126.705 Y145.112 E9.49528
G1 X125.995 Y145.349 E9.52018
G1 X125.104 Y145.603 E9.55099
G1 X124.743 Y145.687 E9.56332
G1 X124.258 Y145.792 E9.57983
G1 X122.769 Y146.097 E9.63038
G1 X122.085 Y146.227 E9.65354
G1 X121.213 Y146.355 E9.68285
G1 X121.013 Y146.376 E9.68954
G1 X120.738 Y146.401 E9.69872
G1 X120.317 Y146.434 E9.71277
G1 X118.885 Y146.531 E9.76051
G1 X118.057 Y146.575 E9.78808
G1 X117.195 Y146.586 E9.81676
G1 X117.057 Y146.582 E9.82135
G1 X116.762 Y146.569 E9.83117
G1 X116.231 Y146.538 E9.84886
G1 X114.725 Y146.436 E9.89906
G1 X114.015 Y146.377 E9.92276
G1 X113.15 Y146.269 E9.95175
G1 X112.764 Y146.201 E9.96479
G1 X112.175 Y146.086 E9.98475
G1 X110.808 Y145.804 E10.03117
G1 X110.081 Y145.645 E10.05593
G1 X109.188 Y145.409 E10.08665
G1 X108.784 Y145.28 E10.10075
G1 X108.336 Y145.128 E10.11649
G1 X106.917 Y144.628 E10.16653
G1 X106.231 Y144.376 E10.19083
G1 X105.439 Y144.048 E10.21935
G1 X105.307 Y143.987 E10.22418
G1 X105.032 Y143.855 E10.23433
G1 X104.517 Y143.598 E10.25347
G1 X103.273 Y142.961 E10.29996
G1 X102.598 Y142.603 E10.32537
G1 X101.835 Y142.157 E10.35476
G1 X101.442 Y141.901 E10.37036
G1 X101.122 Y141.683 E10.38324
G1 X99.797 Y140.762 E10.43691
G1 X99.246 Y140.366 E10.45948
G1 X98.588 Y139.852 E10.48725
G1 X98.452 Y139.737 E10.49318
G1 X98.21 Y139.526 E10.50385
G1 X97.859 Y139.21 E10.51956
G1 X96.738 Y138.179 E10.57022
G1 X96.241 Y137.71 E10.59295
G1 X95.599 Y137.05 E10.62357
G1 X95.018 Y136.336 E10.65419
G1 X94.5 Y135.575 E10.68481
G1 X94.05 Y134.772 E10.71542
G1 X93.672 Y133.932 E10.74606
G1 X93.368 Y133.063 E10.77668
G1 X93.141 Y132.171 E10.80729
G1 X92.991 Y131.263 E10.8379
G1 X92.918 Y130.193 E10.87357
G1 X92.9 Y129.117 E10.90937
G1 X92.901 Y105.554 E11.69308
G1 X92.911 Y104.86 E11.71616
G1 X92.964 Y103.941 E11.74678
G1 X93.097 Y103.03 E11.7774
G1 X93.308 Y102.134 E11.80801
G1 X93.597 Y101.26 E11.83863
G1 X93.96 Y100.414 E11.86925
G1 X94.395 Y99.602 E11.89989
G1 X94.899 Y98.832 E11.9305
G1 X95.468 Y98.108 E11.96112
G1 X96.203 Y97.334 E11.99663
G0 F6000 X96.478 Y97.624
G1 F1200 X97.119 Y97.014 E12.02606
G1 X98.024 Y96.181 E12.06697
G1 X98.668 Y95.608 E12.09564
G1 X99.328 Y95.07 E12.12396
G1 X99.643 Y94.837 E12.13699
G1 X100.022 Y94.567 E12.15247
G1 X101.187 Y93.757 E12.19966
G1 X101.909 Y93.272 E12.22859
G1 X102.621 Y92.837 E12.25634
G1 X102.951 Y92.657 E12.26884
G1 X103.41 Y92.416 E12.28609
G1 X104.595 Y91.811 E12.33034
G1 X105.394 Y91.417 E12.35997
G1 X106.194 Y91.064 E12.38905
G1 X106.549 Y90.929 E12.40168
G1 X106.997 Y90.766 E12.41754
G1 X108.421 Y90.268 E12.46772
G1 X109.131 Y90.031 E12.49261
G1 X109.989 Y89.786 E12.52229
G1 X110.342 Y89.704 E12.53434
G1 X110.823 Y89.6 E12.55071
G1 X112.305 Y89.296 E12.60103
G1 X112.989 Y89.166 E12.62419
G1 X113.829 Y89.043 E12.65242
G1 X114.294 Y88.997 E12.66796
G1 X114.71 Y88.965 E12.68184
G1 X116.297 Y88.859 E12.73474
G1 X116.964 Y88.824 E12.75696
G1 X117.794 Y88.814 E12.78457
G1 X118.215 Y88.83 E12.79858
G1 X118.742 Y88.861 E12.81614
G1 X120.242 Y88.963 E12.86614
G1 X120.952 Y89.022 E12.88984
G1 X121.784 Y89.126 E12.91773
G1 X122.156 Y89.191 E12.93029
G1 X122.688 Y89.294 E12.94831
G1 X124.155 Y89.597 E12.99813
G1 X124.872 Y89.756 E13.02256
G1 X125.651 Y89.961 E13.04935
G1 X125.811 Y90.01 E13.05492
G1 X126.1 Y90.103 E13.06501
G1 X126.549 Y90.256 E13.08079
G1 X128.022 Y90.775 E13.13273
G1 X128.594 Y90.985 E13.153
G1 X129.241 Y91.248 E13.17623
G1 X129.42 Y91.328 E13.18275
G1 X129.799 Y91.507 E13.19669
G1 X130.263 Y91.738 E13.21393
G1 X131.589 Y92.418 E13.2635
G1 X132.22 Y92.753 E13.28726
G1 X132.978 Y93.198 E13.31649
G1 X133.327 Y93.427 E13.33038
G1 X133.672 Y93.661 E13.34424
G1 X134.973 Y94.565 E13.39693
G1 X135.525 Y94.962 E13.41955
G1 X136.15 Y95.45 E13.44592
G1 X136.285 Y95.564 E13.4518
G1 X136.512 Y95.761 E13.46179
G1 X136.845 Y96.061 E13.4767
G1 X137.887 Y97.018 E13.52376
G1 X138.484 Y97.581 E13.55105
G1 X139.113 Y98.229 E13.58109
G1 X139.682 Y98.93 E13.61112
G1 X140.187 Y99.679 E13.64116
G1 X140.623 Y100.47 E13.6712
G1 X140.988 Y101.296 E13.70124
G1 X141.278 Y102.151 E13.73127
G1 X141.492 Y103.029 E13.76132
G1 X141.627 Y103.922 E13.79136
G1 X141.682 Y104.814 E13.82109
G1 X141.7 Y105.883 E13.85665
G1 X141.699 Y129.44 E14.64016
G1 X141.689 Y130.134 E14.66324
G1 X141.636 Y131.036 E14.69329
G1 X141.503 Y131.929 E14.72332
G1 X141.292 Y132.807 E14.75336
G1 X141.005 Y133.663 E14.78338
G1 X140.642 Y134.49 E14.81342
G1 X140.208 Y135.282 E14.84346
G1 X139.705 Y136.032 E14.8735
G1 X139.138 Y136.735 E14.90354
G1 X138.522 Y137.376 E14.93311
G1 X137.881 Y137.986 E14.96254
G1 X136.976 Y138.819 E15.00345
G1 X136.341 Y139.385 E15.03174
G1 X135.708 Y139.903 E15.05894
G1 X135.57 Y140.007 E15.06469
G1 X135.357 Y140.163 E15.07347
G1 X134.973 Y140.436 E15.08914
G1 X133.672 Y141.338 E15.1418
G1 X133.11 Y141.715 E15.1643
G1 X132.418 Y142.14 E15.19131
G1 X132.06 Y142.337 E15.20491
G1 X131.593 Y142.582 E15.22245
G1 X130.273 Y143.255 E15.27173
G1 X129.605 Y143.584 E15.29649
G1 X128.769 Y143.951 E15.32686
G1 X128.451 Y144.071 E15.33816
G1 X128.003 Y144.234 E15.35402
G1 X126.579 Y144.732 E15.4042
G1 X125.869 Y144.969 E15.42909
G1 X125.011 Y145.214 E15.45877
G1 X124.658 Y145.296 E15.47082
G1 X124.177 Y145.4 E15.48719
G1 X122.695 Y145.704 E15.53751
G1 X122.011 Y145.834 E15.56066
G1 X121.171 Y145.957 E15.5889
G1 X120.706 Y146.003 E15.60444
G1 X120.29 Y146.035 E15.61832
G1 X118.703 Y146.141 E15.67122
G1 X118.036 Y146.176 E15.69344
G1 X117.206 Y146.186 E15.72104
G1 X116.785 Y146.17 E15.73506
G1 X116.258 Y146.139 E15.75262
G1 X114.758 Y146.037 E15.80262
G1 X114.048 Y145.978 E15.82632
G1 X113.216 Y145.874 E15.8542
G1 X112.84 Y145.808 E15.8669
G1 X112.256 Y145.694 E15.88669
G1 X110.894 Y145.413 E15.93295
G1 X110.167 Y145.254 E15.9577
G1 X109.307 Y145.027 E15.98728
G1 X108.912 Y144.901 E16.00107
G1 X108.469 Y144.75 E16.01664
G1 X107.055 Y144.252 E16.0665
G1 X106.369 Y144 E16.09081
G1 X105.607 Y143.685 E16.11823
G1 X105.21 Y143.497 E16.13284
G1 X104.699 Y143.242 E16.15184
G1 X103.461 Y142.608 E16.1981
G1 X102.786 Y142.25 E16.22351
G1 X102.052 Y141.821 E16.25179
G1 X101.666 Y141.569 E16.26712
G1 X101.35 Y141.355 E16.27981
G1 X100.167 Y140.534 E16.32771
G1 X99.479 Y140.041 E16.35586
G1 X98.846 Y139.547 E16.38256
G1 X98.71 Y139.432 E16.38849
G1 X98.477 Y139.229 E16.39877
G1 X98.13 Y138.916 E16.41431
G1 X97.114 Y137.983 E16.46019
G1 X96.516 Y137.419 E16.48753
G1 X95.887 Y136.771 E16.51756
G1 X95.318 Y136.07 E16.54759
G1 X94.813 Y135.321 E16.57764
G1 X94.377 Y134.53 E16.60768
G1 X94.012 Y133.704 E16.63772
G1 X93.722 Y132.849 E16.66774
G1 X93.508 Y131.971 E16.6978
G1 X93.373 Y131.078 E16.72784
G1 X93.318 Y130.186 E16.75756
G1 X93.3 Y129.117 E16.79312
G1 X93.301 Y105.56 E17.57663
G1 X93.311 Y104.866 E17.59972
G1 X93.364 Y103.964 E17.62977
G1 X93.497 Y103.071 E17.6598
G1 X93.708 Y102.193 E17.68983
G1 X93.995 Y101.337 E17.71986
G1 X94.358 Y100.51 E17.7499
G1 X94.792 Y99.718 E17.77994
G1 X95.295 Y98.968 E17.80997
G1 X95.862 Y98.265 E17.84001
G1 X96.478 Y97.624 E17.86958
G1 F2700 E12.86958
;MESH:trumpet-mouthpiece-holder.stl
G0 F6000 X113.169 Y107
G0 X111.704 Y107
G0 X112.682 Y109.53
G0 X113.426 Y110.61
G0 X114.41 Y111.479
G0 X115.349 Y111.972
G0 X116.824 Y112.564
;TYPE:WALL-INNER
G1 F2700 E17.86958
G1 F1200 X118.176 Y112.564 E17.91455
G1 X119.487 Y112.24 E17.95947
G1 X120.683 Y111.613 E18.00438
G1 X121.696 Y110.717 E18.04936
G1 X122.462 Y109.605 E18.09427
G1 X122.942 Y108.341 E18.13924
G1 X123.104 Y107 E18.18417
G1 X122.942 Y105.659 E18.22909
G1 X122.462 Y104.395 E18.27406
