;FLAVOR:Marlin
;TIME:7028
;Filament used: 8.61843m
;Layer height: 0.28
;MINX:26.091
;MINY:29
;MINZ:0.28
;MAXX:193.91
;MAXY:191
;MAXZ:5.04
;TARGET_MACHINE.NAME:Creality Ender-3 Pro
;Generated with Cura_SteamEngine 5.6.0
M82 ;absolute extrusion mode
; Ender 3 Custom Start G-code
G92 E0 ; Reset Extruder
G28 ; Home all axes
G1 Z5.0 F3000 ; Move Z Axis up a bit during heating to not damage bed
M104 S175 ; Start heating up the nozzle most of the way
M190 S60 ; Start heating the bed, wait until target temperature reached
M109 S200 ; Finish heating the nozzle
G1 Z2.0 F3000 ; Move Z Axis up little to prevent scratching of Heat Bed
G1 X0.1 Y20 Z0.3 F5000.0 ; Move to start position
G1 X0.1 Y200.0 Z0.3 F1500.0 E15 ; Draw the first line
G1 X0.4 Y200.0 Z0.3 F5000.0 ; Move to side a little
G1 X0.4 Y20 Z0.3 F1500.0 E30 ; Draw the second line
G92 E0 ; Reset Extruder
G1 Z2.0 F3000 ; Move Z Axis up little to prevent scratching of Heat Bed
G1 X5 Y20 Z0.3 F5000.0 ; Move over to prevent blob squish
G92 E0
G92 E0
G1 F1500 E-6.5
;LAYER_COUNT:18
;LAYER:0
M107
G0 F6000 X32.753 Y34.658 Z0.28
;TYPE:SKIRT
G1 F1500 E0
G1 F1200 X33.501 Y33.993 E0.0466
G1 X34.181 Y33.443 E0.08733
G1 X34.626 Y33.104 E0.11338
G1 X35.083 Y32.776 E0.13957
G1 X35.506 Y32.489 E0.16337
G1 X35.981 Y32.184 E0.18966
G1 X36.845 Y31.674 E0.23638
G1 X37.297 Y31.428 E0.26034
G1 X37.773 Y31.184 E0.28525
G1 X38.226 Y30.967 E0.30863
G1 X38.92 Y30.665 E0.34388
G1 X39.862 Y30.294 E0.39102
G1 X40.605 Y30.032 E0.4277
G1 X41.102 Y29.878 E0.45193
G1 X42.059 Y29.618 E0.49811
G1 X43.059 Y29.399 E0.54578
G1 X43.938 Y29.247 E0.58731
G1 X44.475 Y29.178 E0.61253
G1 X45.376 Y29.084 E0.65471
G1 X45.903 Y29.042 E0.67932
G1 X46.631 Y29.013 E0.71325
G1 X47.713 Y29 E0.76364
G1 X172.32 Y29 E6.56586
G1 X173.288 Y29.012 E6.61094
G1 X173.936 Y29.035 E6.64113
G1 X174.66 Y29.088 E6.67493
G1 X175.74 Y29.205 E6.72552
G1 X176.537 Y29.323 E6.76303
G1 X177.527 Y29.522 E6.81005
G1 X178.117 Y29.662 E6.83829
G1 X178.789 Y29.846 E6.87073
G1 X179.312 Y30.007 E6.89621
G1 X179.992 Y30.238 E6.92965
G1 X180.47 Y30.417 E6.95342
G1 X181.103 Y30.673 E6.98522
G1 X181.905 Y31.03 E7.02609
G1 X182.382 Y31.263 E7.05081
G1 X182.861 Y31.513 E7.07597
G1 X183.742 Y32.015 E7.12319
G1 X184.629 Y32.578 E7.17211
G1 X185.272 Y33.033 E7.20878
G1 X186.039 Y33.619 E7.25373
G1 X186.626 Y34.1 E7.28907
G1 X187.414 Y34.815 E7.33861
G1 X187.791 Y35.185 E7.36321
G1 X188.447 Y35.875 E7.40754
G1 X188.795 Y36.267 E7.43195
G1 X189.129 Y36.663 E7.45607
G1 X189.484 Y37.106 E7.48251
G1 X189.803 Y37.529 E7.50718
G1 X190.353 Y38.309 E7.55162
G1 X190.912 Y39.19 E7.6002
G1 X191.176 Y39.642 E7.62458
G1 X191.429 Y40.101 E7.64898
G1 X191.881 Y40.999 E7.69579
G1 X192.104 Y41.484 E7.72065
G1 X192.48 Y42.387 E7.7662
G1 X192.665 Y42.876 E7.79054
G1 X192.849 Y43.409 E7.8168
G1 X192.998 Y43.877 E7.83967
G1 X193.148 Y44.393 E7.86469
G1 X193.381 Y45.32 E7.9092
G1 X193.497 Y45.857 E7.93478
G1 X193.598 Y46.389 E7.95999
G1 X193.676 Y46.872 E7.98278
G1 X193.807 Y47.919 E8.03191
G1 X193.885 Y48.983 E8.08159
G1 X193.91 Y49.974 E8.12775
G1 X193.886 Y50.993 E8.17521
G1 X193.826 Y51.891 E8.21712
G1 X193.774 Y52.388 E8.24038
G1 X193.636 Y53.467 E8.29104
G1 X176.619 Y172.585 E13.89398
G1 X176.444 Y173.649 E13.94419
G1 X176.347 Y174.159 E13.96837
G1 X176.225 Y174.722 E13.99519
G1 X176.073 Y175.341 E14.02487
G1 X175.899 Y175.967 E14.05512
G1 X175.717 Y176.556 E14.08383
G1 X175.385 Y177.49 E14.12999
G1 X175.197 Y177.965 E14.15377
G1 X174.983 Y178.463 E14.17901
G1 X174.549 Y179.392 E14.22676
G1 X174.343 Y179.796 E14.24788
G1 X174.054 Y180.322 E14.27582
G1 X173.522 Y181.214 E14.32418
G1 X173.221 Y181.676 E14.34986
G1 X172.874 Y182.179 E14.37831
G1 X172.322 Y182.916 E14.42119
G1 X172.013 Y183.302 E14.44421
G1 X171.656 Y183.727 E14.47006
G1 X170.971 Y184.482 E14.51753
G1 X170.572 Y184.89 E14.5441
G1 X170.129 Y185.317 E14.57275
G1 X169.716 Y185.693 E14.59876
G1 X169.081 Y186.235 E14.63763
G1 X168.284 Y186.856 E14.68468
G1 X167.858 Y187.164 E14.70916
G1 X167.01 Y187.731 E14.75666
G1 X166.609 Y187.979 E14.77861
G1 X166.119 Y188.266 E14.80505
G1 X165.229 Y188.742 E14.85205
G1 X164.776 Y188.965 E14.87556
G1 X164.248 Y189.206 E14.90259
G1 X163.307 Y189.594 E14.94998
G1 X162.367 Y189.931 E14.99648
G1 X161.834 Y190.099 E15.0225
G1 X160.853 Y190.368 E15.06987
G1 X160.318 Y190.493 E15.09545
G1 X159.326 Y190.69 E15.14255
G1 X158.312 Y190.838 E15.19026
G1 X157.763 Y190.897 E15.21597
G1 X157.222 Y190.941 E15.24125
G1 X156.172 Y190.989 E15.29019
G1 X155.192 Y191 E15.33583
G1 X144.963 Y190.999 E15.81213
G1 X143.77 Y190.979 E15.86769
G1 X142.839 Y190.929 E15.91111
G1 X142.315 Y190.882 E15.9356
G1 X141.782 Y190.822 E15.96058
G1 X141.092 Y190.718 E15.99307
G1 X140.439 Y190.602 E16.02395
G1 X139.702 Y190.445 E16.05904
G1 X136.417 Y189.624 E16.21671
G1 X133.952 Y189.079 E16.33426
G1 X131.433 Y188.595 E16.4537
G1 X128.949 Y188.192 E16.57088
G1 X126.498 Y187.865 E16.68602
G1 X123.979 Y187.6 E16.80396
G1 X121.481 Y187.41 E16.92062
G1 X118.952 Y187.288 E17.03851
G1 X116.45 Y187.239 E17.15504
G1 X113.917 Y187.261 E17.27299
G1 X111.385 Y187.354 E17.39097
G1 X108.882 Y187.517 E17.50777
G1 X106.426 Y187.747 E17.62263
G1 X103.862 Y188.06 E17.74291
G1 X101.418 Y188.431 E17.85801
G1 X98.939 Y188.878 E17.97531
G1 X96.492 Y189.39 E18.09172
G1 X93.34 Y190.155 E18.24275
G1 X92.498 Y190.374 E18.28326
G1 X91.498 Y190.596 E18.33096
G1 X90.474 Y190.771 E18.37933
G1 X89.949 Y190.843 E18.40401
G1 X89.461 Y190.896 E18.42686
G1 X88.907 Y190.941 E18.45274
G1 X87.884 Y190.988 E18.50043
G1 X86.872 Y191 E18.54756
G1 X75.784 Y190.999 E19.06386
G1 X74.735 Y190.983 E19.11271
G1 X74.211 Y190.96 E19.13714
G1 X73.592 Y190.915 E19.16603
G1 X72.889 Y190.844 E19.19894
G1 X72.352 Y190.776 E19.22414
G1 X71.72 Y190.672 E19.25396
G1 X71.203 Y190.574 E19.27847
G1 X70.671 Y190.46 E19.3038
G1 X70.162 Y190.335 E19.32821
G1 X69.643 Y190.195 E19.35324
G1 X68.664 Y189.893 E19.40094
G1 X68.203 Y189.732 E19.42368
G1 X67.222 Y189.347 E19.47275
G1 X66.734 Y189.134 E19.49755
G1 X65.799 Y188.684 E19.54586
G1 X65.339 Y188.442 E19.57007
G1 X64.843 Y188.162 E19.59659
G1 X63.969 Y187.627 E19.6443
G1 X63.553 Y187.351 E19.66755
G1 X63.083 Y187.022 E19.69426
G1 X62.205 Y186.353 E19.74566
G1 X61.802 Y186.021 E19.76998
G1 X61.358 Y185.637 E19.79731
G1 X61.015 Y185.321 E19.81903
G1 X60.331 Y184.647 E19.86374
G1 X59.656 Y183.921 E19.9099
G1 X59.294 Y183.501 E19.93572
G1 X58.953 Y183.086 E19.96073
G1 X58.631 Y182.672 E19.98515
G1 X58.058 Y181.874 E20.0309
G1 X57.773 Y181.449 E20.05473
G1 X57.485 Y180.993 E20.07984
G1 X57.203 Y180.522 E20.1054
G1 X56.732 Y179.662 E20.15106
G1 X56.495 Y179.193 E20.17553
G1 X56.259 Y178.691 E20.20136
G1 X55.862 Y177.756 E20.24866
G1 X55.671 Y177.26 E20.27341
G1 X55.494 Y176.759 E20.29815
G1 X55.329 Y176.252 E20.32297
G1 X55.045 Y175.263 E20.37089
G1 X54.782 Y174.201 E20.42183
G1 X26.726 Y55.178 E26.11593
G1 X26.533 Y54.29 E26.15825
G1 X26.433 Y53.783 E26.18231
G1 X26.34 Y53.238 E26.20805
G1 X26.207 Y52.221 E26.25581
G1 X26.123 Y51.188 E26.30407
G1 X26.091 Y50.214 E26.34945
G1 X26.092 Y49.688 E26.37394
G1 X26.107 Y49.159 E26.39859
G1 X26.169 Y48.185 E26.44403
G1 X26.219 Y47.676 E26.46785
G1 X26.285 Y47.139 E26.49304
G1 X26.362 Y46.632 E26.51692
G1 X26.455 Y46.109 E26.54165
G1 X26.669 Y45.102 E26.58959
G1 X26.916 Y44.169 E26.63453
G1 X27.07 Y43.662 E26.65921
G1 X27.395 Y42.713 E26.70591
G1 X27.582 Y42.224 E26.73029
G1 X27.786 Y41.731 E26.75514
G1 X28.002 Y41.243 E26.77999
G1 X28.424 Y40.377 E26.82484
G1 X28.667 Y39.92 E26.84894
G1 X28.936 Y39.444 E26.8744
G1 X29.459 Y38.594 E26.92088
G1 X30.055 Y37.722 E26.97006
G1 X30.634 Y36.955 E27.01481
G1 X30.96 Y36.553 E27.03891
G1 X31.486 Y35.953 E27.07606
G1 X32.205 Y35.197 E27.12464
G1 X32.753 Y34.658 E27.16043
G0 F6000 X33.019 Y34.957
G1 F1200 X33.753 Y34.304 E27.20618
G1 X34.424 Y33.761 E27.24637
G1 X34.859 Y33.429 E27.27185
G1 X35.307 Y33.107 E27.29754
G1 X35.723 Y32.825 E27.32095
G1 X36.184 Y32.528 E27.34648
G1 X37.036 Y32.025 E27.39255
G1 X37.479 Y31.784 E27.41603
G1 X37.946 Y31.545 E27.44046
G1 X38.386 Y31.334 E27.46318
G1 X39.067 Y31.037 E27.49778
G1 X39.995 Y30.671 E27.54423
G1 X40.724 Y30.414 E27.58022
G1 X41.207 Y30.264 E27.60377
G1 X42.145 Y30.009 E27.64904
G1 X43.127 Y29.793 E27.69585
G1 X43.989 Y29.644 E27.73659
G1 X44.516 Y29.576 E27.76133
G1 X45.408 Y29.483 E27.80309
G1 X45.919 Y29.442 E27.82696
G1 X46.636 Y29.413 E27.86038
G1 X47.718 Y29.4 E27.91076
G1 X172.315 Y29.4 E33.71252
G1 X173.274 Y29.412 E33.75718
G1 X173.907 Y29.434 E33.78667
G1 X174.617 Y29.486 E33.81982
G1 X175.681 Y29.601 E33.86965
G1 X176.478 Y29.719 E33.90717
G1 X177.435 Y29.911 E33.95262
G1 X178.012 Y30.048 E33.98023
G1 X178.671 Y30.228 E34.01204
G1 X179.184 Y30.386 E34.03704
G1 X179.851 Y30.612 E34.06983
G1 X180.32 Y30.788 E34.09316
G1 X180.941 Y31.039 E34.12435
G1 X181.729 Y31.389 E34.1645
G1 X182.197 Y31.618 E34.18876
G1 X182.663 Y31.861 E34.21323
G1 X183.528 Y32.353 E34.25957
G1 X184.398 Y32.905 E34.30754
G1 X185.029 Y33.351 E34.34352
G1 X185.785 Y33.928 E34.38781
G1 X186.361 Y34.4 E34.42248
G1 X186.734 Y34.73 E34.44567
G1 X187.134 Y35.101 E34.47108
G1 X187.501 Y35.461 E34.49502
G1 X188.148 Y36.141 E34.53872
G1 X188.489 Y36.525 E34.56263
G1 X188.817 Y36.914 E34.58633
G1 X189.165 Y37.347 E34.61219
G1 X189.476 Y37.759 E34.63623
G1 X190.018 Y38.528 E34.68004
G1 X190.303 Y38.965 E34.70433
G1 X190.567 Y39.392 E34.72771
G1 X190.826 Y39.835 E34.7516
G1 X191.072 Y40.281 E34.77532
G1 X191.518 Y41.166 E34.82147
G1 X191.735 Y41.638 E34.84566
G1 X192.106 Y42.528 E34.89056
G1 X192.287 Y43.007 E34.9144
G1 X192.468 Y43.53 E34.94017
G1 X192.614 Y43.989 E34.9626
G1 X192.76 Y44.491 E34.98694
G1 X192.99 Y45.404 E35.03078
G1 X193.104 Y45.932 E35.05594
G1 X193.203 Y46.453 E35.08063
G1 X193.279 Y46.922 E35.10275
G1 X193.408 Y47.948 E35.1509
G1 X193.485 Y48.993 E35.1997
G1 X193.51 Y49.965 E35.24497
G1 X193.487 Y50.966 E35.29159
G1 X193.428 Y51.849 E35.3328
G1 X193.377 Y52.337 E35.35565
G1 X193.24 Y53.41 E35.40602
G1 X176.224 Y172.52 E41.00859
G1 X176.051 Y173.574 E41.05832
G1 X175.956 Y174.075 E41.08207
G1 X175.837 Y174.627 E41.10836
G1 X175.688 Y175.234 E41.13747
G1 X175.517 Y175.849 E41.16719
G1 X175.34 Y176.422 E41.19511
G1 X175.013 Y177.343 E41.24062
G1 X174.829 Y177.808 E41.26391
G1 X174.621 Y178.294 E41.28852
G1 X174.193 Y179.21 E41.3356
G1 X173.992 Y179.604 E41.3562
G1 X173.711 Y180.117 E41.38344
G1 X173.186 Y180.996 E41.43111
G1 X172.892 Y181.449 E41.45626
G1 X172.554 Y181.939 E41.48398
G1 X172.01 Y182.666 E41.52626
G1 X171.707 Y183.045 E41.54885
G1 X171.36 Y183.458 E41.57397
G1 X170.685 Y184.202 E41.62074
G1 X170.294 Y184.602 E41.64679
G1 X169.86 Y185.021 E41.67488
G1 X169.456 Y185.389 E41.70033
G1 X168.835 Y185.92 E41.73837
G1 X168.05 Y186.532 E41.78472
G1 X167.635 Y186.832 E41.80857
G1 X166.8 Y187.391 E41.85536
G1 X166.407 Y187.634 E41.87687
G1 X165.93 Y187.913 E41.9026
G1 X165.052 Y188.383 E41.94898
G1 X164.609 Y188.601 E41.97197
G1 X164.096 Y188.836 E41.99824
G1 X163.172 Y189.217 E42.04478
G1 X162.232 Y189.554 E42.09128
G1 X161.728 Y189.713 E42.11589
G1 X160.747 Y189.982 E42.16325
G1 X160.24 Y190.101 E42.1875
G1 X159.268 Y190.294 E42.23365
G1 X158.269 Y190.44 E42.28066
G1 X157.731 Y190.498 E42.30585
G1 X157.203 Y190.541 E42.33052
G1 X156.167 Y190.589 E42.37881
G1 X155.192 Y190.6 E42.42422
G1 X144.969 Y190.599 E42.90024
G1 X143.791 Y190.58 E42.9551
G1 X142.875 Y190.531 E42.99782
G1 X142.36 Y190.485 E43.02189
G1 X141.841 Y190.426 E43.04621
G1 X141.162 Y190.324 E43.07819
G1 X140.522 Y190.211 E43.10845
G1 X139.799 Y190.057 E43.14287
G1 X136.503 Y189.233 E43.30107
G1 X134.038 Y188.688 E43.41862
G1 X131.501 Y188.201 E43.53891
G1 X129.013 Y187.797 E43.65628
G1 X126.54 Y187.467 E43.77245
G1 X124.018 Y187.202 E43.89054
G1 X121.5 Y187.01 E44.00813
G1 X118.971 Y186.888 E44.12602
G1 X116.455 Y186.839 E44.2432
G1 X113.902 Y186.861 E44.36208
G1 X111.37 Y186.954 E44.48006
G1 X108.856 Y187.118 E44.59737
G1 X106.378 Y187.35 E44.71327
G1 X103.814 Y187.663 E44.83354
G1 X101.347 Y188.037 E44.94973
G1 X98.857 Y188.486 E45.06754
G1 X96.41 Y188.998 E45.18395
G1 X93.246 Y189.766 E45.33556
G1 X92.411 Y189.984 E45.37574
G1 X91.431 Y190.202 E45.42249
G1 X90.42 Y190.375 E45.47025
G1 X89.906 Y190.445 E45.49441
G1 X89.429 Y190.497 E45.51675
G1 X88.888 Y190.541 E45.54203
G1 X87.879 Y190.588 E45.58906
G1 X86.872 Y190.6 E45.63595
G1 X75.79 Y190.599 E46.15198
G1 X74.752 Y190.583 E46.20032
G1 X74.24 Y190.561 E46.22418
G1 X73.632 Y190.517 E46.25257
G1 X72.939 Y190.447 E46.285
G1 X72.417 Y190.381 E46.3095
G1 X71.794 Y190.279 E46.33889
G1 X71.287 Y190.183 E46.36292
G1 X70.766 Y190.071 E46.38774
G1 X70.266 Y189.949 E46.4117
G1 X69.761 Y189.813 E46.43605
G1 X68.796 Y189.515 E46.48308
G1 X68.335 Y189.354 E46.50582
G1 X67.382 Y188.98 E46.55349
G1 X66.907 Y188.773 E46.57762
G1 X65.985 Y188.33 E46.62525
G1 X65.536 Y188.094 E46.64887
G1 X65.052 Y187.821 E46.67474
G1 X64.19 Y187.293 E46.72181
G1 X63.782 Y187.023 E46.74459
G1 X63.322 Y186.701 E46.77074
G1 X62.86 Y186.357 E46.79756
G1 X62.459 Y186.044 E46.82125
G1 X62.064 Y185.719 E46.84507
G1 X61.629 Y185.342 E46.87187
G1 X61.296 Y185.036 E46.89293
G1 X60.624 Y184.374 E46.93685
G1 X59.959 Y183.66 E46.98229
G1 X59.603 Y183.247 E47.00768
G1 X59.269 Y182.84 E47.03219
G1 X58.956 Y182.438 E47.05591
G1 X58.39 Y181.651 E47.10105
G1 X58.111 Y181.235 E47.12438
G1 X57.828 Y180.787 E47.14905
G1 X57.554 Y180.33 E47.17386
G1 X57.089 Y179.482 E47.2189
G1 X56.857 Y179.023 E47.24285
G1 X56.627 Y178.534 E47.26801
G1 X56.235 Y177.612 E47.31466
G1 X56.048 Y177.126 E47.33891
G1 X55.874 Y176.635 E47.36316
G1 X55.713 Y176.142 E47.38731
G1 X55.433 Y175.167 E47.43455
G1 X55.171 Y174.109 E47.4853
G1 X27.117 Y55.093 E53.17906
G1 X26.925 Y54.213 E53.221
G1 X26.827 Y53.716 E53.24459
G1 X26.737 Y53.186 E53.26962
G1 X26.606 Y52.188 E53.31649
G1 X26.523 Y51.175 E53.36382
G1 X26.491 Y50.215 E53.40855
G1 X26.492 Y49.699 E53.43257
G1 X26.506 Y49.184 E53.45656
G1 X26.567 Y48.224 E53.50136
G1 X26.616 Y47.725 E53.5247
G1 X26.681 Y47.199 E53.54938
G1 X26.756 Y46.702 E53.57279
G1 X26.846 Y46.192 E53.5969
G1 X27.056 Y45.204 E53.64393
G1 X27.299 Y44.285 E53.6882
G1 X27.448 Y43.792 E53.71218
G1 X27.769 Y42.856 E53.75825
G1 X27.952 Y42.377 E53.78213
G1 X28.152 Y41.893 E53.80652
G1 X28.362 Y41.418 E53.8307
G1 X28.777 Y40.565 E53.87487
G1 X29.015 Y40.117 E53.89849
G1 X29.277 Y39.653 E53.9233
G1 X29.789 Y38.82 E53.96883
G1 X30.374 Y37.963 E54.01715
G1 X30.945 Y37.207 E54.06126
G1 X31.261 Y36.817 E54.08464
G1 X31.787 Y36.217 E54.12179
G1 X32.485 Y35.482 E54.16899
G1 X33.019 Y34.957 E54.20386
G0 F6000 X33.289 Y35.252
G1 F1200 X33.634 Y34.937 E54.22561
G1 X34.005 Y34.615 E54.24849
G1 X34.666 Y34.079 E54.28812
G1 X35.093 Y33.754 E54.3131
G1 X35.532 Y33.438 E54.33829
G1 X35.939 Y33.161 E54.36121
G1 X36.388 Y32.872 E54.38608
G1 X37.227 Y32.376 E54.43146
G1 X37.661 Y32.14 E54.45446
G1 X38.119 Y31.906 E54.47841
G1 X38.546 Y31.701 E54.50047
G1 X39.214 Y31.409 E54.53442
G1 X40.128 Y31.048 E54.58017
G1 X40.843 Y30.796 E54.61547
G1 X41.312 Y30.65 E54.63835
G1 X42.231 Y30.4 E54.68269
G1 X43.195 Y30.187 E54.72867
G1 X44.04 Y30.041 E54.7686
G1 X44.557 Y29.974 E54.79287
G1 X45.44 Y29.882 E54.83421
G1 X45.935 Y29.842 E54.85733
G1 X46.641 Y29.813 E54.89024
G1 X47.723 Y29.8 E54.94062
G1 X172.31 Y29.8 E60.74191
G1 X173.26 Y29.812 E60.78615
G1 X173.878 Y29.833 E60.81495
G1 X174.574 Y29.884 E60.84744
G1 X175.622 Y29.997 E60.89652
G1 X176.419 Y30.115 E60.93404
G1 X177.343 Y30.3 E60.97792
G1 X177.907 Y30.434 E61.00491
G1 X178.553 Y30.61 E61.03609
G1 X179.056 Y30.765 E61.0606
G1 X179.711 Y30.987 E61.0928
G1 X180.17 Y31.159 E61.11563
G1 X180.779 Y31.405 E61.14621
G1 X181.553 Y31.748 E61.18563
G1 X182.012 Y31.973 E61.20943
G1 X182.465 Y32.209 E61.23322
G1 X183.318 Y32.694 E61.27891
G1 X183.74 Y32.954 E61.30199
G1 X184.167 Y33.232 E61.32572
G1 X184.786 Y33.669 E61.361
G1 X185.531 Y34.237 E61.40462
G1 X186.096 Y34.7 E61.43863
G1 X186.462 Y35.023 E61.46136
G1 X186.854 Y35.387 E61.48627
G1 X187.211 Y35.737 E61.50955
G1 X187.849 Y36.407 E61.55263
G1 X188.183 Y36.783 E61.57605
G1 X188.505 Y37.164 E61.59928
G1 X188.846 Y37.589 E61.62465
G1 X189.149 Y37.989 E61.64802
