;FLAVOR:Marlin
;TIME:2784
;Filament used: 1.79635m
;Layer height: 0.2
;MINX:81.407
;MINY:81.539
;MINZ:0.2
;MAXX:138.592
;MAXY:138.461
;MAXZ:6
;Generated with Cura_SteamEngine 5.2.1
M82 ;absolute extrusion mode
; Ender 3 Custom Start G-code
G92 E0 ; Reset Extruder
G28 ; Home all axes
M104 S175 ; Start heating up the nozzle most of the way
M190 S60 ; Start heating the bed, wait until target temperature reached
M109 S200 ; Finish heating the nozzle
G1 Z2.0 F3000 ; Move Z Axis up little to prevent scratching of Heat Bed
G1 X0.1 Y20 Z0.3 F5000.0 ; Move to start position
G1 X0.1 Y200.0 Z0.3 F1500.0 E15 ; Draw the first line
G1 X0.4 Y200.0 Z0.3 F5000.0 ; Move to side a little
G1 X0.4 Y20 Z0.3 F1500.0 E30 ; Draw the second line
G92 E0 ; Reset Extruder
G1 Z2.0 F3000 ; Move Z Axis up little to prevent scratching of Heat Bed
G1 X5 Y20 Z0.3 F5000.0 ; Move over to prevent blob squish
G92 E0
G92 E0
G1 F1500 E-6.5
;LAYER_COUNT:30
;LAYER:0
M107
G0 F6000 X90.238 Y89.346 Z0.2
;TYPE:SKIRT
G1 F1500 E0
G1 F1200 X90.928 Y88.711 E0.03119
G1 X91.593 Y88.193 E0.05923
G1 X93.907 Y86.527 E0.15406
G1 X94.95 Y85.755 E0.19722
G1 X95.727 Y85.23 E0.22841
G1 X96.417 Y84.839 E0.25479
G1 X97.009 Y84.531 E0.27698
G1 X97.534 Y84.275 E0.29641
G1 X98.777 Y83.71 E0.34182
G1 X99.414 Y83.439 E0.36485
G1 X99.887 Y83.256 E0.38172
G1 X100.639 Y82.984 E0.40831
G1 X101.115 Y82.824 E0.42502
G1 X101.9 Y82.58 E0.45236
G1 X102.359 Y82.448 E0.46824
G1 X103.083 Y82.257 E0.49315
G1 X103.565 Y82.141 E0.50964
G1 X104.245 Y81.994 E0.53277
G1 X104.826 Y81.885 E0.55244
G1 X106.116 Y81.678 E0.59589
G1 X107.048 Y81.569 E0.6271
G1 X107.891 Y81.539 E0.65516
G1 X111.258 Y81.549 E0.76714
G1 X111.963 Y81.539 E0.79059
G1 X112.901 Y81.566 E0.82181
G1 X113.793 Y81.667 E0.85166
G1 X114.674 Y81.803 E0.88131
G1 X115.155 Y81.888 E0.89756
G1 X116.284 Y82.114 E0.93585
G1 X116.987 Y82.274 E0.95983
G1 X117.446 Y82.395 E0.97562
G1 X118.278 Y82.633 E1.0044
G1 X118.76 Y82.783 E1.02119
G1 X119.515 Y83.037 E1.04769
G1 X120 Y83.213 E1.06485
G1 X120.742 Y83.502 E1.09133
G1 X121.205 Y83.695 E1.10802
G1 X121.959 Y84.029 E1.13545
G1 X122.412 Y84.241 E1.15208
G1 X123.088 Y84.578 E1.1772
G1 X123.551 Y84.823 E1.19463
G1 X123.921 Y85.03 E1.20873
G1 X125.043 Y85.751 E1.25309
G1 X127.62 Y87.635 E1.35926
G1 X128.316 Y88.127 E1.38761
G1 X129.059 Y88.701 E1.41884
G1 X129.737 Y89.323 E1.44944
G1 X130.449 Y90.033 E1.48288
G1 X130.784 Y90.382 E1.49897
G1 X131.514 Y91.177 E1.53487
G1 X132.007 Y91.745 E1.55989
G1 X132.297 Y92.101 E1.57516
G1 X132.801 Y92.748 E1.60244
G1 X133.095 Y93.144 E1.61884
G1 X133.556 Y93.794 E1.64534
G1 X133.832 Y94.203 E1.66176
G1 X134.257 Y94.863 E1.68786
G1 X134.521 Y95.294 E1.70468
G1 X134.924 Y95.988 E1.73137
G1 X135.161 Y96.417 E1.74767
G1 X135.531 Y97.125 E1.77424
G1 X135.762 Y97.593 E1.7916
G1 X135.934 Y97.964 E1.8052
G1 X136.429 Y99.234 E1.85053
G1 X137.39 Y102.232 E1.95525
G1 X137.682 Y103.097 E1.98561
G1 X137.944 Y103.997 E2.01679
G1 X138.122 Y104.875 E2.04658
G1 X138.288 Y105.909 E2.08141
G1 X138.347 Y106.33 E2.09555
G1 X138.444 Y107.19 E2.12434
G1 X138.512 Y108.003 E2.15147
G1 X138.541 Y108.469 E2.167
G1 X138.581 Y109.444 E2.19946
G1 X138.592 Y110.039 E2.21925
G1 X138.583 Y110.585 E2.23741
G1 X138.547 Y111.459 E2.26651
G1 X138.47 Y112.541 E2.30259
G1 X138.426 Y112.982 E2.31733
G1 X138.332 Y113.773 E2.34382
G1 X138.269 Y114.227 E2.35907
G1 X138.123 Y115.132 E2.38956
G1 X137.934 Y116.051 E2.42076
G1 X137.709 Y116.827 E2.44763
G1 X136.735 Y119.779 E2.55103
G1 X136.442 Y120.721 E2.58384
G1 X136.125 Y121.604 E2.61504
G1 X135.78 Y122.367 E2.64289
G1 X135.478 Y122.972 E2.66538
G1 X135.206 Y123.483 E2.68464
G1 X134.519 Y124.695 E2.73097
G1 X134.164 Y125.286 E2.7539
G1 X133.904 Y125.688 E2.76983
G1 X133.454 Y126.353 E2.79653
G1 X133.164 Y126.761 E2.81318
G1 X132.696 Y127.389 E2.83923
G1 X132.394 Y127.777 E2.85558
G1 X131.871 Y128.417 E2.88307
G1 X131.554 Y128.787 E2.89928
G1 X131.141 Y129.249 E2.91989
G1 X130.726 Y129.688 E2.93998
G1 X129.77 Y130.646 E2.985
G1 X129.08 Y131.281 E3.01619
G1 X128.407 Y131.806 E3.04458
G1 X126.154 Y133.427 E3.13689
G1 X125.047 Y134.246 E3.18269
G1 X124.27 Y134.772 E3.2139
G1 X123.573 Y135.167 E3.24054
G1 X122.986 Y135.472 E3.26255
G1 X122.466 Y135.725 E3.28178
G1 X121.223 Y136.29 E3.32719
G1 X120.586 Y136.561 E3.35022
G1 X120.113 Y136.744 E3.36709
G1 X119.361 Y137.016 E3.39368
G1 X118.885 Y137.176 E3.41039
G1 X118.1 Y137.42 E3.43773
G1 X117.641 Y137.552 E3.45361
G1 X116.917 Y137.743 E3.47852
G1 X116.435 Y137.859 E3.49501
G1 X115.755 Y138.006 E3.51814
G1 X115.174 Y138.115 E3.53781
G1 X113.884 Y138.322 E3.58126
G1 X112.952 Y138.431 E3.61247
G1 X112.109 Y138.461 E3.64053
G1 X108.742 Y138.451 E3.75251
G1 X108.037 Y138.461 E3.77596
G1 X107.099 Y138.434 E3.80718
G1 X106.2 Y138.332 E3.83727
G1 X105.316 Y138.195 E3.86702
G1 X104.846 Y138.112 E3.8829
G1 X103.72 Y137.887 E3.92109
G1 X103.013 Y137.726 E3.9452
G1 X102.55 Y137.604 E3.96113
G1 X101.719 Y137.366 E3.98988
G1 X101.245 Y137.218 E4.00639
G1 X100.489 Y136.964 E4.03292
G1 X100 Y136.787 E4.05022
G1 X99.258 Y136.498 E4.0767
G1 X98.795 Y136.305 E4.09339
G1 X98.041 Y135.971 E4.12081
G1 X97.588 Y135.759 E4.13745
G1 X96.91 Y135.421 E4.16265
G1 X96.445 Y135.174 E4.18016
G1 X96.077 Y134.968 E4.19419
G1 X94.955 Y134.248 E4.23853
G1 X92.298 Y132.304 E4.34803
G1 X91.596 Y131.803 E4.37671
G1 X90.856 Y131.226 E4.40792
G1 X90.185 Y130.605 E4.43833
G1 X89.517 Y129.933 E4.46985
G1 X89.213 Y129.615 E4.48448
G1 X88.478 Y128.814 E4.52064
G1 X87.994 Y128.257 E4.54518
G1 X87.705 Y127.901 E4.56043
G1 X87.2 Y127.253 E4.58775
G1 X86.902 Y126.852 E4.60437
G1 X86.442 Y126.203 E4.63083
G1 X86.166 Y125.795 E4.64721
G1 X85.74 Y125.133 E4.6734
G1 X85.478 Y124.705 E4.69009
G1 X85.076 Y124.013 E4.7167
G1 X84.839 Y123.582 E4.73306
G1 X84.468 Y122.872 E4.75971
G1 X84.245 Y122.421 E4.77644
G1 X84.076 Y122.058 E4.78976
G1 X83.571 Y120.766 E4.8359
G1 X82.641 Y117.857 E4.93748
G1 X82.296 Y116.834 E4.97338
G1 X82.035 Y115.933 E5.00458
G1 X81.868 Y115.116 E5.03232
G1 X81.733 Y114.299 E5.05986
G1 X81.664 Y113.812 E5.07622
G1 X81.568 Y113.009 E5.10312
G1 X81.523 Y112.552 E5.11839
G1 X81.466 Y111.816 E5.14294
G1 X81.44 Y111.349 E5.1585
G1 X81.413 Y110.572 E5.18436
G1 X81.407 Y110.062 E5.20132
G1 X81.416 Y109.289 E5.22703
G1 X81.433 Y108.79 E5.24364
G1 X81.48 Y107.967 E5.27106
G1 X81.519 Y107.473 E5.28754
G1 X81.6 Y106.682 E5.31399
G1 X81.665 Y106.172 E5.33109
G1 X81.78 Y105.405 E5.35688
G1 X81.939 Y104.529 E5.38649
G1 X82.292 Y103.174 E5.43307
G1 X83.257 Y100.246 E5.5356
G1 X83.56 Y99.273 E5.5695
G1 X83.876 Y98.39 E5.60069
G1 X84.227 Y97.618 E5.6289
G1 X84.526 Y97.021 E5.65111
G1 X84.79 Y96.525 E5.66979
G1 X85.48 Y95.307 E5.71635
G1 X85.847 Y94.698 E5.74
G1 X86.092 Y94.32 E5.75499
G1 X86.542 Y93.654 E5.78172
G1 X86.836 Y93.239 E5.79863
G1 X87.304 Y92.611 E5.82468
G1 X87.6 Y92.231 E5.8407
G1 X88.122 Y91.591 E5.86817
G1 X88.448 Y91.21 E5.88485
G1 X88.864 Y90.745 E5.9056
G1 X89.28 Y90.305 E5.92574
G1 X90.238 Y89.346 E5.97083
G0 F6000 X90.521 Y89.629
G1 F1200 X91.199 Y89.006 E6.00145
G1 X91.826 Y88.518 E6.02788
G1 X94.175 Y86.827 E6.12415
G1 X95.188 Y86.077 E6.16607
G1 X95.951 Y85.561 E6.1967
G1 X96.602 Y85.194 E6.22156
G1 X97.194 Y84.886 E6.24375
G1 X97.7 Y84.639 E6.26248
G1 X98.943 Y84.074 E6.3079
G1 X99.567 Y83.809 E6.33044
G1 X100.023 Y83.632 E6.34671
G1 X100.775 Y83.36 E6.37331
G1 X101.234 Y83.206 E6.38941
G1 X102.019 Y82.962 E6.41675
G1 X102.461 Y82.835 E6.43205
G1 X103.185 Y82.644 E6.45695
G1 X103.649 Y82.532 E6.47283
G1 X104.329 Y82.385 E6.49597
G1 X104.89 Y82.28 E6.51495
G1 X106.18 Y82.073 E6.55841
G1 X107.094 Y81.967 E6.58901
G1 X107.89 Y81.939 E6.6155
G1 X111.263 Y81.949 E6.72769
G1 X111.969 Y81.939 E6.75117
G1 X112.889 Y81.966 E6.78179
G1 X113.732 Y82.062 E6.81
G1 X114.613 Y82.198 E6.83965
G1 X115.077 Y82.28 E6.85533
G1 X116.206 Y82.506 E6.89362
G1 X116.893 Y82.663 E6.91706
G1 X117.336 Y82.78 E6.9323
G1 X118.168 Y83.018 E6.96108
G1 X118.633 Y83.162 E6.97727
G1 X119.388 Y83.416 E7.00377
G1 X119.855 Y83.586 E7.0203
G1 X120.597 Y83.875 E7.04678
G1 X121.043 Y84.06 E7.06284
G1 X121.797 Y84.394 E7.09027
G1 X122.233 Y84.599 E7.10629
G1 X122.909 Y84.936 E7.13142
G1 X123.355 Y85.172 E7.1482
G1 X123.725 Y85.379 E7.1623
G1 X124.807 Y86.074 E7.20507
G1 X127.374 Y87.951 E7.31084
G1 X128.086 Y88.454 E7.33984
G1 X128.814 Y89.017 E7.37045
G1 X129.455 Y89.606 E7.3994
G1 X130.167 Y90.316 E7.43284
G1 X130.49 Y90.653 E7.44837
G1 X131.22 Y91.448 E7.48427
G1 X131.702 Y92.004 E7.50874
G1 X131.981 Y92.347 E7.52345
G1 X132.485 Y92.994 E7.55072
G1 X132.769 Y93.376 E7.56656
G1 X133.23 Y94.026 E7.59306
G1 X133.496 Y94.419 E7.60884
G1 X133.921 Y95.079 E7.63495
G1 X134.176 Y95.495 E7.65118
G1 X134.579 Y96.189 E7.67787
G1 X134.806 Y96.602 E7.69355
G1 X135.176 Y97.31 E7.72012
G1 X135.399 Y97.762 E7.73688
G1 X135.571 Y98.133 E7.75048
G1 X136.048 Y99.356 E7.79414
G1 X137.009 Y102.356 E7.89892
G1 X137.303 Y103.225 E7.92943
G1 X137.56 Y104.109 E7.96005
G1 X137.727 Y104.939 E7.98821
G1 X137.893 Y105.973 E8.02304
G1 X137.95 Y106.378 E8.03664
G1 X138.045 Y107.223 E8.06493
G1 X138.113 Y108.036 E8.09206
G1 X138.141 Y108.485 E8.10702
G1 X138.181 Y109.46 E8.13948
G1 X138.192 Y110.043 E8.15887
G1 X138.183 Y110.568 E8.17634
G1 X138.124 Y111.832 E8.21843
G1 X138.071 Y112.51 E8.24104
G1 X138.029 Y112.935 E8.25525
G1 X137.935 Y113.726 E8.28174
G1 X137.874 Y114.163 E8.29642
G1 X137.728 Y115.068 E8.32691
G1 X137.542 Y115.97 E8.35754
G1 X137.329 Y116.701 E8.38286
G1 X136.358 Y119.643 E8.48591
G1 X136.06 Y120.602 E8.51931
G1 X135.748 Y121.469 E8.54995
G1 X135.422 Y122.188 E8.57621
G1 X135.12 Y122.793 E8.5987
G1 X134.858 Y123.286 E8.61727
G1 X134.171 Y124.498 E8.66361
G1 X133.823 Y125.076 E8.68605
G1 X133.573 Y125.464 E8.7014
G1 X133.123 Y126.129 E8.72811
G1 X132.843 Y126.522 E8.74416
G1 X132.375 Y127.15 E8.7702
G1 X132.084 Y127.523 E8.78594
G1 X131.561 Y128.163 E8.81343
G1 X131.256 Y128.521 E8.82907
G1 X130.843 Y128.983 E8.84968
G1 X130.443 Y129.405 E8.86902
G1 X129.487 Y130.363 E8.91404
G1 X128.809 Y130.986 E8.94466
G1 X128.173 Y131.482 E8.97149
G1 X125.921 Y133.101 E9.06374
G1 X124.809 Y133.925 E9.10977
G1 X124.046 Y134.44 E9.14039
G1 X123.388 Y134.812 E9.16553
G1 X122.801 Y135.117 E9.18753
G1 X122.3 Y135.361 E9.20606
G1 X121.057 Y135.926 E9.25148
G1 X120.433 Y136.191 E9.27402
G1 X119.977 Y136.368 E9.29029
G1 X119.225 Y136.64 E9.31689
G1 X118.766 Y136.794 E9.33299
G1 X117.981 Y137.038 E9.36034
G1 X117.539 Y137.165 E9.37563
G1 X116.815 Y137.356 E9.40054
G1 X116.351 Y137.468 E9.41641
G1 X115.671 Y137.615 E9.43955
G1 X115.11 Y137.72 E9.45853
G1 X113.82 Y137.927 E9.50199
G1 X112.906 Y138.033 E9.53259
G1 X112.11 Y138.061 E9.55908
G1 X108.737 Y138.051 E9.67127
G1 X108.031 Y138.061 E9.69475
G1 X107.111 Y138.034 E9.72537
G1 X106.262 Y137.937 E9.75379
G1 X105.378 Y137.8 E9.78354
G1 X104.924 Y137.72 E9.79887
G1 X103.798 Y137.495 E9.83706
G1 X103.107 Y137.337 E9.86064
G1 X102.66 Y137.219 E9.87602
G1 X101.829 Y136.981 E9.90477
G1 X101.372 Y136.839 E9.92068
G1 X100.616 Y136.585 E9.94721
G1 X100.145 Y136.414 E9.96388
G1 X99.403 Y136.125 E9.99036
G1 X98.957 Y135.94 E10.00642
G1 X98.203 Y135.606 E10.03385
G1 X97.767 Y135.401 E10.04987
G1 X97.089 Y135.063 E10.07507
G1 X96.64 Y134.825 E10.09197
G1 X96.272 Y134.619 E10.106
G1 X95.191 Y133.925 E10.14873
G1 X92.585 Y132.018 E10.25613
G1 X91.828 Y131.478 E10.28706
G1 X91.102 Y130.911 E10.3177
G1 X90.468 Y130.323 E10.34646
G1 X89.8 Y129.651 E10.37797
G1 X89.508 Y129.345 E10.39204
G1 X88.773 Y128.544 E10.4282
G1 X88.299 Y127.998 E10.45225
G1 X88.02 Y127.655 E10.46695
G1 X87.515 Y127.007 E10.49428
G1 X87.228 Y126.621 E10.51027
G1 X86.768 Y125.972 E10.53673
G1 X86.502 Y125.578 E10.55254
G1 X86.076 Y124.916 E10.57873
G1 X85.824 Y124.505 E10.59476
G1 X85.422 Y123.813 E10.62138
G1 X85.193 Y123.397 E10.63717
G1 X84.822 Y122.687 E10.66382
G1 X84.607 Y122.252 E10.67996
G1 X84.438 Y121.889 E10.69327
G1 X83.952 Y120.644 E10.73773
G1 X83.021 Y117.734 E10.83935
G1 X82.675 Y116.706 E10.87542
G1 X82.42 Y115.821 E10.90605
G1 X82.263 Y115.051 E10.93219
G1 X82.128 Y114.234 E10.95973
G1 X82.061 Y113.764 E10.97552
G1 X81.965 Y112.961 E11.00242
G1 X81.922 Y112.521 E11.01713
G1 X81.865 Y111.785 E11.04168
G1 X81.839 Y111.335 E11.05667
G1 X81.812 Y110.558 E11.08253
G1 X81.807 Y110.067 E11.09886
G1 X81.816 Y109.294 E11.12457
G1 X81.832 Y108.813 E11.14058
G1 X81.879 Y107.99 E11.168
G1 X81.917 Y107.514 E11.18388
G1 X81.998 Y106.723 E11.21033
G1 X82.06 Y106.231 E11.22682
G1 X82.175 Y105.464 E11.25262
G1 X82.332 Y104.605 E11.28166
G1 X82.672 Y103.299 E11.32654
G1 X83.621 Y100.419 E11.4274
G1 X83.941 Y99.392 E11.46318
G1 X84.253 Y98.526 E11.49379
G1 X84.584 Y97.797 E11.52042
G1 X84.883 Y97.2 E11.54263
G1 X85.138 Y96.722 E11.56065
G1 X85.828 Y95.504 E11.60721
G1 X86.187 Y94.909 E11.63032
G1 X86.423 Y94.544 E11.64478
G1 X86.873 Y93.878 E11.67151
G1 X87.157 Y93.478 E11.68783
G1 X87.625 Y92.85 E11.71388
G1 X87.91 Y92.484 E11.72931
G1 X88.432 Y91.844 E11.75678
G1 X88.746 Y91.476 E11.77287
G1 X89.162 Y91.011 E11.79362
G1 X89.563 Y90.588 E11.813
G1 X90.521 Y89.629 E11.85809
G0 F6000 X90.804 Y89.911
G1 F1200 X91.47 Y89.301 E11.88813
G1 X92.06 Y88.842 E11.91299
G1 X94.407 Y87.152 E12.00918
G1 X95.426 Y86.398 E12.05134
G1 X96.175 Y85.893 E12.08139
G1 X96.786 Y85.548 E12.10473
G1 X97.378 Y85.24 E12.12692
G1 X97.865 Y85.003 E12.14494
G1 X99.108 Y84.438 E12.19035
G1 X99.721 Y84.178 E12.2125
G1 X100.159 Y84.008 E12.22812
G1 X100.911 Y83.736 E12.25472
G1 X101.352 Y83.588 E12.27019
G1 X102.137 Y83.344 E12.29753
G1 X102.563 Y83.221 E12.31228
G1 X103.287 Y83.03 E12.33718
G1 X103.734 Y82.923 E12.35247
G1 X104.414 Y82.776 E12.37561
G1 X104.953 Y82.675 E12.39385
G1 X106.243 Y82.468 E12.43731
G1 X107.14 Y82.364 E12.46734
G1 X107.888 Y82.339 E12.49223
G1 X111.266 Y82.349 E12.60459
G1 X111.974 Y82.339 E12.62814
G1 X112.877 Y82.366 E12.65818
G1 X113.671 Y82.457 E12.68476
G1 X114.552 Y82.593 E12.71441
G1 X114.998 Y82.672 E12.72948
G1 X116.127 Y82.898 E12.76777
G1 X116.8 Y83.052 E12.79074
G1 X117.226 Y83.164 E12.80539
G1 X118.058 Y83.402 E12.83417
G1 X118.505 Y83.541 E12.84974
G1 X119.26 Y83.795 E12.87623
G1 X119.71 Y83.958 E12.89215
G1 X120.452 Y84.247 E12.91864
G1 X120.881 Y84.426 E12.9341
G1 X121.635 Y84.76 E12.96153
G1 X122.055 Y84.957 E12.97696
G1 X122.731 Y85.294 E13.00208
G1 X123.16 Y85.521 E13.01822
G1 X123.53 Y85.728 E13.03232
G1 X124.571 Y86.396 E13.07346
G1 X127.197 Y88.316 E13.18166
G1 X127.855 Y88.781 E13.20846
G1 X128.569 Y89.334 E13.23849
G1 X129.172 Y89.889 E13.26575
G1 X129.884 Y90.599 E13.2992
G1 X130.195 Y90.923 E13.31413
G1 X130.925 Y91.718 E13.35003
G1 X131.397 Y92.262 E13.37399
G1 X131.666 Y92.593 E13.38817
G1 X132.17 Y93.24 E13.41545
G1 X132.443 Y93.607 E13.43066
G1 X132.904 Y94.257 E13.45717
G1 X133.16 Y94.636 E13.47238
G1 X133.585 Y95.296 E13.49849
G1 X133.83 Y95.696 E13.51409
G1 X134.233 Y96.39 E13.54078
G1 X134.452 Y96.788 E13.55589
G1 X134.822 Y97.496 E13.58246
G1 X135.036 Y97.93 E13.59856
G1 X135.208 Y98.301 E13.61216
G1 X135.668 Y99.479 E13.65422
G1 X136.642 Y102.518 E13.76036
G1 X136.924 Y103.353 E13.78967
G1 X137.175 Y104.22 E13.81969
G1 X137.332 Y105.002 E13.84622
G1 X137.498 Y106.036 E13.88105
G1 X137.553 Y106.426 E13.89415
G1 X137.647 Y107.257 E13.92197
G1 X137.715 Y108.07 E13.9491
G1 X137.741 Y108.502 E13.9635
G1 X137.781 Y109.477 E13.99595
G1 X137.792 Y110.046 E14.01488
G1 X137.783 Y110.552 E14.03172
G1 X137.725 Y111.801 E14.0733
G1 X137.632 Y112.888 E14.10959
G1 X137.538 Y113.679 E14.13608
G1 X137.479 Y114.1 E14.15022
G1 X137.333 Y115.005 E14.18071
G1 X137.15 Y115.889 E14.21074
G1 X136.949 Y116.576 E14.23454
G1 X135.976 Y119.525 E14.33783
G1 X135.678 Y120.483 E14.3712
G1 X135.372 Y121.333 E14.40125
G1 X135.064 Y122.01 E14.42598
G1 X134.762 Y122.615 E14.44847
G1 X134.51 Y123.089 E14.46633
G1 X133.823 Y124.301 E14.51267
G1 X133.482 Y124.867 E14.53464
G1 X133.242 Y125.239 E14.54937
G1 X132.792 Y125.904 E14.57607
G1 X132.523 Y126.283 E14.59153
G1 X132.055 Y126.911 E14.61758
G1 X131.774 Y127.27 E14.63274
G1 X131.251 Y127.91 E14.66023
G1 X130.957 Y128.254 E14.67528
G1 X130.544 Y128.716 E14.6959
G1 X130.16 Y129.123 E14.71451
G1 X129.204 Y130.081 E14.75952
