;FLAVOR:Marlin
;TIME:23640
;Filament used: 24.322m
;Layer height: 0.28
;MINX:68.249
;MINY:49.5
;MINZ:0.28
;MAXX:153
;MAXY:170.5
;MAXZ:50.12
;Generated with Cura_SteamEngine 5.2.1
M82 ;absolute extrusion mode
; Ender 3 Custom Start G-code
G92 E0 ; Reset Extruder
G28 ; Home all axes
M104 S175 ; Start heating up the nozzle most of the way
M190 S60 ; Start heating the bed, wait until target temperature reached
M109 S200 ; Finish heating the nozzle
G1 Z2.0 F3000 ; Move Z Axis up little to prevent scratching of Heat Bed
G1 X0.1 Y20 Z0.3 F5000.0 ; Move to start position
G1 X0.1 Y200.0 Z0.3 F1500.0 E15 ; Draw the first line
G1 X0.4 Y200.0 Z0.3 F5000.0 ; Move to side a little
G1 X0.4 Y20 Z0.3 F1500.0 E30 ; Draw the second line
G92 E0 ; Reset Extruder
G1 Z2.0 F3000 ; Move Z Axis up little to prevent scratching of Heat Bed
G1 X5 Y20 Z0.3 F5000.0 ; Move over to prevent blob squish
G92 E0
G92 E0
G1 F1500 E-6.5
;LAYER_COUNT:179
;LAYER:0
M107
G0 F6000 X85.008 Y54.189 Z0.28
;TYPE:SKIRT
G1 F1500 E0
G1 F1200 X85.579 Y53.445 E0.04367
G1 X86.211 Y52.753 E0.08731
G1 X86.9 Y52.116 E0.131
G1 X87.641 Y51.541 E0.17468
G1 X88.428 Y51.031 E0.21834
G1 X89.256 Y50.59 E0.26203
G1 X90.118 Y50.221 E0.30569
G1 X91.008 Y49.927 E0.34933
G1 X91.921 Y49.709 E0.39304
G1 X92.848 Y49.571 E0.43668
G1 X93.701 Y49.513 E0.47649
G1 X94.33 Y49.5 E0.50579
G1 X141.451 Y49.501 E2.69994
G1 X142.149 Y49.511 E2.73244
G1 X143.085 Y49.565 E2.7761
G1 X144.013 Y49.697 E2.81975
G1 X144.927 Y49.909 E2.86344
G1 X145.819 Y50.198 E2.9071
G1 X146.684 Y50.561 E2.95078
G1 X147.514 Y50.997 E2.99443
G1 X148.305 Y51.502 E3.03813
G1 X149.049 Y52.073 E3.0818
G1 X149.742 Y52.705 E3.12548
G1 X150.379 Y53.393 E3.16914
G1 X150.954 Y54.134 E3.21281
G1 X151.465 Y54.92 E3.25646
G1 X151.907 Y55.748 E3.30017
G1 X152.276 Y56.61 E3.34383
G1 X152.571 Y57.5 E3.38749
G1 X152.789 Y58.412 E3.43115
G1 X152.929 Y59.34 E3.47485
G1 X152.987 Y60.201 E3.51504
G1 X153 Y60.83 E3.54433
G1 X152.999 Y85.964 E4.71467
G1 X152.988 Y86.672 E4.74765
G1 X152.933 Y87.608 E4.79131
G1 X152.799 Y88.536 E4.83497
G1 X152.586 Y89.45 E4.87867
G1 X152.415 Y90.008 E4.90584
G1 X152.255 Y90.483 E4.92918
G1 X151.459 Y92.959 E5.05028
G1 X150.755 Y95.382 E5.16777
G1 X150.132 Y97.775 E5.28292
G1 X149.548 Y100.312 E5.40414
G1 X149.068 Y102.709 E5.51797
G1 X148.637 Y105.224 E5.63679
G1 X148.284 Y107.702 E5.75334
G1 X148.003 Y110.175 E5.86923
G1 X147.786 Y112.737 E5.98896
G1 X147.646 Y115.197 E6.10369
G1 X147.574 Y117.754 E6.2228
G1 X147.574 Y120.243 E6.3387
G1 X147.646 Y122.8 E6.45781
G1 X147.787 Y125.283 E6.57362
G1 X147.999 Y127.773 E6.68998
G1 X148.287 Y130.306 E6.80869
G1 X148.638 Y132.775 E6.92481
G1 X149.07 Y135.291 E7.04368
G1 X149.561 Y137.741 E7.16003
G1 X150.115 Y140.151 E7.27518
G1 X150.761 Y142.632 E7.39456
G1 X151.459 Y145.035 E7.51107
G1 X152.457 Y148.123 E7.66219
G1 X152.707 Y149.026 E7.70582
G1 X152.879 Y149.948 E7.74949
G1 X152.985 Y151.167 E7.80647
G1 X153 Y151.83 E7.83735
G1 X152.999 Y158.9 E8.16655
G1 X152.99 Y159.627 E8.20041
G1 X152.939 Y160.564 E8.2441
G1 X152.807 Y161.492 E8.28775
G1 X152.598 Y162.406 E8.33141
G1 X152.311 Y163.299 E8.37509
G1 X151.949 Y164.165 E8.41879
G1 X151.515 Y164.996 E8.46245
G1 X151.011 Y165.787 E8.50612
G1 X150.442 Y166.532 E8.54977
G1 X149.811 Y167.227 E8.59348
G1 X149.124 Y167.865 E8.63714
G1 X148.385 Y168.442 E8.68079
G1 X147.599 Y168.954 E8.72447
G1 X146.773 Y169.397 E8.76812
G1 X145.911 Y169.769 E8.81184
G1 X145.022 Y170.065 E8.85547
G1 X144.11 Y170.285 E8.89915
G1 X143.183 Y170.426 E8.94281
G1 X142.299 Y170.487 E8.98407
G1 X141.67 Y170.5 E9.01337
G1 X94.549 Y170.499 E11.20752
G1 X93.851 Y170.489 E11.24002
G1 X92.915 Y170.435 E11.28368
G1 X91.987 Y170.303 E11.32733
G1 X91.073 Y170.091 E11.37102
G1 X90.181 Y169.802 E11.41468
G1 X89.316 Y169.439 E11.45836
G1 X88.486 Y169.003 E11.50201
G1 X87.695 Y168.498 E11.54571
G1 X86.951 Y167.927 E11.58938
G1 X86.258 Y167.295 E11.63306
G1 X85.621 Y166.607 E11.67671
G1 X85.046 Y165.866 E11.72039
G1 X84.535 Y165.08 E11.76404
G1 X84.093 Y164.252 E11.80775
G1 X83.724 Y163.39 E11.85141
G1 X83.404 Y162.41 E11.89941
G1 X82.602 Y159.499 E12.04001
G1 X81.867 Y157.102 E12.15676
G1 X81.045 Y154.674 E12.27612
G1 X80.186 Y152.355 E12.39127
G1 X79.238 Y150.002 E12.50939
G1 X78.243 Y147.72 E12.62531
G1 X77.164 Y145.424 E12.74344
G1 X76.02 Y143.161 E12.86152
G1 X74.83 Y140.961 E12.97798
G1 X73.579 Y138.797 E13.09437
G1 X72.245 Y136.634 E13.21271
G1 X70.84 Y134.492 E13.33199
G1 X70.365 Y133.796 E13.37123
G1 X69.871 Y132.999 E13.41489
G1 X69.446 Y132.163 E13.45856
G1 X69.093 Y131.294 E13.50223
G1 X68.816 Y130.398 E13.5459
G1 X68.616 Y129.482 E13.58956
G1 X68.495 Y128.551 E13.63328
G1 X68.455 Y127.777 E13.66937
G1 X68.431 Y126.317 E13.73736
G1 X68.42 Y126.149 E13.7452
G1 X68.405 Y125.085 E13.79475
G1 X68.277 Y122.038 E13.93675
G1 X68.25 Y120.706 E13.99879
G1 X68.249 Y113.051 E14.35524
G1 X68.259 Y112.347 E14.38802
G1 X68.312 Y111.41 E14.43172
G1 X68.445 Y110.482 E14.47538
G1 X68.657 Y109.568 E14.51907
G1 X68.945 Y108.676 E14.56271
G1 X69.309 Y107.811 E14.60641
G1 X69.807 Y106.875 E14.65578
G1 X71.069 Y104.756 E14.77062
G1 X72.313 Y102.528 E14.88944
G1 X73.468 Y100.316 E15.00564
G1 X74.579 Y98.032 E15.12391
G1 X75.61 Y95.751 E15.24047
G1 X76.587 Y93.416 E15.35833
G1 X77.498 Y91.054 E15.47621
G1 X78.325 Y88.711 E15.59191
G1 X79.098 Y86.308 E15.70945
G1 X79.799 Y83.901 E15.82618
G1 X80.442 Y81.432 E15.94498
G1 X80.998 Y79.021 E16.0602
G1 X81.505 Y76.498 E16.18003
G1 X81.923 Y74.065 E16.29498
G1 X82.281 Y71.551 E16.41322
G1 X82.563 Y69.071 E16.52944
G1 X82.779 Y66.547 E16.6474
G1 X82.921 Y64.061 E16.76335
G1 X82.996 Y61.392 E16.88768
G1 X83.012 Y60.344 E16.93648
G1 X83.066 Y59.407 E16.98019
G1 X83.2 Y58.479 E17.02385
G1 X83.412 Y57.566 E17.06749
G1 X83.701 Y56.673 E17.11119
G1 X84.066 Y55.809 E17.15487
G1 X84.502 Y54.979 E17.19853
G1 X85.008 Y54.189 E17.24221
G0 F6000 X85.404 Y54.322
G1 F1200 X85.973 Y53.599 E17.28505
G1 X86.603 Y52.928 E17.32791
G1 X87.289 Y52.313 E17.37081
G1 X88.025 Y51.761 E17.41365
G1 X88.807 Y51.274 E17.45655
G1 X89.628 Y50.858 E17.4994
G1 X90.482 Y50.514 E17.54227
G1 X91.362 Y50.245 E17.58512
G1 X92.263 Y50.054 E17.62801
G1 X93.177 Y49.942 E17.67089
G1 X93.712 Y49.913 E17.69583
G1 X94.33 Y49.9 E17.72462
G1 X141.293 Y49.9 E19.91141
G1 X142.143 Y49.911 E19.95099
G1 X143.062 Y49.964 E19.99386
G1 X143.973 Y50.097 E20.03673
G1 X144.869 Y50.308 E20.07959
G1 X145.743 Y50.596 E20.12244
G1 X146.59 Y50.959 E20.16535
G1 X147.401 Y51.394 E20.2082
G1 X148.171 Y51.898 E20.25105
G1 X148.895 Y52.467 E20.29393
G1 X149.567 Y53.097 E20.33682
G1 X150.182 Y53.782 E20.37969
G1 X150.735 Y54.518 E20.42256
G1 X151.222 Y55.299 E20.46541
G1 X151.639 Y56.12 E20.50829
G1 X151.984 Y56.974 E20.55118
G1 X152.253 Y57.854 E20.59403
G1 X152.445 Y58.755 E20.63692
G1 X152.558 Y59.668 E20.67976
G1 X152.587 Y60.212 E20.70513
G1 X152.6 Y60.83 E20.73391
G1 X152.599 Y85.958 E21.90398
G1 X152.588 Y86.666 E21.93695
G1 X152.533 Y87.585 E21.97982
G1 X152.4 Y88.496 E22.02269
G1 X152.187 Y89.391 E22.06553
G1 X152.036 Y89.881 E22.0894
G1 X151.867 Y90.382 E22.11402
G1 X151.077 Y92.84 E22.23424
G1 X150.372 Y95.266 E22.35188
G1 X149.739 Y97.698 E22.4689
G1 X149.16 Y100.215 E22.58916
G1 X148.676 Y102.628 E22.70376
G1 X148.239 Y105.177 E22.82418
G1 X147.89 Y107.632 E22.93965
G1 X147.602 Y110.167 E23.05845
G1 X147.389 Y112.681 E23.17593
G1 X147.246 Y115.197 E23.29327
G1 X147.174 Y117.743 E23.41187
G1 X147.174 Y120.254 E23.52879
G1 X147.246 Y122.798 E23.6473
G1 X147.388 Y125.305 E23.76422
G1 X147.605 Y127.851 E23.88321
G1 X147.887 Y130.336 E23.99966
G1 X148.247 Y132.861 E24.11842
G1 X148.671 Y135.337 E24.2354
G1 X149.164 Y137.796 E24.35218
G1 X149.734 Y140.276 E24.47067
G1 X150.376 Y142.739 E24.58919
G1 X151.08 Y145.164 E24.70677
G1 X152.076 Y148.246 E24.85758
G1 X152.321 Y149.133 E24.90043
G1 X152.488 Y150.038 E24.94329
G1 X152.585 Y151.179 E24.99661
G1 X152.6 Y151.83 E25.02693
G1 X152.599 Y158.895 E25.3559
G1 X152.59 Y159.622 E25.38976
G1 X152.539 Y160.541 E25.43262
G1 X152.408 Y161.453 E25.47552
G1 X152.198 Y162.349 E25.51837
G1 X151.912 Y163.224 E25.56124
G1 X151.551 Y164.071 E25.60411
G1 X151.117 Y164.883 E25.64698
G1 X150.615 Y165.655 E25.68986
G1 X150.047 Y166.38 E25.73275
G1 X149.419 Y167.053 E25.77561
G1 X148.735 Y167.669 E25.81847
G1 X148 Y168.223 E25.86133
G1 X147.22 Y168.712 E25.9042
G1 X146.4 Y169.131 E25.94707
G1 X145.547 Y169.477 E25.98994
G1 X144.667 Y169.748 E26.03281
G1 X143.767 Y169.941 E26.07567
G1 X142.853 Y170.056 E26.11857
G1 X142.288 Y170.087 E26.14492
G1 X141.67 Y170.1 E26.1737
G1 X94.555 Y170.099 E28.36757
G1 X93.857 Y170.089 E28.40008
G1 X92.938 Y170.036 E28.44294
G1 X92.027 Y169.903 E28.48581
G1 X91.131 Y169.692 E28.52867
G1 X90.257 Y169.404 E28.57152
G1 X89.41 Y169.041 E28.61443
G1 X88.599 Y168.606 E28.65728
G1 X87.829 Y168.102 E28.70014
G1 X87.105 Y167.533 E28.74301
G1 X86.433 Y166.903 E28.78591
G1 X85.818 Y166.218 E28.82877
G1 X85.265 Y165.482 E28.87164
G1 X84.778 Y164.701 E28.9145
G1 X84.361 Y163.88 E28.95737
G1 X84.016 Y163.026 E29.00026
G1 X83.789 Y162.304 E29.0355
G1 X82.982 Y159.371 E29.17715
G1 X82.242 Y156.961 E29.29454
G1 X81.427 Y154.554 E29.41287
G1 X80.557 Y152.203 E29.5296
G1 X79.617 Y149.871 E29.64668
G1 X78.6 Y147.539 E29.76514
G1 X77.519 Y145.238 E29.88352
G1 X76.385 Y142.995 E30.00055
G1 X75.185 Y140.777 E30.11798
G1 X73.908 Y138.567 E30.23683
G1 X72.587 Y136.426 E30.35398
G1 X71.168 Y134.262 E30.47447
G1 X70.696 Y133.57 E30.51348
G1 X70.211 Y132.788 E30.55632
G1 X69.795 Y131.966 E30.59922
G1 X69.453 Y131.112 E30.64206
G1 X69.186 Y130.231 E30.68492
G1 X68.996 Y129.33 E30.7278
G1 X68.886 Y128.416 E30.77067
G1 X68.855 Y127.771 E30.80074
G1 X68.832 Y126.368 E30.86607
G1 X68.82 Y126.143 E30.87657
G1 X68.805 Y125.063 E30.92686
G1 X68.677 Y122.03 E31.06822
G1 X68.65 Y120.698 E31.13025
G1 X68.649 Y113.056 E31.4861
G1 X68.659 Y112.352 E31.51888
G1 X68.712 Y111.433 E31.56174
G1 X68.845 Y110.522 E31.60461
G1 X69.056 Y109.626 E31.64748
G1 X69.344 Y108.752 E31.69033
G1 X69.707 Y107.906 E31.73319
G1 X70.151 Y107.08 E31.77686
G1 X71.42 Y104.949 E31.89235
G1 X72.659 Y102.73 E32.01069
G1 X73.825 Y100.497 E32.12799
G1 X74.931 Y98.223 E32.24574
G1 X75.979 Y95.904 E32.36423
G1 X76.957 Y93.566 E32.48224
G1 X77.872 Y91.194 E32.60062
G1 X78.711 Y88.819 E32.71791
G1 X79.474 Y86.447 E32.83394
G1 X80.186 Y83.999 E32.95265
G1 X80.822 Y81.559 E33.07006
G1 X81.395 Y79.077 E33.18867
G1 X81.896 Y76.58 E33.30726
G1 X82.32 Y74.112 E33.42387
G1 X82.676 Y71.617 E33.54122
G1 X82.964 Y69.083 E33.65997
G1 X83.176 Y66.603 E33.77587
G1 X83.321 Y64.061 E33.89443
G1 X83.396 Y61.409 E34.01797
G1 X83.412 Y60.35 E34.06729
G1 X83.466 Y59.431 E34.11015
G1 X83.599 Y58.52 E34.15302
G1 X83.811 Y57.624 E34.1959
G1 X84.1 Y56.75 E34.23876
G1 X84.464 Y55.904 E34.28165
G1 X84.899 Y55.093 E34.3245
G1 X85.404 Y54.322 E34.36741
G0 F6000 X85.799 Y54.458
G1 F1200 X86.367 Y53.756 E34.40946
G1 X86.994 Y53.106 E34.45152
G1 X87.676 Y52.515 E34.49354
G1 X88.408 Y51.986 E34.53559
G1 X89.184 Y51.523 E34.57767
G1 X89.998 Y51.132 E34.61972
G1 X90.843 Y50.813 E34.66177
G1 X91.713 Y50.571 E34.70382
G1 X92.601 Y50.407 E34.74587
G1 X93.723 Y50.313 E34.7983
G1 X94.33 Y50.3 E34.82657
G1 X141.293 Y50.3 E37.01336
G1 X142.137 Y50.311 E37.05267
G1 X143.039 Y50.364 E37.09474
G1 X143.932 Y50.496 E37.13678
G1 X144.81 Y50.707 E37.17882
G1 X145.666 Y50.995 E37.22088
G1 X146.493 Y51.357 E37.26291
G1 X147.285 Y51.792 E37.30499
G1 X148.036 Y52.294 E37.34705
G1 X148.739 Y52.861 E37.38911
G1 X149.389 Y53.488 E37.43116
G1 X149.981 Y54.17 E37.47321
G1 X150.511 Y54.901 E37.51526
G1 X150.973 Y55.677 E37.55731
G1 X151.366 Y56.49 E37.59936
G1 X151.684 Y57.335 E37.6414
G1 X151.927 Y58.205 E37.68346
G1 X152.092 Y59.093 E37.72551
G1 X152.187 Y60.223 E37.77832
G1 X152.2 Y60.83 E37.80659
G1 X152.199 Y85.951 E38.97633
G1 X152.188 Y86.659 E39.0093
G1 X152.134 Y87.561 E39.05138
G1 X152 Y88.454 E39.09342
G1 X151.657 Y89.753 E39.15598
G1 X151.487 Y90.259 E39.18084
G1 X150.695 Y92.722 E39.30131
G1 X149.987 Y95.158 E39.41943
G1 X149.348 Y97.612 E39.53751
G1 X148.773 Y100.111 E39.65692
G1 X148.275 Y102.595 E39.77488
G1 X147.849 Y105.084 E39.89247
G1 X147.495 Y107.571 E40.00944
G1 X147.201 Y110.155 E40.13054
G1 X146.992 Y112.623 E40.24587
G1 X146.846 Y115.199 E40.36601
G1 X146.774 Y117.732 E40.48401
G1 X146.774 Y120.265 E40.60195
G1 X146.846 Y122.798 E40.71995
G1 X146.991 Y125.361 E40.83948
G1 X147.204 Y127.859 E40.95622
G1 X147.493 Y130.406 E41.07558
G1 X147.85 Y132.915 E41.19359
G1 X148.277 Y135.406 E41.31127
G1 X148.777 Y137.9 E41.42971
G1 X149.343 Y140.362 E41.54735
G1 X149.99 Y142.847 E41.66692
G1 X150.692 Y145.263 E41.78407
G1 X151.696 Y148.369 E41.93606
G1 X151.935 Y149.239 E41.97808
G1 X152.097 Y150.128 E42.02015
G1 X152.185 Y151.191 E42.06982
G1 X152.2 Y151.83 E42.09958
G1 X152.199 Y158.89 E42.42833
G1 X152.19 Y159.617 E42.46218
G1 X152.139 Y160.519 E42.50425
G1 X152.008 Y161.413 E42.54632
G1 X151.799 Y162.291 E42.58835
G1 X151.513 Y163.148 E42.63042
G1 X151.152 Y163.976 E42.67248
G1 X150.72 Y164.768 E42.71448
G1 X150.219 Y165.52 E42.75656
G1 X149.653 Y166.224 E42.79862
G1 X149.028 Y166.875 E42.84064
G1 X148.347 Y167.469 E42.88272
G1 X147.616 Y168 E42.92479
G1 X146.842 Y168.464 E42.96681
G1 X146.029 Y168.858 E43.00888
G1 X145.185 Y169.178 E43.05091
G1 X144.315 Y169.423 E43.093
G1 X143.428 Y169.589 E43.13502
G1 X142.277 Y169.687 E43.18881
G1 X141.67 Y169.7 E43.21708
G1 X94.561 Y169.699 E45.41067
G1 X93.863 Y169.689 E45.44318
G1 X92.961 Y169.636 E45.48525
G1 X92.068 Y169.504 E45.52728
G1 X91.19 Y169.293 E45.56933
G1 X90.334 Y169.005 E45.61138
G1 X89.507 Y168.643 E45.65342
G1 X88.715 Y168.208 E45.6955
G1 X87.964 Y167.706 E45.73756
G1 X87.261 Y167.139 E45.77961
G1 X86.611 Y166.512 E45.82167
G1 X86.019 Y165.83 E45.86372
G1 X85.489 Y165.099 E45.90576
G1 X85.027 Y164.323 E45.94782
G1 X84.634 Y163.51 E45.98986
G1 X84.316 Y162.665 E46.0319
G1 X84.175 Y162.198 E46.05462
G1 X83.364 Y159.254 E46.19681
G1 X82.628 Y156.853 E46.31375
G1 X81.809 Y154.436 E46.43258
G1 X80.927 Y152.052 E46.55094
G1 X79.983 Y149.711 E46.66848
G1 X78.965 Y147.375 E46.78713
G1 X77.88 Y145.066 E46.90592
G1 X76.728 Y142.788 E47.02479
G1 X75.526 Y140.565 E47.14247
G1 X74.276 Y138.403 E47.25875
G1 X72.929 Y136.219 E47.37824
G1 X71.5 Y134.04 E47.49957
G1 X71.026 Y133.345 E47.53874
G1 X70.551 Y132.577 E47.58079
G1 X70.146 Y131.77 E47.62284
G1 X69.813 Y130.93 E47.66491
G1 X69.556 Y130.065 E47.70693
G1 X69.377 Y129.179 E47.74902
G1 X69.277 Y128.282 E47.79105
G1 X69.255 Y127.764 E47.81519
G1 X69.234 Y126.497 E47.87419
G1 X69.22 Y126.137 E47.89097
G1 X69.205 Y125.075 E47.94042
G1 X69.084 Y122.253 E48.07195
G1 X69.05 Y120.69 E48.14475
G1 X69.049 Y113.062 E48.49994
G1 X69.059 Y112.358 E48.53272
G1 X69.112 Y111.457 E48.57475
G1 X69.244 Y110.563 E48.61683
G1 X69.455 Y109.685 E48.65888
G1 X69.743 Y108.829 E48.70093
G1 X70.105 Y108.002 E48.74297
G1 X70.494 Y107.284 E48.78099
G1 X71.778 Y105.127 E48.89788
G1 X73.005 Y102.931 E49.01501
G1 X74.195 Y100.65 E49.13481
G1 X75.298 Y98.384 E49.25216
G1 X76.342 Y96.075 E49.37016
G1 X77.323 Y93.728 E49.48861
G1 X78.246 Y91.334 E49.60808
G1 X79.082 Y88.969 E49.72488
G1 X79.865 Y86.534 E49.84398
G1 X80.572 Y84.107 E49.96169
G1 X81.213 Y81.644 E50.0802
G1 X81.783 Y79.174 E50.19824
G1 X82.289 Y76.655 E50.31787
G1 X82.716 Y74.17 E50.43528
G1 X83.075 Y71.647 E50.55395
G1 X83.358 Y69.161 E50.67045
G1 X83.578 Y66.591 E50.79056
G1 X83.721 Y64.093 E50.90707
G1 X83.796 Y61.426 E51.0313
G1 X83.812 Y60.356 E51.08113
G1 X83.866 Y59.454 E51.12321
G1 X83.999 Y58.561 E51.16525
G1 X84.21 Y57.683 E51.2073
G1 X84.499 Y56.827 E51.24937
G1 X84.862 Y56 E51.29142
G1 X85.296 Y55.209 E51.33343
G1 X85.799 Y54.458 E51.37552
G1 F1500 E44.87552
G0 F6000 X97.8 Y64.3
G1 F1500 E51.37552
G1 F1200 X138.2 Y64.3 E53.25672
G1 X138.2 Y65.01 E53.28978
G1 X138.021 Y64.93 E53.29891
G1 X137.491 Y64.779 E53.32457
G1 X136.718 Y64.7 E53.36075
G1 X99.282 Y64.7 E55.10393
G1 X98.732 Y64.74 E55.1296
G1 X98.194 Y64.859 E55.15526
G1 X97.8 Y65.009 E55.17489
G1 X97.8 Y64.3 E55.20791
G0 F6000 X97.4 Y63.9
G1 F1200 X138.6 Y63.9 E57.12635
G1 X138.6 Y65.679 E57.20919
G1 X138.284 Y65.482 E57.22653
