;FLAVOR:Marlin
;TIME:838
;Filament used: 0.35924m
;Layer height: 0.2
;MINX:88
;MINY:95.405
;MINZ:0.2
;MAXX:131.999
;MAXY:124.601
;MAXZ:10
;Generated with Cura_SteamEngine 5.2.1
M82 ;absolute extrusion mode
; Ender 3 Custom Start G-code
G92 E0 ; Reset Extruder
G28 ; Home all axes
M104 S175 ; Start heating up the nozzle most of the way
M190 S60 ; Start heating the bed, wait until target temperature reached
M109 S200 ; Finish heating the nozzle
G1 Z2.0 F3000 ; Move Z Axis up little to prevent scratching of Heat Bed
G1 X0.1 Y20 Z0.3 F5000.0 ; Move to start position
G1 X0.1 Y200.0 Z0.3 F1500.0 E15 ; Draw the first line
G1 X0.4 Y200.0 Z0.3 F5000.0 ; Move to side a little
G1 X0.4 Y20 Z0.3 F1500.0 E30 ; Draw the second line
G92 E0 ; Reset Extruder
G1 Z2.0 F3000 ; Move Z Axis up little to prevent scratching of Heat Bed
G1 X5 Y20 Z0.3 F5000.0 ; Move over to prevent blob squish
G92 E0
G92 E0
G1 F1500 E-6.5
;LAYER_COUNT:50
;LAYER:0
M107
G0 F6000 X91.21 Y98.657 Z0.2
;TYPE:SKIRT
G1 F1500 E0
G1 F1200 X91.899 Y98.021 E0.03119
G1 X92.64 Y97.446 E0.06238
G1 X93.427 Y96.936 E0.09357
G1 X94.255 Y96.495 E0.12478
G1 X95.117 Y96.126 E0.15596
G1 X96.008 Y95.832 E0.18717
G1 X96.92 Y95.614 E0.21836
G1 X97.848 Y95.476 E0.24956
G1 X98.704 Y95.418 E0.2781
G1 X99.329 Y95.405 E0.29889
G1 X102.513 Y95.405 E0.40479
G1 X103.184 Y95.416 E0.42711
G1 X104.389 Y95.502 E0.46729
G1 X105.122 Y95.595 E0.49187
G1 X106.453 Y95.784 E0.53658
G1 X108.941 Y96.066 E0.61986
G1 X111.464 Y96.279 E0.70407
G1 X114.42 Y96.439 E0.80253
G1 X115.504 Y96.481 E0.83862
G1 X116.821 Y96.549 E0.88248
G1 X118.851 Y96.603 E0.95002
G1 X120.703 Y96.615 E1.01162
G1 X121.639 Y96.661 E1.04279
G1 X122.569 Y96.787 E1.074
G1 X123.484 Y96.992 E1.10519
G1 X124.379 Y97.274 E1.1364
G1 X125.246 Y97.631 E1.16759
G1 X126.08 Y98.06 E1.19878
G1 X126.874 Y98.559 E1.22997
G1 X127.622 Y99.124 E1.26115
G1 X128.32 Y99.751 E1.29236
G1 X128.962 Y100.435 E1.32356
G1 X129.483 Y101.088 E1.35134
G1 X129.685 Y101.362 E1.36266
G1 X130.209 Y102.14 E1.39386
G1 X130.665 Y102.959 E1.42504
G1 X131.049 Y103.815 E1.45624
G1 X131.359 Y104.7 E1.48743
G1 X131.571 Y105.511 E1.51531
G1 X131.73 Y106.229 E1.53977
G1 X131.893 Y107.152 E1.57095
G1 X131.984 Y108.237 E1.60716
G1 X131.998 Y108.835 E1.62705
G1 X131.999 Y111.121 E1.70309
G1 X131.989 Y111.83 E1.72667
G1 X131.936 Y112.766 E1.75785
G1 X131.803 Y113.695 E1.78907
G1 X131.592 Y114.609 E1.82027
G1 X131.303 Y115.501 E1.85145
G1 X130.94 Y116.366 E1.88265
G1 X130.504 Y117.196 E1.91384
G1 X130.18 Y117.721 E1.93435
G1 X130.03 Y117.949 E1.94343
G1 X129.481 Y118.71 E1.97464
G1 X128.87 Y119.421 E2.00582
G1 X128.2 Y120.078 E2.03703
G1 X127.477 Y120.675 E2.06822
G1 X126.706 Y121.208 E2.09939
G1 X125.892 Y121.674 E2.13059
G1 X125.041 Y122.069 E2.16179
G1 X124.141 Y122.396 E2.19364
G1 X123.27 Y122.67 E2.22401
G1 X122.364 Y122.913 E2.25521
G1 X121.441 Y123.078 E2.2864
G1 X120.225 Y123.174 E2.32697
G1 X119.305 Y123.195 E2.35757
G1 X116.312 Y123.312 E2.4572
G1 X114.257 Y123.425 E2.52565
G1 X111.714 Y123.6 E2.61043
G1 X109.185 Y123.847 E2.69495
G1 X106.734 Y124.156 E2.77711
G1 X105.836 Y124.296 E2.80734
G1 X104.547 Y124.481 E2.85065
G1 X103.296 Y124.588 E2.89241
G1 X102.671 Y124.601 E2.9132
G1 X99.5 Y124.601 E3.01867
G1 X98.843 Y124.591 E3.04053
G1 X97.906 Y124.536 E3.07175
G1 X96.978 Y124.403 E3.10293
G1 X96.065 Y124.19 E3.13411
G1 X95.172 Y123.901 E3.16533
G1 X94.308 Y123.537 E3.19651
G1 X93.478 Y123.1 E3.22771
G1 X92.688 Y122.594 E3.25891
G1 X91.945 Y122.023 E3.29008
G1 X91.252 Y121.39 E3.32129
G1 X90.616 Y120.701 E3.35248
G1 X90.041 Y119.96 E3.38368
G1 X89.531 Y119.173 E3.41487
G1 X89.09 Y118.345 E3.44607
G1 X88.721 Y117.483 E3.47726
G1 X88.427 Y116.593 E3.50843
G1 X88.21 Y115.68 E3.53964
G1 X88.071 Y114.753 E3.57082
G1 X88.015 Y113.914 E3.59879
G1 X88 Y113.25 E3.62088
G1 X88.001 Y106.912 E3.83168
G1 X88.011 Y106.248 E3.85377
G1 X88.065 Y105.312 E3.88495
G1 X88.199 Y104.384 E3.91614
G1 X88.411 Y103.47 E3.94734
G1 X88.701 Y102.578 E3.97854
G1 X89.065 Y101.714 E4.00972
G1 X89.501 Y100.884 E4.04091
G1 X90.007 Y100.094 E4.07211
G1 X90.578 Y99.35 E4.1033
G1 X91.21 Y98.657 E4.1345
G0 F6000 X91.602 Y98.832
G1 F1200 X92.288 Y98.218 E4.16512
G1 X93.024 Y97.666 E4.19572
G1 X93.806 Y97.179 E4.22636
G1 X94.627 Y96.763 E4.25697
G1 X95.481 Y96.419 E4.28759
G1 X96.362 Y96.15 E4.31823
G1 X97.262 Y95.959 E4.34883
G1 X98.176 Y95.847 E4.37946
G1 X98.715 Y95.818 E4.39741
G1 X99.329 Y95.805 E4.41784
G1 X102.507 Y95.805 E4.52354
G1 X103.178 Y95.816 E4.54586
G1 X104.338 Y95.899 E4.58454
G1 X105.071 Y95.992 E4.60911
G1 X106.384 Y96.178 E4.65322
G1 X108.933 Y96.467 E4.73854
G1 X111.408 Y96.677 E4.82116
G1 X114.444 Y96.841 E4.92228
G1 X115.632 Y96.887 E4.96183
G1 X116.827 Y96.949 E5.00163
G1 X118.839 Y97.003 E5.06857
G1 X120.7 Y97.015 E5.13047
G1 X121.619 Y97.061 E5.16107
G1 X122.531 Y97.187 E5.19169
G1 X123.429 Y97.392 E5.22233
G1 X124.306 Y97.673 E5.25296
G1 X125.155 Y98.03 E5.28359
G1 X125.969 Y98.458 E5.31418
G1 X126.744 Y98.956 E5.34482
G1 X127.472 Y99.52 E5.37545
G1 X128.148 Y100.144 E5.40605
G1 X128.768 Y100.825 E5.43668
G1 X129.161 Y101.325 E5.45783
G1 X129.363 Y101.599 E5.46915
G1 X129.877 Y102.363 E5.49978
G1 X130.322 Y103.169 E5.5304
G1 X130.696 Y104.01 E5.56102
G1 X130.995 Y104.881 E5.59164
G1 X131.18 Y105.597 E5.61624
G1 X131.339 Y106.315 E5.6407
G1 X131.499 Y107.222 E5.67133
G1 X131.584 Y108.251 E5.70567
G1 X131.598 Y108.835 E5.7251
G1 X131.599 Y111.115 E5.80094
G1 X131.589 Y111.824 E5.82452
G1 X131.536 Y112.744 E5.85517
G1 X131.403 Y113.655 E5.88579
G1 X131.192 Y114.551 E5.91641
G1 X130.904 Y115.425 E5.94701
G1 X130.542 Y116.271 E5.97762
G1 X130.107 Y117.083 E6.00826
G1 X129.695 Y117.729 E6.03374
G1 X129.156 Y118.475 E6.06435
G1 X128.555 Y119.172 E6.09496
G1 X127.895 Y119.814 E6.12559
G1 X127.182 Y120.397 E6.15622
G1 X126.421 Y120.915 E6.18684
G1 X125.618 Y121.365 E6.21745
G1 X124.779 Y121.744 E6.24808
G1 X124.021 Y122.014 E6.27484
G1 X123.15 Y122.288 E6.30521
G1 X122.26 Y122.526 E6.33585
G1 X121.354 Y122.686 E6.36645
G1 X120.216 Y122.774 E6.40441
G1 X119.282 Y122.796 E6.43549
G1 X116.273 Y122.913 E6.53564
G1 X114.281 Y123.022 E6.60199
G1 X111.681 Y123.201 E6.68868
G1 X109.168 Y123.447 E6.77266
G1 X106.655 Y123.764 E6.8569
G1 X105.774 Y123.901 E6.88656
G1 X104.491 Y124.085 E6.92967
G1 X103.285 Y124.188 E6.96992
G1 X102.671 Y124.201 E6.99035
G1 X99.506 Y124.201 E7.09562
G1 X98.849 Y124.191 E7.11747
G1 X97.93 Y124.137 E7.14809
G1 X97.019 Y124.003 E7.17872
G1 X96.123 Y123.791 E7.20934
G1 X95.249 Y123.502 E7.23996
G1 X94.403 Y123.138 E7.27059
G1 X93.592 Y122.703 E7.3012
G1 X92.822 Y122.198 E7.33183
G1 X92.098 Y121.629 E7.36245
G1 X91.427 Y120.999 E7.39307
G1 X90.813 Y120.313 E7.42369
G1 X90.261 Y119.576 E7.45431
G1 X89.774 Y118.794 E7.48495
G1 X89.358 Y117.973 E7.51557
G1 X89.014 Y117.119 E7.54619
G1 X88.746 Y116.239 E7.57678
G1 X88.555 Y115.338 E7.60742
G1 X88.443 Y114.424 E7.63805
G1 X88.415 Y113.902 E7.65543
G1 X88.4 Y113.25 E7.67712
G1 X88.401 Y106.918 E7.88773
G1 X88.411 Y106.254 E7.90981
G1 X88.465 Y105.335 E7.94043
G1 X88.598 Y104.424 E7.97105
G1 X88.81 Y103.528 E8.00168
G1 X89.099 Y102.654 E8.03229
G1 X89.463 Y101.808 E8.06293
G1 X89.898 Y100.997 E8.09354
G1 X90.403 Y100.227 E8.12416
G1 X90.972 Y99.504 E8.15476
G1 X91.602 Y98.832 E8.1854
G0 F6000 X91.993 Y99.011
G1 F1200 X92.676 Y98.419 E8.21546
G1 X93.408 Y97.89 E8.2455
G1 X94.183 Y97.428 E8.27551
G1 X94.997 Y97.037 E8.30555
G1 X95.842 Y96.718 E8.33559
G1 X96.712 Y96.476 E8.36562
G1 X97.6 Y96.312 E8.39566
G1 X98.726 Y96.218 E8.43324
G1 X99.33 Y96.205 E8.45333
G1 X102.5 Y96.205 E8.55877
G1 X103.171 Y96.216 E8.58109
G1 X104.288 Y96.296 E8.61833
G1 X105.021 Y96.389 E8.64291
G1 X106.354 Y96.578 E8.68769
G1 X108.853 Y96.861 E8.77134
G1 X111.421 Y97.078 E8.85705
G1 X114.342 Y97.237 E8.95435
G1 X115.474 Y97.28 E8.99203
G1 X116.798 Y97.349 E9.03612
G1 X118.825 Y97.402 E9.10356
G1 X120.697 Y97.415 E9.16583
G1 X121.599 Y97.461 E9.19587
G1 X122.494 Y97.587 E9.22593
G1 X123.373 Y97.791 E9.25594
G1 X124.231 Y98.072 E9.28597
G1 X125.061 Y98.428 E9.31601
G1 X125.857 Y98.856 E9.34607
G1 X126.611 Y99.353 E9.3761
G1 X127.318 Y99.915 E9.40614
G1 X127.973 Y100.537 E9.43619
G1 X128.839 Y101.562 E9.48082
G1 X129.041 Y101.836 E9.49214
G1 X129.544 Y102.586 E9.52218
G1 X129.979 Y103.378 E9.55223
G1 X130.342 Y104.205 E9.58227
G1 X130.631 Y105.06 E9.61229
G1 X130.79 Y105.684 E9.6337
G1 X130.949 Y106.402 E9.65816
G1 X131.105 Y107.291 E9.68818
G1 X131.184 Y108.264 E9.72065
G1 X131.198 Y108.835 E9.73965
G1 X131.2 Y110.956 E9.81019
G1 X131.189 Y111.819 E9.8389
G1 X131.136 Y112.72 E9.86892
G1 X131.004 Y113.614 E9.89898
G1 X130.793 Y114.492 E9.92901
G1 X130.506 Y115.348 E9.95904
G1 X130.144 Y116.175 E9.98906
G1 X129.511 Y117.281 E10.03145
G1 X129.361 Y117.509 E10.04053
G1 X128.832 Y118.241 E10.07056
G1 X128.24 Y118.923 E10.1006
G1 X127.59 Y119.55 E10.13064
G1 X126.887 Y120.117 E10.16068
G1 X126.137 Y120.62 E10.19071
G1 X125.345 Y121.054 E10.22075
G1 X124.518 Y121.417 E10.25079
G1 X123.901 Y121.633 E10.27253
G1 X123.03 Y121.907 E10.3029
G1 X122.157 Y122.14 E10.33296
G1 X121.267 Y122.294 E10.363
G1 X120.206 Y122.374 E10.39839
G1 X119.257 Y122.396 E10.42996
G1 X116.299 Y122.512 E10.52842
G1 X114.23 Y122.625 E10.59734
G1 X111.65 Y122.802 E10.68335
G1 X109.115 Y123.05 E10.76806
G1 X106.581 Y123.37 E10.85302
G1 X105.587 Y123.524 E10.88647
G1 X104.434 Y123.689 E10.92521
G1 X103.274 Y123.788 E10.96393
G1 X102.67 Y123.801 E10.98403
G1 X99.512 Y123.801 E11.08906
G1 X98.855 Y123.791 E11.11092
G1 X97.953 Y123.737 E11.14097
G1 X97.06 Y123.604 E11.171
G1 X96.182 Y123.392 E11.20104
G1 X95.326 Y123.104 E11.23108
G1 X94.499 Y122.74 E11.26113
G1 X93.708 Y122.306 E11.29114
G1 X92.958 Y121.803 E11.32118
G1 X92.255 Y121.235 E11.35124
G1 X91.606 Y120.608 E11.38125
G1 X91.014 Y119.925 E11.41131
G1 X90.485 Y119.193 E11.44135
G1 X90.023 Y118.417 E11.47139
G1 X89.632 Y117.603 E11.50142
G1 X89.314 Y116.758 E11.53145
G1 X89.072 Y115.888 E11.56149
G1 X88.908 Y115 E11.59152
G1 X88.814 Y113.89 E11.62857
G1 X88.8 Y113.25 E11.64987
G1 X88.801 Y106.924 E11.86027
G1 X88.811 Y106.26 E11.88236
G1 X88.865 Y105.359 E11.91238
G1 X88.998 Y104.466 E11.94241
G1 X89.209 Y103.588 E11.97244
G1 X89.498 Y102.732 E12.00249
G1 X89.861 Y101.905 E12.03253
G1 X90.295 Y101.113 E12.06257
G1 X90.799 Y100.363 E12.09262
G1 X91.366 Y99.661 E12.12263
G1 X91.993 Y99.011 E12.15267
G1 F1500 E5.65267
G0 F6000 X110.854 Y109.965
G1 F1500 E12.15267
G1 F1200 X111.011 Y109.969 E12.1579
G1 X110.91 Y109.977 E12.16127
G1 X110.854 Y109.965 E12.16317
G0 F6000 X110.878 Y110.381
G1 F1200 X110.478 Y110.292 E12.1768
G1 X110.028 Y110.301 E12.19177
G1 X108.344 Y110.547 E12.24837
G1 X108.162 Y110.481 E12.25481
G1 X107.791 Y110.429 E12.26727
G1 X106.094 Y110.37 E12.32375
G1 X105.6 Y110.402 E12.34022
G1 X105.6 Y109.445 E12.37205
G1 X107.522 Y109.575 E12.43612
G1 X108.734 Y109.519 E12.47647
G1 X109.136 Y109.451 E12.49003
G1 X109.558 Y109.525 E12.50428
G1 X111.508 Y109.583 E12.56917
G1 X112.03 Y109.579 E12.58653
G1 X114.28 Y109.25 E12.66216
G1 X115.806 Y109.455 E12.71337
G1 X116.184 Y109.466 E12.72595
G1 X116.544 Y109.438 E12.73796
G1 X116.869 Y109.58 E12.74976
G1 X117.24 Y109.655 E12.76235
G1 X117.618 Y109.651 E12.77492
G1 X119.2 Y109.467 E12.82789
G1 X119.2 Y110.397 E12.85882
G1 X117.425 Y110.408 E12.91786
G1 X116.394 Y110.36 E12.95219
G1 X114.908 Y110.48 E13.00177
G1 X114.68 Y110.385 E13.00999
G1 X114.308 Y110.316 E13.02257
G1 X113.935 Y110.326 E13.03498
G1 X112.397 Y110.528 E13.08658
G1 X112.14 Y110.415 E13.09591
G1 X111.769 Y110.339 E13.10851
G1 X111.451 Y110.336 E13.11909
G1 X110.878 Y110.381 E13.1382
G0 F6000 X110.724 Y110.752
G1 F1200 X110.397 Y110.686 E13.1493
G1 X110.086 Y110.697 E13.15965
G1 X108.305 Y110.957 E13.21951
G1 X108.027 Y110.86 E13.22931
G1 X107.778 Y110.829 E13.23765
G1 X106.096 Y110.771 E13.29363
G1 X105.2 Y110.828 E13.32349
G1 X105.2 Y109.005 E13.38412
G1 X105.562 Y109.041 E13.39622
G1 X107.53 Y109.175 E13.46183
G1 X108.715 Y109.12 E13.50129
G1 X109.133 Y109.049 E13.51539
G1 X109.571 Y109.125 E13.53017
G1 X111.505 Y109.183 E13.59453
G1 X111.999 Y109.179 E13.61096
G1 X114.279 Y108.845 E13.6876
G1 X115.859 Y109.058 E13.74063
G1 X116.154 Y109.067 E13.75044
G1 X116.631 Y109.03 E13.76636
G1 X116.719 Y109.08 E13.76972
G1 X117.027 Y109.21 E13.78084
G1 X117.419 Y109.272 E13.79404
G1 X119.6 Y109.018 E13.86707
G1 X119.599 Y110.672 E13.92209
G1 X119.399 Y110.796 E13.92991
G1 X117.409 Y110.808 E13.9961
G1 X116.4 Y110.761 E14.0297
G1 X115.048 Y110.87 E14.07481
G1 X114.892 Y110.902 E14.08011
G1 X114.529 Y110.758 E14.0931
G1 X114.14 Y110.703 E14.10616
G1 X112.346 Y110.939 E14.16635
G1 X111.981 Y110.785 E14.17952
G1 X111.608 Y110.724 E14.19209
G1 X110.827 Y110.786 E14.21815
G1 X110.724 Y110.752 E14.22176
G0 F6000 X110.6 Y111.132
G1 F1200 X110.269 Y111.074 E14.23294
G1 X108.248 Y111.369 E14.30087
G1 X108.167 Y111.329 E14.30387
G1 X107.764 Y111.229 E14.31768
G1 X106.053 Y111.174 E14.37462
G1 X105.371 Y111.218 E14.39735
G1 X104.8 Y111.215 E14.41634
G1 X104.8 Y108.586 E14.50378
G1 X105.26 Y108.607 E14.5191
G1 X105.639 Y108.646 E14.53177
G1 X107.531 Y108.774 E14.59484
G1 X108.697 Y108.72 E14.63367
G1 X109.134 Y108.621 E14.64857
G1 X109.301 Y108.676 E14.65442
G1 X109.583 Y108.726 E14.66394
G1 X111.464 Y108.783 E14.72653
G1 X111.966 Y108.78 E14.74323
G1 X114.275 Y108.442 E14.82085
G1 X116.018 Y108.676 E14.87934
G1 X116.72 Y108.622 E14.90276
G1 X116.916 Y108.733 E14.91025
G1 X117.179 Y108.836 E14.91964
G1 X117.526 Y108.856 E14.9312
G1 X119.584 Y108.617 E15.00011
G1 X119.903 Y108.669 E15.01086
G1 X120 Y108.874 E15.0184
G1 X120 Y110.938 E15.08705
G1 X119.811 Y111.012 E15.0938
G1 X119.516 Y111.196 E15.10537
G1 X117.412 Y111.208 E15.17535
G1 X116.406 Y111.161 E15.20885
G1 X115.081 Y111.268 E15.25306
G1 X114.818 Y111.325 E15.26201
G1 X114.648 Y111.233 E15.26844
G1 X114.384 Y111.134 E15.27782
G1 X114.04 Y111.12 E15.28927
G1 X112.253 Y111.355 E15.34921
G1 X112.09 Y111.262 E15.35546
G1 X111.827 Y111.158 E15.36486
G1 X111.514 Y111.133 E15.37531
G1 X110.78 Y111.191 E15.3998
G1 X110.6 Y111.132 E15.4061
G0 F6000 X110.475 Y111.512
G1 F1200 X110.201 Y111.488 E15.41524
G1 X108.184 Y111.782 E15.48304
G1 X107.75 Y111.628 E15.49835
G1 X106.138 Y111.572 E15.552
G1 X105.38 Y111.618 E15.57726
G1 X104.4 Y111.613 E15.60986
G1 X104.4 Y108.166 E15.7245
G1 X105.284 Y108.208 E15.75394
G1 X105.666 Y108.247 E15.76671
G1 X107.503 Y108.371 E15.82795
G1 X108.752 Y108.317 E15.86953
G1 X109.138 Y108.202 E15.88292
G1 X109.51 Y108.323 E15.89594
G1 X111.499 Y108.383 E15.96212
G1 X111.98 Y108.374 E15.97812
G1 X114.273 Y108.038 E16.0552
G1 X116.026 Y108.274 E16.11403
G1 X116.812 Y108.213 E16.14025
G1 X117.114 Y108.385 E16.15181
G1 X117.367 Y108.472 E16.16071
G1 X119.605 Y108.212 E16.23565
G1 X119.89 Y108.274 E16.24535
G1 X120.217 Y108.267 E16.25623
G1 X120.236 Y108.451 E16.26238
G1 X120.4 Y108.768 E16.27425
G1 X120.4 Y111.264 E16.35727
G1 X120.126 Y111.288 E16.36642
G1 X119.631 Y111.595 E16.38579
G1 X117.395 Y111.608 E16.46016
G1 X116.376 Y111.565 E16.49408
G1 X115.113 Y111.667 E16.53623
G1 X114.78 Y111.76 E16.54773
G1 X114.457 Y111.584 E16.55996
G1 X114.204 Y111.501 E16.56882
G1 X112.17 Y111.769 E16.63705
G1 X111.891 Y111.609 E16.64775
G1 X111.647 Y111.524 E16.65634
G1 X110.733 Y111.597 E16.68684
G1 X110.475 Y111.512 E16.69587
G0 F6000 X110.305 Y111.877
G1 F1200 X108.121 Y112.196 E16.76928
G1 X107.779 Y112.029 E16.78194
G1 X106.104 Y111.972 E16.83769
G1 X105.389 Y112.018 E16.86152
G1 X103.284 Y112.008 E16.93153
G1 X103.142 Y112.066 E16.93663
G1 X102.859 Y112.348 E16.94992
G1 X102.8 Y112.49 E16.95503
G1 X102.8 Y113.401 E16.98533
G1 X99.2 Y113.402 E17.10507
G1 X99.2 Y112.002 E17.15163
G1 X103.8 Y112.001 E17.30463
G1 X103.919 Y111.962 E17.3088
G1 X104 Y111.801 E17.31479
G1 X104 Y108.198 E17.43463
G1 X103.961 Y108.079 E17.43879
G1 X103.8 Y107.998 E17.44479
G1 X99.2 Y107.999 E17.59778
G1 X99.2 Y106.605 E17.64415
G1 X102.8 Y106.604 E17.76388
G1 X102.8 Y107.226 E17.78457
G1 X102.855 Y107.364 E17.78951
G1 X103.13 Y107.652 E17.80276
G1 X103.266 Y107.714 E17.80773
G1 X105.326 Y107.81 E17.87632
G1 X105.693 Y107.848 E17.88859
G1 X107.53 Y107.972 E17.94983
