;FLAVOR:Marlin
;TIME:4845
;Filament used: 3.43056m
;Layer height: 0.2
;MINX:74
;MINY:84
;MINZ:0.2
;MAXX:146
;MAXY:136
;MAXZ:6
;Generated with Cura_SteamEngine 5.2.1
M82 ;absolute extrusion mode
; Ender 3 Custom Start G-code
G92 E0 ; Reset Extruder
G28 ; Home all axes
M104 S175 ; Start heating up the nozzle most of the way
M190 S60 ; Start heating the bed, wait until target temperature reached
M109 S200 ; Finish heating the nozzle
G1 Z2.0 F3000 ; Move Z Axis up little to prevent scratching of Heat Bed
G1 X0.1 Y20 Z0.3 F5000.0 ; Move to start position
G1 X0.1 Y200.0 Z0.3 F1500.0 E15 ; Draw the first line
G1 X0.4 Y200.0 Z0.3 F5000.0 ; Move to side a little
G1 X0.4 Y20 Z0.3 F1500.0 E30 ; Draw the second line
G92 E0 ; Reset Extruder
G1 Z2.0 F3000 ; Move Z Axis up little to prevent scratching of Heat Bed
G1 X5 Y20 Z0.3 F5000.0 ; Move over to prevent blob squish
G92 E0
G92 E0
G1 F1500 E-6.5
;LAYER_COUNT:30
;LAYER:0
M107
G0 F6000 X80.349 Y87.111 Z0.2
;TYPE:SKIRT
G1 F1500 E0
G1 F1200 X81.049 Y86.487 E0.03119
G1 X81.801 Y85.926 E0.06239
G1 X82.597 Y85.431 E0.09357
G1 X83.433 Y85.005 E0.12478
G1 X84.302 Y84.652 E0.15598
G1 X85.197 Y84.374 E0.18715
G1 X86.114 Y84.174 E0.21836
G1 X87.043 Y84.052 E0.24953
G1 X87.807 Y84.012 E0.27497
G1 X88.562 Y84 E0.30009
G1 X131.45 Y84.001 E1.72655
G1 X132.151 Y84.011 E1.74986
G1 X133.087 Y84.064 E1.78105
G1 X134.016 Y84.197 E1.81226
G1 X134.929 Y84.409 E1.84343
G1 X135.822 Y84.697 E1.87464
G1 X136.686 Y85.061 E1.90583
G1 X137.517 Y85.497 E1.93704
G1 X138.307 Y86.002 E1.96822
G1 X139.051 Y86.572 E1.9994
G1 X139.448 Y86.921 E2.01698
G1 X139.919 Y87.366 E2.03853
G1 X142.291 Y89.734 E2.15001
G1 X142.897 Y90.359 E2.17896
G1 X143.52 Y91.06 E2.21015
G1 X144.08 Y91.812 E2.24134
G1 X144.575 Y92.609 E2.27254
G1 X145 Y93.445 E2.30374
G1 X145.352 Y94.314 E2.33492
G1 X145.629 Y95.21 E2.36611
G1 X145.828 Y96.127 E2.39732
G1 X145.949 Y97.057 E2.42851
G1 X145.988 Y97.809 E2.45356
G1 X146 Y98.563 E2.47864
G1 X145.999 Y121.45 E3.23987
G1 X145.989 Y122.152 E3.26322
G1 X145.936 Y123.088 E3.2944
G1 X145.803 Y124.016 E3.32558
G1 X145.591 Y124.93 E3.35679
G1 X145.303 Y125.823 E3.38799
G1 X144.939 Y126.687 E3.41918
G1 X144.503 Y127.518 E3.45039
G1 X143.998 Y128.308 E3.48157
G1 X143.428 Y129.052 E3.51275
G1 X143.055 Y129.476 E3.53153
G1 X142.634 Y129.919 E3.55186
G1 X140.274 Y132.283 E3.66296
G1 X139.652 Y132.887 E3.69179
G1 X138.952 Y133.511 E3.72298
G1 X138.201 Y134.072 E3.75416
G1 X137.404 Y134.568 E3.78538
G1 X136.569 Y134.994 E3.81656
G1 X135.7 Y135.347 E3.84776
G1 X134.804 Y135.625 E3.87896
G1 X133.888 Y135.826 E3.91015
G1 X132.958 Y135.948 E3.94135
G1 X132.192 Y135.988 E3.96686
G1 X131.438 Y136 E3.99194
G1 X88.55 Y135.999 E5.4184
G1 X87.849 Y135.989 E5.44172
G1 X86.913 Y135.936 E5.4729
G1 X85.984 Y135.803 E5.50412
G1 X85.071 Y135.591 E5.53529
G1 X84.178 Y135.303 E5.5665
G1 X83.314 Y134.939 E5.59768
G1 X82.483 Y134.503 E5.62889
G1 X81.693 Y133.998 E5.66008
G1 X80.949 Y133.428 E5.69125
G1 X80.552 Y133.079 E5.70883
G1 X80.081 Y132.634 E5.73038
G1 X77.709 Y130.266 E5.84186
G1 X77.111 Y129.65 E5.87042
G1 X76.487 Y128.95 E5.90161
G1 X75.926 Y128.198 E5.93281
G1 X75.431 Y127.402 E5.96399
G1 X75.005 Y126.566 E5.9952
G1 X74.652 Y125.697 E6.02639
G1 X74.374 Y124.802 E6.05756
G1 X74.174 Y123.885 E6.08878
G1 X74.052 Y122.956 E6.11994
G1 X74.012 Y122.192 E6.14539
G1 X74 Y121.438 E6.17047
G1 X74.001 Y98.55 E6.93173
G1 X74.011 Y97.848 E6.95508
G1 X74.064 Y96.912 E6.98626
G1 X74.197 Y95.984 E7.01744
G1 X74.409 Y95.07 E7.04865
G1 X74.697 Y94.177 E7.07986
G1 X75.061 Y93.313 E7.11104
G1 X75.497 Y92.482 E7.14225
G1 X76.002 Y91.692 E7.17344
G1 X76.572 Y90.948 E7.20461
G1 X76.945 Y90.524 E7.22339
G1 X77.365 Y90.083 E7.24365
G1 X79.732 Y87.711 E7.3551
G1 X80.349 Y87.111 E7.38373
G0 F6000 X80.627 Y87.398
G1 F1200 X81.315 Y86.787 E7.41433
G1 X82.054 Y86.237 E7.44497
G1 X82.838 Y85.754 E7.4756
G1 X83.66 Y85.341 E7.50619
G1 X84.516 Y85 E7.53684
G1 X85.398 Y84.735 E7.56747
G1 X86.299 Y84.548 E7.59808
G1 X87.213 Y84.44 E7.62869
G1 X87.814 Y84.412 E7.6487
G1 X88.562 Y84.4 E7.67358
G1 X131.293 Y84.4 E9.09482
G1 X132.145 Y84.411 E9.12316
G1 X133.064 Y84.464 E9.15378
G1 X133.975 Y84.597 E9.1844
G1 X134.871 Y84.808 E9.21501
G1 X135.746 Y85.096 E9.24565
G1 X136.592 Y85.459 E9.27627
G1 X137.403 Y85.894 E9.30688
G1 X138.174 Y86.398 E9.33752
G1 X139.177 Y87.215 E9.38054
G1 X139.636 Y87.649 E9.40155
G1 X142.008 Y90.017 E9.51303
G1 X142.609 Y90.637 E9.54175
G1 X143.22 Y91.326 E9.57238
G1 X143.769 Y92.065 E9.603
G1 X144.251 Y92.849 E9.63361
G1 X144.664 Y93.672 E9.66424
G1 X145.003 Y94.528 E9.69486
G1 X145.267 Y95.41 E9.72548
G1 X145.454 Y96.312 E9.75612
G1 X145.561 Y97.226 E9.78673
G1 X145.588 Y97.816 E9.80637
G1 X145.6 Y98.563 E9.83122
G1 X145.599 Y121.444 E10.59224
G1 X145.589 Y122.146 E10.61559
G1 X145.536 Y123.065 E10.64621
G1 X145.403 Y123.976 E10.67683
G1 X145.192 Y124.872 E10.70745
G1 X144.904 Y125.747 E10.73809
G1 X144.541 Y126.593 E10.76871
G1 X144.106 Y127.404 E10.79931
G1 X143.602 Y128.175 E10.82995
G1 X142.761 Y129.204 E10.87415
G1 X142.351 Y129.636 E10.89396
G1 X139.991 Y132 E11.00506
G1 X139.374 Y132.6 E11.03369
G1 X138.686 Y133.212 E11.06431
G1 X137.947 Y133.761 E11.09493
G1 X137.164 Y134.245 E11.12555
G1 X136.341 Y134.658 E11.15618
G1 X135.486 Y134.999 E11.18679
G1 X134.604 Y135.264 E11.21742
G1 X133.703 Y135.452 E11.24804
G1 X132.789 Y135.56 E11.27865
G1 X132.185 Y135.588 E11.29876
G1 X131.438 Y135.6 E11.32361
G1 X88.556 Y135.599 E12.74987
G1 X87.855 Y135.589 E12.77319
G1 X86.936 Y135.536 E12.8038
G1 X86.025 Y135.403 E12.83442
G1 X85.129 Y135.192 E12.86504
G1 X84.254 Y134.904 E12.89568
G1 X83.408 Y134.541 E12.9263
G1 X82.597 Y134.106 E12.95691
G1 X81.826 Y133.602 E12.98754
G1 X80.823 Y132.785 E13.03057
G1 X80.364 Y132.351 E13.05158
G1 X77.992 Y129.983 E13.16306
G1 X77.398 Y129.372 E13.1914
G1 X76.787 Y128.684 E13.222
G1 X76.237 Y127.945 E13.25264
G1 X75.754 Y127.161 E13.28327
G1 X75.341 Y126.339 E13.31387
G1 X75 Y125.483 E13.34451
G1 X74.735 Y124.601 E13.37514
G1 X74.548 Y123.7 E13.40575
G1 X74.44 Y122.786 E13.43636
G1 X74.412 Y122.185 E13.45637
G1 X74.4 Y121.438 E13.48122
G1 X74.401 Y98.556 E14.24228
G1 X74.411 Y97.854 E14.26563
G1 X74.464 Y96.935 E14.29625
G1 X74.597 Y96.024 E14.32687
G1 X74.808 Y95.128 E14.35749
G1 X75.096 Y94.253 E14.38812
G1 X75.459 Y93.407 E14.41874
G1 X75.894 Y92.596 E14.44935
G1 X76.398 Y91.825 E14.47999
G1 X77.239 Y90.796 E14.52419
G1 X77.648 Y90.366 E14.54393
G1 X80.141 Y87.869 E14.66128
G1 X80.627 Y87.398 E14.68379
G0 F6000 X80.905 Y87.685
G1 F1200 X81.581 Y87.086 E14.71384
G1 X82.307 Y86.549 E14.74387
G1 X83.078 Y86.078 E14.77392
G1 X83.887 Y85.678 E14.80394
G1 X84.729 Y85.35 E14.83399
G1 X85.596 Y85.098 E14.86402
G1 X86.482 Y84.924 E14.89405
G1 X87.821 Y84.812 E14.93874
G1 X88.562 Y84.8 E14.96339
G1 X131.293 Y84.8 E16.38463
G1 X132.139 Y84.811 E16.41277
G1 X133.041 Y84.864 E16.44282
G1 X133.934 Y84.996 E16.47285
G1 X134.813 Y85.207 E16.50291
G1 X135.669 Y85.495 E16.53295
G1 X136.496 Y85.857 E16.56298
G1 X137.288 Y86.291 E16.59302
G1 X138.038 Y86.794 E16.62305
G1 X138.906 Y87.509 E16.66046
G1 X139.353 Y87.932 E16.68092
G1 X141.725 Y90.3 E16.7924
G1 X142.322 Y90.915 E16.82091
G1 X142.92 Y91.591 E16.85093
G1 X143.457 Y92.318 E16.88099
G1 X143.927 Y93.089 E16.91102
G1 X144.327 Y93.899 E16.94107
G1 X144.653 Y94.741 E16.9711
G1 X144.904 Y95.608 E17.00112
G1 X145.077 Y96.495 E17.03118
G1 X145.188 Y97.823 E17.0755
G1 X145.2 Y98.563 E17.10012
G1 X145.199 Y121.438 E17.86094
G1 X145.189 Y122.14 E17.88429
G1 X145.136 Y123.042 E17.91435
G1 X145.004 Y123.935 E17.94437
G1 X144.793 Y124.813 E17.9744
G1 X144.505 Y125.669 E18.00444
G1 X144.143 Y126.497 E18.0345
G1 X143.709 Y127.289 E18.06454
G1 X143.206 Y128.039 E18.09457
G1 X142.468 Y128.932 E18.1331
G1 X142.068 Y129.353 E18.15242
G1 X139.708 Y131.717 E18.26352
G1 X139.095 Y132.313 E18.29196
G1 X138.42 Y132.912 E18.32197
G1 X137.694 Y133.449 E18.35201
G1 X136.923 Y133.92 E18.38206
G1 X136.114 Y134.321 E18.41209
G1 X135.273 Y134.649 E18.44211
G1 X134.405 Y134.901 E18.47218
G1 X133.519 Y135.075 E18.50221
G1 X132.178 Y135.188 E18.54697
G1 X131.438 Y135.2 E18.57158
G1 X88.562 Y135.199 E19.99764
G1 X87.861 Y135.189 E20.02096
G1 X86.959 Y135.136 E20.05101
G1 X86.066 Y135.004 E20.08104
G1 X85.187 Y134.793 E20.1111
G1 X84.331 Y134.505 E20.14114
G1 X83.504 Y134.143 E20.17117
G1 X82.712 Y133.709 E20.20121
G1 X81.962 Y133.206 E20.23124
G1 X81.094 Y132.491 E20.26865
G1 X80.647 Y132.068 E20.28911
G1 X78.156 Y129.58 E20.40621
G1 X77.685 Y129.094 E20.42872
G1 X77.086 Y128.418 E20.45876
G1 X76.549 Y127.692 E20.4888
G1 X76.078 Y126.921 E20.51885
G1 X75.678 Y126.112 E20.54886
G1 X75.35 Y125.27 E20.57892
G1 X75.098 Y124.403 E20.60895
G1 X74.924 Y123.517 E20.63898
G1 X74.812 Y122.178 E20.68367
G1 X74.8 Y121.438 E20.70829
G1 X74.801 Y98.562 E21.46915
G1 X74.811 Y97.86 E21.4925
G1 X74.864 Y96.958 E21.52255
G1 X74.996 Y96.065 E21.55257
G1 X75.207 Y95.187 E21.58261
G1 X75.495 Y94.331 E21.61265
G1 X75.857 Y93.503 E21.6427
G1 X76.291 Y92.711 E21.67274
G1 X76.794 Y91.961 E21.70278
G1 X77.532 Y91.068 E21.74131
G1 X77.931 Y90.648 E21.76058
G1 X80.419 Y88.156 E21.8777
G1 X80.905 Y87.685 E21.90021
G1 F1500 E15.40021
;MESH:stopper.stl
G0 F6000 X84.652 Y97.408
G0 X88.25 Y124.4
;TYPE:WALL-INNER
G1 F1500 E21.90021
G1 F1200 X131.75 Y124.4 E23.34702
G1 X134.4 Y121.75 E23.47167
G1 X134.4 Y100.123 E24.19099
G1 X134.4 Y98.25 E24.25328
G1 X131.75 Y95.6 E24.37793
G1 X88.25 Y95.6 E25.82475
G1 X85.6 Y98.25 E25.9494
G1 X85.6 Y121.75 E26.73101
G1 X88.25 Y124.4 E26.85566
G0 F6000 X88.084 Y124.8
;TYPE:WALL-OUTER
G1 F1200 X131.916 Y124.8 E28.31352
G1 X134.8 Y121.916 E28.44917
G1 X134.8 Y100.123 E29.17401
G1 X134.8 Y98.084 E29.24183
G1 X131.916 Y95.2 E29.37748
G1 X88.084 Y95.2 E30.83534
G1 X85.2 Y98.084 E30.97099
G1 X85.2 Y121.916 E31.76365
G1 X88.084 Y124.8 E31.8993
G0 F6000 X88.4 Y124.04
;TYPE:SKIN
G1 F1200 X131.6 Y124.04 E33.33614
G1 X134.04 Y121.6 E33.45091
G1 X134.04 Y100.125 E34.16517
G1 X134.04 Y98.4 E34.22255
G1 X131.6 Y95.96 E34.33732
G1 X88.4 Y95.96 E35.77415
G1 X85.96 Y98.4 E35.88892
G1 X85.96 Y121.6 E36.66056
G1 X88.4 Y124.04 E36.77533
G0 F6000 X88.767 Y123.839
G1 F1200 X86.159 Y121.232 E36.89798
G0 F6000 X86.159 Y120.666
G1 F1200 X89.333 Y123.839 E37.04725
G0 F6000 X89.898 Y123.839
G1 F1200 X86.159 Y120.1 E37.22312
G0 F6000 X86.159 Y119.534
G1 F1200 X90.464 Y123.839 E37.42562
G0 F6000 X91.03 Y123.839
G1 F1200 X86.159 Y118.969 E37.65471
G0 F6000 X86.159 Y118.403
G1 F1200 X91.595 Y123.839 E37.9104
G0 F6000 X92.161 Y123.839
G1 F1200 X86.159 Y117.837 E38.19272
G0 F6000 X86.159 Y117.272
G1 F1200 X92.727 Y123.839 E38.50163
G0 F6000 X93.292 Y123.839
G1 F1200 X86.159 Y116.706 E38.83715
G0 F6000 X86.159 Y116.14
G1 F1200 X93.858 Y123.839 E39.19928
G0 F6000 X94.424 Y123.839
G1 F1200 X86.159 Y115.575 E39.58802
G0 F6000 X86.159 Y115.009
G1 F1200 X94.989 Y123.839 E40.00336
G0 F6000 X95.555 Y123.839
G1 F1200 X86.159 Y114.443 E40.44532
G0 F6000 X86.159 Y113.878
G1 F1200 X96.121 Y123.839 E40.91387
G0 F6000 X96.686 Y123.839
G1 F1200 X86.159 Y113.312 E41.40903
G0 F6000 X86.159 Y112.746
G1 F1200 X97.252 Y123.839 E41.93081
G0 F6000 X97.818 Y123.839
G1 F1200 X86.159 Y112.181 E42.47919
G0 F6000 X86.159 Y111.615
G1 F1200 X98.384 Y123.839 E43.0542
G0 F6000 X98.949 Y123.839
G1 F1200 X86.159 Y111.049 E43.6558
G0 F6000 X86.159 Y110.484
G1 F1200 X99.515 Y123.839 E44.284
G0 F6000 X100.081 Y123.839
G1 F1200 X86.159 Y109.918 E44.93882
G0 F6000 X86.159 Y109.352
G1 F1200 X100.646 Y123.839 E45.62025
G0 F6000 X101.212 Y123.839
G1 F1200 X86.159 Y108.786 E46.3283
G0 F6000 X86.159 Y108.221
G1 F1200 X101.778 Y123.839 E47.06294
G0 F6000 X102.343 Y123.839
G1 F1200 X86.159 Y107.655 E47.82419
G0 F6000 X86.159 Y107.089
G1 F1200 X102.909 Y123.839 E48.61206
G0 F6000 X103.475 Y123.839
G1 F1200 X86.159 Y106.524 E49.42652
G0 F6000 X86.159 Y105.958
G1 F1200 X104.04 Y123.839 E50.26759
G0 F6000 X104.606 Y123.839
G1 F1200 X86.159 Y105.392 E51.13528
G0 F6000 X86.159 Y104.827
G1 F1200 X105.172 Y123.839 E52.02957
G0 F6000 X105.737 Y123.839
G1 F1200 X86.159 Y104.261 E52.95046
G0 F6000 X86.159 Y103.695
G1 F1200 X106.303 Y123.839 E53.89797
G0 F6000 X106.869 Y123.839
G1 F1200 X86.159 Y103.13 E54.87208
G0 F6000 X86.159 Y102.564
G1 F1200 X107.434 Y123.839 E55.8728
G0 F6000 X108 Y123.839
G1 F1200 X86.159 Y101.998 E56.90013
G0 F6000 X86.159 Y101.433
G1 F1200 X108.566 Y123.839 E57.95406
G0 F6000 X109.132 Y123.839
G1 F1200 X86.159 Y100.867 E59.03462
G0 F6000 X86.159 Y100.301
G1 F1200 X109.697 Y123.839 E60.14177
G0 F6000 X110.263 Y123.839
G1 F1200 X86.159 Y99.735 E61.27555
G0 F6000 X86.159 Y99.17
G1 F1200 X110.829 Y123.839 E62.43593
G0 F6000 X111.394 Y123.839
G1 F1200 X86.159 Y98.604 E63.62291
G0 F6000 X86.381 Y98.26
G1 F1200 X111.96 Y123.839 E64.82606
G0 F6000 X112.526 Y123.839
G1 F1200 X86.664 Y97.978 E66.04251
G0 F6000 X86.947 Y97.695
G1 F1200 X113.091 Y123.839 E67.27224
G0 F6000 X113.657 Y123.839
G1 F1200 X87.23 Y97.412 E68.51529
G0 F6000 X87.512 Y97.129
G1 F1200 X114.223 Y123.839 E69.77167
G0 F6000 X114.788 Y123.839
G1 F1200 X87.795 Y96.846 E71.04134
G0 F6000 X88.078 Y96.563
G1 F1200 X115.354 Y123.839 E72.32432
G0 F6000 X115.92 Y123.839
G1 F1200 X88.361 Y96.281 E73.62058
G0 F6000 X88.805 Y96.159
G1 F1200 X116.485 Y123.839 E74.92257
G0 F6000 X117.051 Y123.839
G1 F1200 X89.371 Y96.159 E76.22455
G0 F6000 X89.936 Y96.159
G1 F1200 X117.617 Y123.839 E77.52655
G0 F6000 X118.182 Y123.839
G1 F1200 X90.502 Y96.159 E78.82854
G0 F6000 X91.068 Y96.159
G1 F1200 X118.748 Y123.839 E80.13052
G0 F6000 X119.314 Y123.839
G1 F1200 X91.633 Y96.159 E81.43252
G0 F6000 X92.199 Y96.159
G1 F1200 X119.88 Y123.839 E82.73453
G0 F6000 X120.445 Y123.839
G1 F1200 X92.765 Y96.159 E84.03651
G0 F6000 X93.331 Y96.159
G1 F1200 X121.011 Y123.839 E85.33849
G0 F6000 X121.577 Y123.839
G1 F1200 X93.896 Y96.159 E86.6405
G0 F6000 X94.462 Y96.159
G1 F1200 X122.142 Y123.839 E87.94248
G0 F6000 X122.708 Y123.839
G1 F1200 X95.028 Y96.159 E89.24446
G0 F6000 X95.593 Y96.159
G1 F1200 X123.274 Y123.839 E90.54647
G0 F6000 X123.839 Y123.839
G1 F1200 X96.159 Y96.159 E91.84845
G0 F6000 X96.725 Y96.159
G1 F1200 X124.405 Y123.839 E93.15044
G0 F6000 X124.971 Y123.839
G1 F1200 X97.29 Y96.159 E94.45244
G0 F6000 X97.856 Y96.159
G1 F1200 X125.536 Y123.839 E95.75442
G0 F6000 X126.102 Y123.839
G1 F1200 X98.422 Y96.159 E97.05641
G0 F6000 X98.987 Y96.159
G1 F1200 X126.668 Y123.839 E98.35841
G0 F6000 X127.233 Y123.839
G1 F1200 X99.553 Y96.159 E99.66039
G0 F6000 X100.119 Y96.159
G1 F1200 X127.799 Y123.839 E100.96238
G0 F6000 X128.365 Y123.839
G1 F1200 X100.684 Y96.159 E102.26438
G0 F6000 X101.25 Y96.159
G1 F1200 X128.931 Y123.839 E103.56639
G0 F6000 X129.496 Y123.839
G1 F1200 X101.816 Y96.159 E104.86837
G0 F6000 X102.381 Y96.159
G1 F1200 X130.062 Y123.839 E106.17038
G0 F6000 X130.628 Y123.839
G1 F1200 X102.947 Y96.159 E107.47238
G0 F6000 X103.513 Y96.159
G1 F1200 X131.193 Y123.839 E108.77436
G0 F6000 X131.637 Y123.718
G1 F1200 X104.079 Y96.159 E110.07063
G0 F6000 X104.644 Y96.159
G1 F1200 X131.92 Y123.435 E111.35361
G0 F6000 X132.203 Y123.152
G1 F1200 X105.21 Y96.159 E112.62328
G0 F6000 X105.776 Y96.159
G1 F1200 X132.486 Y122.869 E113.87964
G0 F6000 X132.769 Y122.586
G1 F1200 X106.341 Y96.159 E115.1227
G0 F6000 X106.907 Y96.159
G1 F1200 X133.052 Y122.304 E116.35249
G0 F6000 X133.334 Y122.021
G1 F1200 X107.473 Y96.159 E117.56893
G0 F6000 X108.038 Y96.159
G1 F1200 X133.617 Y121.738 E118.77209
G0 F6000 X133.839 Y121.394
G1 F1200 X108.604 Y96.159 E119.95907
G0 F6000 X109.17 Y96.159
G1 F1200 X133.839 Y120.828 E121.11942
G0 F6000 X133.839 Y120.263
G1 F1200 X109.735 Y96.159 E122.2532
G0 F6000 X110.301 Y96.159
G1 F1200 X133.839 Y119.697 E123.36035
G0 F6000 X133.839 Y119.131
G1 F1200 X110.867 Y96.159 E124.44089
G0 F6000 X111.432 Y96.159
G1 F1200 X133.839 Y118.566 E125.49484
G0 F6000 X133.839 Y118
G1 F1200 X111.998 Y96.159 E126.52218
G0 F6000 X112.564 Y96.159
G1 F1200 X133.839 Y117.434 E127.52289
G0 F6000 X133.839 Y116.869
G1 F1200 X113.13 Y96.159 E128.497
G0 F6000 X113.695 Y96.159
G1 F1200 X133.839 Y116.303 E129.44451
G0 F6000 X133.839 Y115.737
G1 F1200 X114.261 Y96.159 E130.3654
G0 F6000 X114.827 Y96.159
