;FLAVOR:Marlin
;TIME:22340
;Filament used: 23.8693m
;Layer height: 0.28
;MINX:75
;MINY:44.5
;MINZ:0.28
;MAXX:145
;MAXY:175.5
;MAXZ:50.12
;Generated with Cura_SteamEngine 5.2.1
M82 ;absolute extrusion mode
; Ender 3 Custom Start G-code
G92 E0 ; Reset Extruder
G28 ; Home all axes
M104 S175 ; Start heating up the nozzle most of the way
M190 S60 ; Start heating the bed, wait until target temperature reached
M109 S200 ; Finish heating the nozzle
G1 Z2.0 F3000 ; Move Z Axis up little to prevent scratching of Heat Bed
G1 X0.1 Y20 Z0.3 F5000.0 ; Move to start position
G1 X0.1 Y200.0 Z0.3 F1500.0 E15 ; Draw the first line
G1 X0.4 Y200.0 Z0.3 F5000.0 ; Move to side a little
G1 X0.4 Y20 Z0.3 F1500.0 E30 ; Draw the second line
G92 E0 ; Reset Extruder
G1 Z2.0 F3000 ; Move Z Axis up little to prevent scratching of Heat Bed
G1 X5 Y20 Z0.3 F5000.0 ; Move over to prevent blob squish
G92 E0
G92 E0
G1 F1500 E-6.5
;LAYER_COUNT:179
;LAYER:0
M107
G0 F6000 X77.007 Y49.189 Z0.28
;TYPE:SKIRT
G1 F1500 E0
G1 F1200 X77.578 Y48.445 E0.04367
G1 X78.21 Y47.752 E0.08734
G1 X78.899 Y47.116 E0.13101
G1 X79.64 Y46.541 E0.17468
G1 X80.427 Y46.031 E0.21835
G1 X81.255 Y45.59 E0.26203
G1 X82.117 Y45.221 E0.30569
G1 X83.008 Y44.927 E0.34938
G1 X83.92 Y44.709 E0.39304
G1 X84.847 Y44.571 E0.43668
G1 X85.701 Y44.513 E0.47654
G1 X86.33 Y44.5 E0.50584
G1 X133.451 Y44.501 E2.69999
G1 X134.149 Y44.511 E2.73249
G1 X135.085 Y44.565 E2.77615
G1 X136.013 Y44.697 E2.8198
G1 X136.927 Y44.909 E2.86348
G1 X137.819 Y45.198 E2.90715
G1 X138.684 Y45.561 E2.95083
G1 X139.514 Y45.997 E2.99448
G1 X140.305 Y46.502 E3.03818
G1 X141.049 Y47.073 E3.08185
G1 X141.742 Y47.705 E3.12552
G1 X142.379 Y48.393 E3.16918
G1 X142.954 Y49.134 E3.21286
G1 X143.465 Y49.92 E3.25651
G1 X143.907 Y50.748 E3.30022
G1 X144.276 Y51.61 E3.34388
G1 X144.571 Y52.5 E3.38754
G1 X144.789 Y53.412 E3.4312
G1 X144.929 Y54.34 E3.4749
G1 X144.987 Y55.201 E3.51508
G1 X145 Y55.83 E3.54438
G1 X144.999 Y80.964 E4.71472
G1 X144.988 Y81.672 E4.74769
G1 X144.933 Y82.608 E4.79135
G1 X144.799 Y83.536 E4.83501
G1 X144.586 Y84.45 E4.87871
G1 X144.249 Y85.468 E4.92865
G1 X143.195 Y88.195 E5.06478
G1 X142.374 Y90.521 E5.17964
G1 X141.586 Y92.972 E5.29952
G1 X140.893 Y95.356 E5.41512
G1 X140.253 Y97.814 E5.53339
G1 X139.694 Y100.246 E5.64959
G1 X139.197 Y102.719 E5.76705
G1 X138.771 Y105.213 E5.88486
G1 X138.418 Y107.691 E6.00141
G1 X138.132 Y110.209 E6.11941
G1 X137.919 Y112.707 E6.23615
G1 X137.778 Y115.189 E6.35191
G1 X137.706 Y117.746 E6.47102
G1 X137.706 Y120.236 E6.58697
G1 X137.778 Y122.793 E6.70608
G1 X137.919 Y125.276 E6.82189
G1 X138.131 Y127.766 E6.93825
G1 X138.419 Y130.298 E7.05691
G1 X138.773 Y132.787 E7.17398
G1 X139.193 Y135.238 E7.28977
G1 X139.697 Y137.75 E7.40907
G1 X140.251 Y140.164 E7.5244
G1 X140.89 Y142.619 E7.64252
G1 X141.587 Y145.014 E7.75867
G1 X142.369 Y147.449 E7.87776
G1 X143.201 Y149.805 E7.9941
G1 X144.253 Y152.549 E8.13094
G1 X144.553 Y153.437 E8.17459
G1 X144.776 Y154.348 E8.21826
G1 X144.921 Y155.275 E8.26195
G1 X144.985 Y156.167 E8.30359
G1 X145 Y156.83 E8.33447
G1 X144.999 Y163.9 E8.66368
G1 X144.99 Y164.627 E8.69753
G1 X144.939 Y165.564 E8.74123
G1 X144.807 Y166.492 E8.78488
G1 X144.598 Y167.406 E8.82853
G1 X144.311 Y168.299 E8.87221
G1 X143.949 Y169.165 E8.91592
G1 X143.515 Y169.996 E8.95957
G1 X143.011 Y170.787 E9.00324
G1 X142.442 Y171.532 E9.04689
G1 X141.811 Y172.227 E9.09061
G1 X141.124 Y172.865 E9.13426
G1 X140.385 Y173.442 E9.17792
G1 X139.599 Y173.954 E9.2216
G1 X138.773 Y174.397 E9.26524
G1 X137.911 Y174.769 E9.30896
G1 X137.022 Y175.065 E9.35259
G1 X136.11 Y175.285 E9.39627
G1 X135.183 Y175.426 E9.43994
G1 X134.299 Y175.487 E9.4812
G1 X133.67 Y175.5 E9.51049
G1 X86.565 Y175.499 E11.7039
G1 X85.867 Y175.49 E11.7364
G1 X84.931 Y175.438 E11.78005
G1 X84.002 Y175.306 E11.82375
G1 X83.088 Y175.096 E11.86741
G1 X82.195 Y174.809 E11.91109
G1 X81.33 Y174.446 E11.95477
G1 X80.499 Y174.012 E11.99843
G1 X79.708 Y173.508 E12.0421
G1 X78.963 Y172.938 E12.08578
G1 X78.269 Y172.307 E12.12946
G1 X77.632 Y171.62 E12.17308
G1 X77.055 Y170.88 E12.21677
G1 X76.543 Y170.094 E12.26045
G1 X76.1 Y169.267 E12.30414
G1 X75.729 Y168.406 E12.34779
G1 X75.433 Y167.516 E12.39147
G1 X75.214 Y166.604 E12.43514
G1 X75.073 Y165.677 E12.4788
G1 X75.013 Y164.788 E12.52029
G1 X75 Y164.158 E12.54964
G1 X75.001 Y56.009 E17.58551
G1 X75.011 Y55.344 E17.61647
G1 X75.065 Y54.407 E17.66018
G1 X75.199 Y53.479 E17.70384
G1 X75.411 Y52.565 E17.74753
G1 X75.7 Y51.673 E17.79119
G1 X76.065 Y50.809 E17.83486
G1 X76.501 Y49.979 E17.87852
G1 X77.007 Y49.189 E17.9222
G0 F6000 X77.403 Y49.322
G1 F1200 X77.972 Y48.599 E17.96504
G1 X78.602 Y47.927 E18.00794
G1 X79.288 Y47.313 E18.0508
G1 X80.024 Y46.761 E18.09364
G1 X80.806 Y46.274 E18.13654
G1 X81.627 Y45.858 E18.1794
G1 X82.481 Y45.514 E18.22227
G1 X83.361 Y45.245 E18.26512
G1 X84.262 Y45.054 E18.308
G1 X85.176 Y44.942 E18.35088
G1 X85.712 Y44.913 E18.37588
G1 X86.33 Y44.9 E18.40466
G1 X133.293 Y44.9 E20.59145
G1 X134.143 Y44.911 E20.63104
G1 X135.062 Y44.964 E20.6739
G1 X135.973 Y45.097 E20.71677
G1 X136.869 Y45.308 E20.75963
G1 X137.743 Y45.596 E20.80248
G1 X138.59 Y45.959 E20.84539
G1 X139.401 Y46.394 E20.88824
G1 X140.171 Y46.898 E20.9311
G1 X140.895 Y47.467 E20.97397
G1 X141.567 Y48.097 E21.01687
G1 X142.182 Y48.782 E21.05973
G1 X142.735 Y49.518 E21.1026
G1 X143.222 Y50.299 E21.14546
G1 X143.639 Y51.12 E21.18833
G1 X143.984 Y51.974 E21.23122
G1 X144.253 Y52.854 E21.27407
G1 X144.445 Y53.755 E21.31697
G1 X144.558 Y54.668 E21.3598
G1 X144.587 Y55.212 E21.38517
G1 X144.6 Y55.83 E21.41395
G1 X144.599 Y80.958 E22.58402
G1 X144.588 Y81.666 E22.61699
G1 X144.533 Y82.585 E22.65986
G1 X144.4 Y83.496 E22.70273
G1 X144.187 Y84.391 E22.74557
G1 X143.876 Y85.323 E22.79132
G1 X142.824 Y88.043 E22.92712
G1 X141.988 Y90.413 E23.04414
G1 X141.207 Y92.842 E23.16294
G1 X140.508 Y95.249 E23.27965
G1 X139.872 Y97.689 E23.39707
G1 X139.297 Y100.191 E23.51661
G1 X138.799 Y102.672 E23.63444
G1 X138.379 Y105.126 E23.75037
G1 X138.018 Y107.661 E23.8696
G1 X137.738 Y110.131 E23.98535
G1 X137.52 Y112.687 E24.1048
G1 X137.378 Y115.189 E24.22149
G1 X137.306 Y117.735 E24.34009
G1 X137.306 Y120.247 E24.45706
G1 X137.378 Y122.791 E24.57557
G1 X137.52 Y125.298 E24.69249
G1 X137.737 Y127.844 E24.81147
G1 X138.019 Y130.328 E24.92788
G1 X138.377 Y132.845 E25.04626
G1 X138.8 Y135.313 E25.16286
G1 X139.309 Y137.847 E25.28321
G1 X139.86 Y140.249 E25.39796
G1 X140.502 Y142.717 E25.51671
G1 X141.208 Y145.143 E25.63436
G1 X141.987 Y147.567 E25.75291
G1 X142.827 Y149.945 E25.87035
G1 X143.386 Y151.397 E25.9428
G1 X143.425 Y151.514 E25.94854
G1 X143.88 Y152.693 E26.00739
G1 X144.174 Y153.565 E26.05024
G1 X144.39 Y154.46 E26.09311
G1 X144.529 Y155.37 E26.13597
G1 X144.585 Y156.179 E26.17373
G1 X144.6 Y156.83 E26.20405
G1 X144.599 Y163.895 E26.53303
G1 X144.59 Y164.622 E26.56688
G1 X144.539 Y165.541 E26.60974
G1 X144.408 Y166.453 E26.65265
G1 X144.198 Y167.349 E26.6955
G1 X143.912 Y168.224 E26.73836
G1 X143.551 Y169.071 E26.78123
G1 X143.117 Y169.883 E26.82411
G1 X142.615 Y170.655 E26.86699
G1 X142.047 Y171.38 E26.90987
G1 X141.419 Y172.053 E26.95273
G1 X140.735 Y172.669 E26.9956
G1 X140 Y173.223 E27.03845
G1 X139.22 Y173.712 E27.08132
G1 X138.4 Y174.131 E27.1242
G1 X137.547 Y174.477 E27.16706
G1 X136.667 Y174.748 E27.20994
G1 X135.767 Y174.941 E27.2528
G1 X134.853 Y175.056 E27.29569
G1 X134.288 Y175.087 E27.32204
G1 X133.67 Y175.1 E27.35082
G1 X86.57 Y175.099 E29.544
G1 X85.872 Y175.09 E29.5765
G1 X84.953 Y175.038 E29.61936
G1 X84.042 Y174.907 E29.66222
G1 X83.146 Y174.697 E29.70507
G1 X82.271 Y174.41 E29.74795
G1 X81.424 Y174.048 E29.79084
G1 X80.612 Y173.614 E29.83371
G1 X79.841 Y173.112 E29.87655
G1 X79.116 Y172.544 E29.91944
G1 X78.443 Y171.915 E29.96233
G1 X77.828 Y171.231 E30.00517
G1 X77.274 Y170.496 E30.04802
G1 X76.786 Y169.715 E30.09091
G1 X76.367 Y168.895 E30.13378
G1 X76.021 Y168.042 E30.17665
G1 X75.751 Y167.162 E30.21951
G1 X75.558 Y166.261 E30.26241
G1 X75.444 Y165.348 E30.30526
G1 X75.413 Y164.777 E30.33188
G1 X75.4 Y164.158 E30.36071
G1 X75.401 Y56.015 E35.39631
G1 X75.411 Y55.35 E35.42727
G1 X75.465 Y54.431 E35.47014
G1 X75.598 Y53.52 E35.51301
G1 X75.81 Y52.624 E35.55588
G1 X76.099 Y51.749 E35.59879
G1 X76.463 Y50.904 E35.64163
G1 X76.898 Y50.093 E35.68449
G1 X77.403 Y49.322 E35.7274
G0 F6000 X77.798 Y49.458
G1 F1200 X78.366 Y48.756 E35.76945
G1 X78.993 Y48.106 E35.8115
G1 X79.675 Y47.514 E35.85356
G1 X80.407 Y46.985 E35.89561
G1 X81.183 Y46.523 E35.93766
G1 X81.997 Y46.132 E35.97971
G1 X82.842 Y45.813 E36.02177
G1 X83.712 Y45.571 E36.06382
G1 X84.6 Y45.407 E36.10587
G1 X85.723 Y45.313 E36.15834
G1 X86.33 Y45.3 E36.18661
G1 X133.293 Y45.3 E38.37341
G1 X134.137 Y45.311 E38.41271
G1 X135.039 Y45.364 E38.45478
G1 X135.932 Y45.496 E38.49682
G1 X136.81 Y45.707 E38.53886
G1 X137.666 Y45.995 E38.58092
G1 X138.493 Y46.357 E38.62296
G1 X139.285 Y46.792 E38.66503
G1 X140.036 Y47.294 E38.70709
G1 X140.739 Y47.861 E38.74915
G1 X141.389 Y48.488 E38.7912
G1 X141.981 Y49.17 E38.83325
G1 X142.511 Y49.901 E38.8753
G1 X142.973 Y50.677 E38.91735
G1 X143.366 Y51.49 E38.9594
G1 X143.684 Y52.335 E39.00144
G1 X143.927 Y53.205 E39.0435
G1 X144.092 Y54.093 E39.08556
G1 X144.187 Y55.223 E39.13836
G1 X144.2 Y55.83 E39.16663
G1 X144.199 Y80.951 E40.33637
G1 X144.188 Y81.659 E40.36934
G1 X144.134 Y82.561 E40.41142
G1 X144 Y83.454 E40.45346
G1 X143.788 Y84.332 E40.49552
G1 X143.503 Y85.179 E40.53714
G1 X142.45 Y87.903 E40.67312
G1 X141.606 Y90.295 E40.79124
G1 X140.825 Y92.723 E40.91
G1 X140.122 Y95.141 E41.02725
G1 X139.481 Y97.603 E41.14572
G1 X138.901 Y100.129 E41.2664
G1 X138.413 Y102.558 E41.38176
G1 X137.982 Y105.08 E41.5009
G1 X137.624 Y107.591 E41.619
G1 X137.336 Y110.124 E41.73771
G1 X137.123 Y112.629 E41.85478
G1 X136.978 Y115.191 E41.97426
G1 X136.906 Y117.724 E42.09226
G1 X136.906 Y120.258 E42.21025
G1 X136.978 Y122.791 E42.32825
G1 X137.123 Y125.354 E42.44778
G1 X137.336 Y127.851 E42.56447
G1 X137.625 Y130.398 E42.68383
G1 X137.98 Y132.891 E42.80109
G1 X138.414 Y135.428 E42.92094
G1 X138.904 Y137.867 E43.03678
G1 X139.477 Y140.366 E43.15616
G1 X140.12 Y142.833 E43.27487
G1 X140.829 Y145.272 E43.39315
G1 X141.601 Y147.675 E43.51067
G1 X142.452 Y150.085 E43.62968
G1 X143.507 Y152.837 E43.76692
G1 X143.794 Y153.693 E43.80896
G1 X144.005 Y154.571 E43.85101
G1 X144.137 Y155.464 E43.89304
G1 X144.185 Y156.191 E43.92697
G1 X144.2 Y156.83 E43.95673
G1 X144.199 Y163.89 E44.28547
G1 X144.19 Y164.617 E44.31933
G1 X144.139 Y165.519 E44.3614
G1 X144.008 Y166.413 E44.40347
G1 X143.799 Y167.291 E44.44549
G1 X143.513 Y168.148 E44.48756
G1 X143.152 Y168.976 E44.52962
G1 X142.72 Y169.768 E44.57163
G1 X142.219 Y170.52 E44.61371
G1 X141.653 Y171.224 E44.65577
G1 X141.028 Y171.875 E44.69779
G1 X140.347 Y172.469 E44.73987
G1 X139.616 Y173 E44.78194
G1 X138.842 Y173.464 E44.82396
G1 X138.029 Y173.858 E44.86603
G1 X137.185 Y174.178 E44.90806
G1 X136.315 Y174.423 E44.95015
G1 X135.428 Y174.589 E44.99217
G1 X134.277 Y174.687 E45.04595
G1 X133.67 Y174.7 E45.07423
G1 X86.575 Y174.699 E47.26717
G1 X85.877 Y174.69 E47.29967
G1 X84.976 Y174.639 E47.34169
G1 X84.082 Y174.507 E47.38377
G1 X83.204 Y174.298 E47.4258
G1 X82.347 Y174.011 E47.46788
G1 X81.52 Y173.65 E47.5099
G1 X80.727 Y173.217 E47.55197
G1 X79.976 Y172.716 E47.59401
G1 X79.272 Y172.15 E47.63607
G1 X78.621 Y171.524 E47.67812
G1 X78.028 Y170.843 E47.72017
G1 X77.498 Y170.112 E47.76221
G1 X77.034 Y169.337 E47.80428
G1 X76.64 Y168.524 E47.84634
G1 X76.32 Y167.68 E47.88837
G1 X76.076 Y166.81 E47.93045
G1 X75.91 Y165.922 E47.97251
G1 X75.813 Y164.767 E48.02648
G1 X75.8 Y164.158 E48.05485
G1 X75.801 Y56.021 E53.09016
G1 X75.811 Y55.356 E53.12113
G1 X75.865 Y54.454 E53.1632
G1 X75.998 Y53.561 E53.20524
G1 X76.209 Y52.683 E53.24729
G1 X76.498 Y51.827 E53.28936
G1 X76.861 Y51 E53.33142
G1 X77.295 Y50.209 E53.37343
G1 X77.798 Y49.458 E53.41552
G1 F1500 E46.91552
G0 F6000 X89.8 Y59.3
G1 F1500 E53.41552
G1 F1200 X130.2 Y59.3 E55.29671
G1 X130.2 Y60.01 E55.32977
G1 X130.021 Y59.93 E55.3389
G1 X129.491 Y59.779 E55.36456
G1 X128.718 Y59.7 E55.40074
G1 X91.282 Y59.7 E57.14392
G1 X90.732 Y59.74 E57.1696
G1 X90.194 Y59.859 E57.19526
G1 X89.8 Y60.009 E57.21489
G1 X89.8 Y59.3 E57.2479
G0 F6000 X89.4 Y58.9
G1 F1200 X130.6 Y58.9 E59.16634
G1 X130.6 Y60.679 E59.24918
G1 X130.284 Y60.482 E59.26652
G1 X129.804 Y60.278 E59.29081
G1 X129.299 Y60.15 E59.31507
G1 X128.718 Y60.1 E59.34222
G1 X91.282 Y60.1 E61.0854
G1 X90.762 Y60.14 E61.10968
G1 X90.255 Y60.259 E61.13393
G1 X89.772 Y60.454 E61.15819
G1 X89.4 Y60.675 E61.17833
G1 X89.4 Y58.9 E61.26098
G0 F6000 X89 Y58.5
G1 F1200 X131 Y58.5 E63.21668
G1 X131 Y61.516 E63.35712
G1 X130.466 Y61.062 E63.38976
G1 X130.046 Y60.81 E63.41256
G1 X129.591 Y60.63 E63.43535
G1 X129.113 Y60.526 E63.45813
G1 X128.718 Y60.5 E63.47656
G1 X91.282 Y60.5 E65.21974
G1 X90.794 Y60.54 E65.24253
G1 X90.319 Y60.659 E65.26534
G1 X89.87 Y60.853 E65.28811
G1 X89.458 Y61.118 E65.31092
G1 X89 Y61.52 E65.3393
G1 X89 Y58.5 E65.47992
G0 F6000 X88.6 Y58.1
G1 F1200 X131.4 Y58.1 E67.47287
G1 X131.4 Y62.799 E67.69167
G1 X131.248 Y62.476 E67.7083
G1 X130.838 Y61.944 E67.73957
G1 X130.556 Y61.662 E67.75814
G1 X130.207 Y61.369 E67.77936
G1 X129.812 Y61.142 E67.80057
G1 X129.384 Y60.987 E67.82177
G1 X128.718 Y60.9 E67.85305
G1 X91.282 Y60.9 E69.59622
G1 X90.828 Y60.94 E69.61744
G1 X90.388 Y61.058 E69.63866
G1 X89.976 Y61.252 E69.65986
G1 X89.444 Y61.662 E69.69114
G1 X89.162 Y61.944 E69.70971
G1 X88.869 Y62.293 E69.73093
G1 X88.6 Y62.761 E69.75606
G1 X88.6 Y58.1 E69.9731
G0 F6000 X88.2 Y57.7
G1 F1200 X131.8 Y57.7 E72.0033
G1 X131.8 Y72.5 E72.69245
G1 X131.2 Y72.5 E72.72038
G1 X131.2 Y63.782 E73.12633
G1 X131.16 Y63.365 E73.14584
G1 X131.042 Y62.963 E73.16535
G1 X130.849 Y62.591 E73.18486
G1 X130.556 Y62.226 E73.20665
G1 X130.274 Y61.944 E73.22522
G1 X129.95 Y61.678 E73.24474
G1 X129.583 Y61.477 E73.26423
G1 X129.183 Y61.35 E73.28377
G1 X128.718 Y61.3 E73.30555
G1 X91.282 Y61.3 E75.04873
G1 X90.865 Y61.34 E75.06823
G1 X90.463 Y61.458 E75.08774
G1 X90.091 Y61.651 E75.10725
G1 X89.726 Y61.944 E75.12905
G1 X89.444 Y62.226 E75.14762
G1 X89.178 Y62.55 E75.16714
G1 X88.977 Y62.917 E75.18662
G1 X88.85 Y63.317 E75.20617
G1 X88.8 Y63.782 E75.22794
G1 X88.8 Y72.5 E75.63389
G1 X88.2 Y72.5 E75.66183
G1 X88.2 Y57.7 E76.35098
G0 F6000 X87.8 Y57.3
G1 F1200 X132.2 Y57.3 E78.41843
G1 X132.2 Y72.9 E79.14483
G1 X130.8 Y72.9 E79.21002
G1 X130.8 Y63.782 E79.63459
G1 X130.76 Y63.405 E79.65224
G1 X130.642 Y63.045 E79.66988
G1 X130.452 Y62.718 E79.68749
G1 X130.273 Y62.509 E79.70031
G1 X129.991 Y62.227 E79.71888
G1 X129.696 Y61.989 E79.73653
G1 X129.358 Y61.818 E79.75417
G1 X128.992 Y61.721 E79.7718
G1 X128.718 Y61.7 E79.78459
G1 X91.282 Y61.7 E81.52777
G1 X90.905 Y61.74 E81.54542
G1 X90.545 Y61.858 E81.56306
G1 X90.218 Y62.048 E81.58067
G1 X90.009 Y62.227 E81.59349
G1 X89.727 Y62.509 E81.61206
G1 X89.489 Y62.804 E81.62971
G1 X89.318 Y63.142 E81.64735
G1 X89.221 Y63.508 E81.66498
G1 X89.2 Y63.782 E81.67777
G1 X89.2 Y72.9 E82.10234
G1 X87.8 Y72.9 E82.16753
G1 X87.8 Y57.3 E82.89394
G0 F6000 X87.4 Y56.9
G1 F1200 X132.6 Y56.9 E84.99864
G1 X132.6 Y73.3 E85.76229
G1 X130.4 Y73.3 E85.86473
G1 X130.4 Y63.782 E86.30793
G1 X130.36 Y63.45 E86.3235
G1 X130.243 Y63.138 E86.33902
G1 X129.99 Y62.792 E86.35898
G1 X129.708 Y62.51 E86.37755
G1 X129.445 Y62.304 E86.3931
G1 X129.141 Y62.165 E86.40867
G1 X128.718 Y62.1 E86.42859
G1 X91.282 Y62.1 E88.17177
G1 X90.95 Y62.14 E88.18734
G1 X90.638 Y62.257 E88.20286
G1 X90.292 Y62.51 E88.22282
G1 X90.01 Y62.792 E88.24139
G1 X89.804 Y63.055 E88.25694
G1 X89.665 Y63.359 E88.27251
G1 X89.6 Y63.782 E88.29244
G1 X89.6 Y73.3 E88.73563
G1 X87.4 Y73.3 E88.83807
G1 X87.4 Y56.9 E89.60173
G0 F6000 X87 Y56.5
G1 F1200 X133 Y56.5 E91.74368
G1 X133 Y73.7 E92.54458
G1 X130 Y73.7 E92.68428
G1 X130 Y63.782 E93.1461
G1 X129.96 Y63.503 E93.15922
G1 X129.816 Y63.184 E93.17552
G1 X129.425 Y62.793 E93.20127
G1 X129.199 Y62.624 E93.21441
G1 X128.872 Y62.5 E93.2307
G1 X91.282 Y62.5 E94.98104
G1 X91.003 Y62.54 E94.99417
G1 X90.684 Y62.684 E95.01046
G1 X90.293 Y63.075 E95.03621
G1 X90.124 Y63.301 E95.04935
