;FLAVOR:Marlin
;TIME:4998
;Filament used: 4.83131m
;Layer height: 0.28
;MINX:92.038
;MINY:77.797
;MINZ:0.28
;MAXX:141.452
;MAXY:157.202
;MAXZ:19.88
;Generated with Cura_SteamEngine 4.12.1
M140 S50
M105
M190 S50
M104 S200
M105
M109 S200
M82 ;absolute extrusion mode
; Ender 3 Custom Start G-code
G92 E0 ; Reset Extruder
G28 ; Home all axes
G1 Z2.0 F3000 ; Move Z Axis up little to prevent scratching of Heat Bed
G1 X0.1 Y20 Z0.3 F5000.0 ; Move to start position
G1 X0.1 Y200.0 Z0.3 F1500.0 E15 ; Draw the first line
G1 X0.4 Y200.0 Z0.3 F5000.0 ; Move to side a little
G1 X0.4 Y20 Z0.3 F1500.0 E30 ; Draw the second line
G92 E0 ; Reset Extruder
G1 Z2.0 F3000 ; Move Z Axis up little to prevent scratching of Heat Bed
G1 X5 Y20 Z0.3 F5000.0 ; Move over to prevent blob squish
G92 E0
G92 E0
G1 F2700 E-5
;LAYER_COUNT:71
;LAYER:0
M107
G0 F6000 X94.65 Y82.233 Z0.28
;TYPE:SKIRT
G1 F2700 E0
G1 F1200 X95.212 Y81.59 E0.03977
G1 X95.399 Y81.392 E0.05245
G1 X96.071 Y80.738 E0.09611
G1 X96.797 Y80.144 E0.13979
G1 X97.571 Y79.614 E0.18347
G1 X98.387 Y79.152 E0.22713
G1 X99.14 Y78.802 E0.2658
G1 X99.252 Y78.755 E0.27145
G1 X99.665 Y78.591 E0.29215
G1 X99.901 Y78.503 E0.30387
G1 X100.793 Y78.213 E0.34755
G1 X101.706 Y78 E0.3912
G1 X102.634 Y77.866 E0.43486
G1 X103.575 Y77.811 E0.47876
G1 X104.527 Y77.798 E0.52309
G1 X129.041 Y77.797 E1.66456
G1 X129.887 Y77.808 E1.70396
G1 X130.824 Y77.862 E1.74766
G1 X131.752 Y77.995 E1.79132
G1 X132.666 Y78.207 E1.83501
G1 X133.577 Y78.503 E1.87961
G1 X133.957 Y78.645 E1.8985
G1 X134.821 Y79.01 E1.94217
G1 X135.651 Y79.448 E1.98587
G1 X136.44 Y79.955 E2.02954
G1 X137.183 Y80.527 E2.0732
G1 X137.698 Y80.988 E2.10539
G1 X137.87 Y81.152 E2.11646
G1 X138.52 Y81.827 E2.16009
G1 X139.111 Y82.556 E2.20379
G1 X139.637 Y83.332 E2.24744
G1 X140.096 Y84.15 E2.29112
G1 X140.331 Y84.645 E2.31663
G1 X140.407 Y84.816 E2.32535
G1 X140.568 Y85.199 E2.34469
G1 X140.656 Y85.419 E2.35573
G1 X140.967 Y86.304 E2.39941
G1 X141.201 Y87.212 E2.44307
G1 X141.358 Y88.136 E2.48671
G1 X141.442 Y89.349 E2.54333
G1 X141.452 Y90.144 E2.58035
G1 X141.452 Y144.908 E5.13039
G1 X141.442 Y145.631 E5.16406
G1 X141.389 Y146.568 E5.20776
G1 X141.257 Y147.496 E5.25141
G1 X141.045 Y148.41 E5.29509
G1 X140.744 Y149.338 E5.34052
G1 X140.602 Y149.717 E5.35937
G1 X140.236 Y150.581 E5.40306
G1 X139.797 Y151.41 E5.44674
G1 X139.29 Y152.199 E5.49041
G1 X138.717 Y152.941 E5.53406
G1 X138.24 Y153.472 E5.5673
G1 X138.076 Y153.643 E5.57833
G1 X137.399 Y154.292 E5.622
G1 X136.668 Y154.88 E5.66569
G1 X135.891 Y155.404 E5.70933
G1 X135.071 Y155.86 E5.75302
G1 X134.605 Y156.081 E5.77703
G1 X134.434 Y156.157 E5.78574
G1 X134.067 Y156.312 E5.8043
G1 X133.848 Y156.4 E5.81529
G1 X132.964 Y156.712 E5.85894
G1 X132.056 Y156.948 E5.90262
G1 X131.132 Y157.105 E5.94626
G1 X129.894 Y157.192 E6.00405
G1 X129.075 Y157.202 E6.04219
G1 X104.297 Y157.201 E7.19596
G1 X103.608 Y157.191 E7.22804
G1 X102.672 Y157.137 E7.2717
G1 X101.744 Y157.004 E7.31535
G1 X100.83 Y156.792 E7.35904
G1 X99.953 Y156.509 E7.40195
G1 X99.615 Y156.384 E7.41873
G1 X99.069 Y156.166 E7.44611
G1 X98.223 Y155.76 E7.48981
G1 X97.416 Y155.283 E7.53346
G1 X96.651 Y154.74 E7.57714
G1 X95.845 Y154.049 E7.62657
G1 X95.662 Y153.876 E7.6383
G1 X95.009 Y153.203 E7.68196
G1 X94.415 Y152.477 E7.72564
G1 X93.885 Y151.703 E7.76932
G1 X93.423 Y150.887 E7.81299
G1 X93.155 Y150.322 E7.84211
G1 X93.08 Y150.152 E7.85076
G1 X92.934 Y149.806 E7.86825
G1 X92.849 Y149.594 E7.87888
G1 X92.537 Y148.709 E7.92258
G1 X92.319 Y147.877 E7.96263
G1 X92.155 Y146.954 E8.00628
G1 X92.058 Y145.634 E8.06791
G1 X92.048 Y144.798 E8.10684
G1 X92.048 Y144.389 E8.12588
G1 X92.043 Y143.965 E8.14563
G1 X92.04 Y142.548 E8.21161
G1 X92.078 Y141.611 E8.25528
G1 X92.196 Y140.681 E8.29893
G1 X92.376 Y139.884 E8.33697
G1 X92.364 Y139.881 E8.33755
G1 X92.998 Y137.273 E8.46253
G1 X93.525 Y134.802 E8.58017
G1 X93.976 Y132.338 E8.69681
G1 X94.357 Y129.876 E8.81282
G1 X94.672 Y127.377 E8.9301
G1 X94.918 Y124.841 E9.04875
G1 X95.089 Y122.348 E9.1651
G1 X95.191 Y119.826 E9.28263
G1 X95.221 Y117.338 E9.39849
G1 X95.179 Y114.779 E9.51767
G1 X95.068 Y112.293 E9.63354
G1 X94.885 Y109.778 E9.75096
G1 X94.628 Y107.253 E9.86914
G1 X94.307 Y104.788 E9.98489
G1 X93.905 Y102.26 E10.10409
G1 X93.449 Y99.832 E10.21912
G1 X92.913 Y97.368 E10.33654
G1 X92.576 Y96.021 E10.40119
G1 X92.332 Y94.984 E10.4508
G1 X92.157 Y94.063 E10.49445
G1 X92.061 Y93.13 E10.53812
G1 X92.041 Y92.527 E10.56622
G1 X92.038 Y91.942 E10.59346
G1 X92.047 Y91.071 E10.63402
G1 X92.049 Y89.988 E10.68445
G1 X92.058 Y89.353 E10.71402
G1 X92.111 Y88.417 E10.75767
G1 X92.244 Y87.488 E10.80137
G1 X92.456 Y86.575 E10.84502
G1 X92.857 Y85.392 E10.90318
G1 X92.968 Y85.117 E10.91699
G1 X93.139 Y84.715 E10.93733
G1 X93.18 Y84.624 E10.94198
G1 X93.601 Y83.787 E10.98561
G1 X94.092 Y82.988 E11.02927
G1 X94.65 Y82.233 E11.07299
G0 F6000 X94.993 Y82.445
G1 F1200 X95.503 Y81.865 E11.10895
G1 X95.69 Y81.667 E11.12163
G1 X96.35 Y81.026 E11.16447
G1 X97.064 Y80.444 E11.20737
G1 X97.826 Y79.927 E11.25025
G1 X98.629 Y79.477 E11.29311
G1 X99.294 Y79.171 E11.32719
G1 X99.406 Y79.124 E11.33285
G1 X99.805 Y78.966 E11.35283
G1 X100.041 Y78.878 E11.36456
G1 X100.916 Y78.594 E11.4074
G1 X101.813 Y78.387 E11.45026
G1 X102.725 Y78.259 E11.49314
G1 X103.582 Y78.211 E11.53311
G1 X104.527 Y78.198 E11.57712
G1 X129.041 Y78.197 E12.71859
G1 X129.882 Y78.208 E12.75776
G1 X130.801 Y78.262 E12.80062
G1 X131.712 Y78.394 E12.84349
G1 X132.608 Y78.606 E12.88636
G1 X133.437 Y78.878 E12.92699
G1 X133.817 Y79.02 E12.94588
G1 X134.665 Y79.379 E12.98876
G1 X135.478 Y79.811 E13.03163
G1 X136.251 Y80.311 E13.07449
G1 X136.977 Y80.877 E13.11736
G1 X137.422 Y81.277 E13.14522
G1 X137.594 Y81.441 E13.15629
G1 X138.232 Y82.105 E13.19916
G1 X138.81 Y82.822 E13.24205
G1 X139.324 Y83.586 E13.28492
G1 X139.769 Y84.391 E13.32776
G1 X139.965 Y84.808 E13.34921
G1 X140.041 Y84.979 E13.35792
G1 X140.197 Y85.347 E13.37654
G1 X140.285 Y85.567 E13.38757
G1 X140.589 Y86.436 E13.43044
G1 X140.817 Y87.328 E13.47331
G1 X140.967 Y88.236 E13.51616
G1 X141.042 Y89.355 E13.56838
G1 X141.052 Y90.144 E13.60513
G1 X141.052 Y144.903 E16.15493
G1 X141.042 Y145.626 E16.1886
G1 X140.989 Y146.545 E16.23147
G1 X140.857 Y147.456 E16.27433
G1 X140.646 Y148.352 E16.31719
G1 X140.369 Y149.198 E16.35864
G1 X140.227 Y149.577 E16.37749
G1 X139.867 Y150.424 E16.42034
G1 X139.435 Y151.237 E16.46321
G1 X138.933 Y152.009 E16.50609
G1 X138.367 Y152.735 E16.54896
G1 X137.951 Y153.195 E16.57784
G1 X137.787 Y153.366 E16.58887
G1 X137.122 Y154.002 E16.63172
G1 X136.404 Y154.578 E16.67458
G1 X135.638 Y155.09 E16.71748
G1 X134.442 Y155.715 E16.78032
G1 X134.271 Y155.791 E16.78903
G1 X133.918 Y155.941 E16.80689
G1 X133.699 Y156.029 E16.81788
G1 X132.831 Y156.334 E16.86072
G1 X131.939 Y156.564 E16.90361
G1 X131.031 Y156.715 E16.94648
G1 X129.889 Y156.792 E16.99977
G1 X129.075 Y156.802 E17.03768
G1 X104.303 Y156.801 E18.19117
G1 X103.614 Y156.791 E18.22325
G1 X102.695 Y156.738 E18.26612
G1 X101.784 Y156.605 E18.30899
G1 X100.888 Y156.393 E18.35186
G1 X100.091 Y156.134 E18.39088
G1 X99.753 Y156.009 E18.40766
G1 X99.226 Y155.798 E18.4341
G1 X98.397 Y155.399 E18.47694
G1 X97.605 Y154.929 E18.51982
G1 X96.857 Y154.393 E18.56267
G1 X96.12 Y153.758 E18.60797
G1 X95.937 Y153.585 E18.61969
G1 X95.296 Y152.924 E18.66257
G1 X94.715 Y152.21 E18.70543
G1 X94.198 Y151.448 E18.74831
G1 X93.749 Y150.644 E18.79119
G1 X93.521 Y150.161 E18.81606
G1 X93.446 Y149.991 E18.82471
G1 X93.305 Y149.657 E18.84159
G1 X93.22 Y149.445 E18.85223
G1 X92.915 Y148.576 E18.89511
G1 X92.709 Y147.79 E18.93295
G1 X92.549 Y146.884 E18.97579
G1 X92.458 Y145.629 E19.03438
G1 X92.448 Y144.798 E19.07308
G1 X92.448 Y144.384 E19.09236
G1 X92.443 Y143.964 E19.11191
G1 X92.44 Y142.547 E19.17789
G1 X92.478 Y141.628 E19.22072
G1 X92.596 Y140.714 E19.26364
G1 X92.764 Y139.978 E19.29879
G1 X92.753 Y139.975 E19.29932
G1 X93.384 Y137.378 E19.42377
G1 X93.916 Y134.886 E19.54242
G1 X94.371 Y132.4 E19.6601
G1 X94.755 Y129.92 E19.77696
G1 X95.069 Y127.425 E19.89405
G1 X95.316 Y124.873 E20.01344
G1 X95.49 Y122.355 E20.13096
G1 X95.591 Y119.847 E20.24784
G1 X95.621 Y117.336 E20.36477
G1 X95.579 Y114.754 E20.48502
G1 X95.469 Y112.282 E20.60024
G1 X95.283 Y109.745 E20.71869
G1 X95.025 Y107.197 E20.83794
G1 X94.705 Y104.74 E20.95332
G1 X94.3 Y102.194 E21.07336
G1 X93.839 Y99.745 E21.1894
G1 X93.304 Y97.283 E21.30671
G1 X92.928 Y95.775 E21.37908
G1 X92.721 Y94.893 E21.42127
G1 X92.55 Y93.988 E21.46415
G1 X92.458 Y93.072 E21.50702
G1 X92.441 Y92.525 E21.5325
G1 X92.438 Y91.94 E21.55975
G1 X92.447 Y91.077 E21.59993
G1 X92.449 Y89.994 E21.65036
G1 X92.458 Y89.359 E21.67993
G1 X92.511 Y88.44 E21.7228
G1 X92.644 Y87.529 E21.76567
G1 X92.855 Y86.632 E21.80857
G1 X93.228 Y85.541 E21.86226
G1 X93.339 Y85.266 E21.87607
G1 X93.504 Y84.88 E21.89562
G1 X93.545 Y84.789 E21.90027
G1 X93.959 Y83.967 E21.94312
G1 X94.443 Y83.183 E21.98602
G1 X94.993 Y82.445 E22.02888
G0 F6000 X95.336 Y82.658
G1 F1200 X95.793 Y82.139 E22.06108
G1 X95.98 Y81.941 E22.07376
G1 X96.629 Y81.313 E22.11582
G1 X97.331 Y80.744 E22.15789
G1 X98.08 Y80.24 E22.19993
G1 X98.871 Y79.804 E22.24199
G1 X99.449 Y79.54 E22.27158
G1 X99.561 Y79.493 E22.27723
G1 X99.944 Y79.341 E22.29642
G1 X100.18 Y79.253 E22.30815
G1 X101.04 Y78.975 E22.35023
G1 X101.92 Y78.774 E22.39227
G1 X102.815 Y78.652 E22.43433
G1 X103.588 Y78.611 E22.47037
G1 X104.527 Y78.598 E22.5141
G1 X129.041 Y78.597 E23.65557
G1 X129.876 Y78.608 E23.69446
G1 X130.777 Y78.661 E23.73648
G1 X131.671 Y78.794 E23.77857
G1 X132.549 Y79.005 E23.82062
G1 X133.297 Y79.252 E23.8573
G1 X133.677 Y79.394 E23.87619
G1 X134.509 Y79.748 E23.91829
G1 X135.305 Y80.173 E23.96031
G1 X136.061 Y80.667 E24.00236
G1 X136.77 Y81.226 E24.0444
G1 X137.146 Y81.567 E24.06804
G1 X137.318 Y81.731 E24.0791
G1 X137.943 Y82.382 E24.12112
G1 X138.508 Y83.087 E24.16319
G1 X139.009 Y83.838 E24.20523
G1 X139.6 Y84.97 E24.26469
G1 X139.676 Y85.141 E24.27341
G1 X139.825 Y85.496 E24.29133
G1 X139.913 Y85.716 E24.30237
G1 X140.211 Y86.568 E24.3444
G1 X140.433 Y87.444 E24.38648
G1 X140.576 Y88.336 E24.42854
G1 X140.642 Y89.361 E24.47637
G1 X140.652 Y90.144 E24.51283
G1 X140.652 Y144.897 E27.06236
G1 X140.642 Y145.62 E27.09603
G1 X140.59 Y146.522 E27.1381
G1 X140.458 Y147.415 E27.18013
G1 X140.247 Y148.293 E27.22218
G1 X139.995 Y149.058 E27.25969
G1 X139.853 Y149.437 E27.27853
G1 X139.499 Y150.268 E27.32059
G1 X139.073 Y151.064 E27.36263
G1 X138.578 Y151.819 E27.40467
G1 X138.018 Y152.528 E27.44674
G1 X137.663 Y152.918 E27.47129
G1 X137.499 Y153.089 E27.48233
G1 X136.845 Y153.713 E27.52442
G1 X136.139 Y154.276 E27.56647
G1 X135.386 Y154.775 E27.60853
G1 X134.28 Y155.35 E27.66657
G1 X134.109 Y155.426 E27.67529
G1 X133.769 Y155.569 E27.69246
G1 X133.55 Y155.657 E27.70345
G1 X132.698 Y155.957 E27.74551
G1 X131.823 Y156.18 E27.78756
G1 X130.931 Y156.324 E27.82963
G1 X129.884 Y156.392 E27.87849
G1 X129.075 Y156.402 E27.91616
G1 X104.309 Y156.401 E29.06937
G1 X103.62 Y156.391 E29.10145
G1 X102.718 Y156.338 E29.14353
G1 X101.825 Y156.205 E29.18557
G1 X100.947 Y155.994 E29.22762
G1 X100.23 Y155.759 E29.26275
G1 X99.892 Y155.634 E29.27953
G1 X99.384 Y155.43 E29.30502
G1 X98.571 Y155.038 E29.34705
G1 X97.795 Y154.576 E29.3891
G1 X97.063 Y154.046 E29.43118
G1 X96.395 Y153.467 E29.47235
G1 X96.212 Y153.294 E29.48407
G1 X95.584 Y152.645 E29.52612
G1 X95.015 Y151.943 E29.5682
G1 X94.511 Y151.194 E29.61024
G1 X93.887 Y149.999 E29.67301
G1 X93.812 Y149.829 E29.68166
G1 X93.677 Y149.508 E29.69788
G1 X93.592 Y149.296 E29.70851
G1 X93.293 Y148.444 E29.75056
G1 X93.1 Y147.704 E29.78617
G1 X92.943 Y146.814 E29.82825
G1 X92.858 Y145.623 E29.88385
G1 X92.848 Y144.798 E29.92227
G1 X92.848 Y144.379 E29.94178
G1 X92.843 Y143.964 E29.9611
G1 X92.84 Y142.547 E30.02709
G1 X92.878 Y141.644 E30.06917
G1 X92.996 Y140.749 E30.11121
G1 X93.151 Y140.072 E30.14355
G1 X93.142 Y140.07 E30.14398
G1 X93.77 Y137.485 E30.26784
G1 X94.312 Y134.943 E30.38887
G1 X94.76 Y132.497 E30.50466
G1 X95.153 Y129.96 E30.6242
G1 X95.47 Y127.446 E30.74219
G1 X95.713 Y124.938 E30.85952
G1 X95.887 Y122.398 E30.97807
G1 X95.991 Y119.833 E31.09761
G1 X96.021 Y117.334 E31.21398
G1 X95.979 Y114.765 E31.33362
G1 X95.866 Y112.235 E31.45155
G1 X95.682 Y109.708 E31.56953
G1 X95.425 Y107.176 E31.68803
G1 X95.097 Y104.662 E31.80609
G1 X94.695 Y102.129 E31.92551
G1 X94.23 Y99.658 E32.04259
G1 X93.688 Y97.168 E32.16125
G1 X93.318 Y95.684 E32.23247
G1 X93.111 Y94.802 E32.27465
G1 X92.944 Y93.914 E32.31672
G1 X92.856 Y93.015 E32.35879
G1 X92.841 Y92.523 E32.38171
G1 X92.838 Y91.938 E32.40895
G1 X92.847 Y91.081 E32.44885
G1 X92.849 Y89.999 E32.49924
G1 X92.858 Y89.364 E32.52881
G1 X92.911 Y88.463 E32.57084
G1 X93.043 Y87.57 E32.61287
G1 X93.254 Y86.691 E32.65496
G1 X93.598 Y85.691 E32.7042
G1 X93.709 Y85.416 E32.71801
G1 X93.868 Y85.044 E32.73685
G1 X93.909 Y84.953 E32.7415
G1 X94.316 Y84.147 E32.78354
G1 X94.793 Y83.38 E32.8256
G1 X95.336 Y82.658 E32.86767
G1 F2700 E27.86767
;MESH:support-1.stl
G0 F6000 X129.641 Y88.133
G0 X129.642 Y89.665
G0 X129.682 Y145.353
G0 X129.628 Y145.602
;TYPE:WALL-INNER
G1 F2700 E32.86767
G1 F1200 X103.862 Y145.602 E34.06744
G1 X103.718 Y145.546 E34.07463
G1 X103.648 Y145.378 E34.08311
G1 X103.648 Y142.606 E34.21218
G1 X103.748 Y142.468 E34.22012
G1 X106.611 Y141.124 E34.36739
G1 X109.328 Y139.429 E34.51651
G1 X111.825 Y137.422 E34.66568
G1 X114.064 Y135.132 E34.81481
G1 X116.016 Y132.593 E34.96394
G1 X117.652 Y129.839 E35.1131
G1 X118.949 Y126.91 E35.26226
G1 X119.889 Y123.849 E35.41136
G1 X120.459 Y120.698 E35.56046
G1 X120.649 Y117.5 E35.70964
G1 X120.458 Y114.303 E35.85877
G1 X119.889 Y111.151 E36.00791
G1 X118.949 Y108.09 E36.15701
G1 X117.652 Y105.161 E36.30617
G1 X116.016 Y102.407 E36.45533
G1 X114.064 Y99.868 E36.60446
G1 X111.825 Y97.578 E36.75359
G1 X109.328 Y95.571 E36.90276
G1 X106.612 Y93.875 E37.05186
G1 X103.75 Y92.531 E37.19909
G1 X103.647 Y92.387 E37.20734
G1 X103.648 Y89.622 E37.33609
G1 X103.719 Y89.453 E37.34462
G1 X103.861 Y89.398 E37.35171
G1 X129.636 Y89.397 E38.55191
G1 X129.782 Y89.455 E38.55922
G1 X129.852 Y89.622 E38.56765
G1 X129.853 Y145.386 E41.16426
G1 X129.795 Y145.532 E41.17157
G1 X129.628 Y145.602 E41.18001
G0 F6000 X129.709 Y146.002
;TYPE:WALL-OUTER
G1 F1200 X103.787 Y146.002 E42.38704
G1 X103.487 Y145.884 E42.40205
G1 X103.383 Y145.781 E42.40887
G1 X103.248 Y145.459 E42.42513
G1 X103.248 Y142.547 E42.56072
G1 X103.304 Y142.357 E42.56995
G1 X103.507 Y142.139 E42.58382
G1 X106.419 Y140.772 E42.73361
G1 X109.096 Y139.102 E42.88053
G1 X111.556 Y137.125 E43.02748
G1 X113.761 Y134.869 E43.17437
G1 X115.684 Y132.368 E43.32128
G1 X117.296 Y129.655 E43.46822
G1 X118.574 Y126.77 E43.61515
G1 X119.5 Y123.754 E43.76206
G1 X120.061 Y120.65 E43.90894
G1 X120.248 Y117.5 E44.05587
G1 X120.06 Y114.351 E44.20276
G1 X119.5 Y111.246 E44.34968
G1 X118.574 Y108.23 E44.49659
G1 X117.296 Y105.345 E44.64351
G1 X115.684 Y102.632 E44.79046
G1 X113.761 Y100.131 E44.93736
G1 X111.556 Y97.875 E45.08425
G1 X109.096 Y95.898 E45.23121
G1 X106.42 Y94.227 E45.37811
G1 X103.54 Y92.874 E45.52628
G1 X103.378 Y92.752 E45.53572
G1 X103.25 Y92.482 E45.54964
G1 X103.247 Y92.449 E45.55118
G1 X103.248 Y89.54 E45.68663
G1 X103.383 Y89.22 E45.70281
G1 X103.487 Y89.114 E45.70972
G1 X103.786 Y88.998 E45.72465
G1 X129.712 Y88.997 E46.93188
G1 X130.013 Y89.116 E46.94695
G1 X130.117 Y89.219 E46.95377
G1 X130.252 Y89.541 E46.97002
G1 X130.253 Y145.462 E49.57394
G1 X130.134 Y145.763 E49.58901
G1 X130.031 Y145.867 E49.59583
G1 X129.709 Y146.002 E49.61208
G0 F6000 X129.623 Y145.571
G0 X129.463 Y145.212
;TYPE:SKIN
G1 F1200 X104.038 Y145.212 E50.79598
G1 X104.038 Y142.762 E50.91006
G1 X106.798 Y141.467 E51.05202
G1 X109.554 Y139.747 E51.20329
G1 X112.088 Y137.711 E51.35466
G1 X114.359 Y135.388 E51.50593
G1 X116.34 Y132.812 E51.65724
G1 X117.999 Y130.018 E51.80855
G1 X119.315 Y127.047 E51.95986
G1 X120.269 Y123.941 E52.11115
G1 X120.847 Y120.745 E52.26239
G1 X121.039 Y117.5 E52.41375
G1 X120.846 Y114.256 E52.56507
G1 X120.269 Y111.059 E52.71634
G1 X119.315 Y107.953 E52.86764
G1 X117.999 Y104.982 E53.01895
G1 X116.34 Y102.188 E53.17025
