;FLAVOR:Marlin
;TIME:200
;Filament used: 0.106903m
;Layer height: 0.2
;MINX:93.5
;MINY:91
;MINZ:0.2
;MAXX:126.5
;MAXY:129
;MAXZ:2
;TARGET_MACHINE.NAME:Creality Ender-3 Pro
;Generated with Cura_SteamEngine 5.6.0
M82 ;absolute extrusion mode
; Ender 3 Custom Start G-code
G92 E0 ; Reset Extruder
G28 ; Home all axes
G1 Z5.0 F3000 ; Move Z Axis up a bit during heating to not damage bed
M104 S175 ; Start heating up the nozzle most of the way
M190 S60 ; Start heating the bed, wait until target temperature reached
M109 S200 ; Finish heating the nozzle
G1 Z2.0 F3000 ; Move Z Axis up little to prevent scratching of Heat Bed
G1 X0.1 Y20 Z0.3 F5000.0 ; Move to start position
G1 X0.1 Y200.0 Z0.3 F1500.0 E15 ; Draw the first line
G1 X0.4 Y200.0 Z0.3 F5000.0 ; Move to side a little
G1 X0.4 Y20 Z0.3 F1500.0 E30 ; Draw the second line
G92 E0 ; Reset Extruder
G1 Z2.0 F3000 ; Move Z Axis up little to prevent scratching of Heat Bed
G1 X5 Y20 Z0.3 F5000.0 ; Move over to prevent blob squish
G92 E0
G92 E0
G1 F1500 E-6.5
;LAYER_COUNT:10
;LAYER:0
M107
G0 F6000 X96.967 Y97.597 Z0.2
;TYPE:SKIRT
G1 F1500 E0
G1 F1200 X97.703 Y96.963 E0.03231
G1 X98.435 Y96.433 E0.06237
G1 X99.475 Y95.822 E0.10249
G1 X100.396 Y95.349 E0.13692
G1 X106.505 Y92.356 E0.36318
G1 X107.154 Y92.051 E0.38703
G1 X108.054 Y91.678 E0.41944
G1 X108.983 Y91.386 E0.45183
G1 X109.934 Y91.175 E0.48423
G1 X110.829 Y91.057 E0.51425
G1 X111.651 Y91.013 E0.54163
G1 X112.441 Y91.001 E0.56791
G1 X114.804 Y91 E0.6465
G1 X115.684 Y91.013 E0.67578
G1 X116.656 Y91.072 E0.70816
G1 X117.619 Y91.218 E0.74056
G1 X118.566 Y91.449 E0.77298
G1 X119.454 Y91.749 E0.80415
G1 X120.346 Y92.139 E0.83653
G1 X121.229 Y92.626 E0.87007
G1 X121.98 Y93.128 E0.90012
G1 X122.795 Y93.786 E0.93496
G1 X123.493 Y94.464 E0.96732
G1 X124.129 Y95.201 E0.9997
G1 X124.699 Y95.991 E1.0321
G1 X125.161 Y96.767 E1.06214
G1 X125.615 Y97.709 E1.09692
G1 X125.944 Y98.587 E1.1281
G1 X126.213 Y99.559 E1.16165
G1 X126.39 Y100.525 E1.19431
G1 X126.485 Y101.655 E1.23203
G1 X126.5 Y102.33 E1.25449
G1 X126.499 Y117.4 E1.75572
G1 X126.488 Y118.163 E1.7811
G1 X126.431 Y119.136 E1.81351
G1 X126.286 Y120.099 E1.8459
G1 X126.057 Y121.045 E1.87828
G1 X125.746 Y121.969 E1.9107
G1 X125.354 Y122.86 E1.94308
G1 X124.886 Y123.712 E1.97541
G1 X124.364 Y124.493 E2.00665
G1 X123.731 Y125.278 E2.04019
G1 X123.106 Y125.929 E2.07021
G1 X122.317 Y126.617 E2.10503
G1 X121.557 Y127.167 E2.13623
G1 X120.69 Y127.684 E2.16981
G1 X119.812 Y128.106 E2.20221
G1 X118.901 Y128.448 E2.23457
G1 X117.962 Y128.709 E2.26699
G1 X116.996 Y128.887 E2.29966
G1 X115.845 Y128.985 E2.33808
G1 X115.17 Y129 E2.36053
G1 X112.05 Y128.999 E2.4643
G1 X111.313 Y128.987 E2.48882
G1 X110.341 Y128.928 E2.52121
G1 X109.378 Y128.782 E2.5536
G1 X108.431 Y128.551 E2.58603
G1 X107.512 Y128.239 E2.6183
G1 X106.705 Y127.887 E2.64759
G1 X106.031 Y127.558 E2.67253
G1 X100.144 Y124.543 E2.89252
G1 X99.341 Y124.118 E2.92274
G1 X98.486 Y123.611 E2.9558
G1 X97.697 Y123.043 E2.98814
G1 X96.959 Y122.406 E3.02056
G1 X96.281 Y121.707 E3.05295
G1 X95.71 Y121.008 E3.08297
G1 X95.123 Y120.141 E3.11779
G1 X94.654 Y119.29 E3.15011
G1 X94.26 Y118.399 E3.18251
G1 X93.947 Y117.477 E3.2149
G1 X93.724 Y116.565 E3.24613
G1 X93.572 Y115.566 E3.27973
G1 X93.512 Y114.614 E3.31146
G1 X93.5 Y113.878 E3.33594
G1 X93.501 Y106.121 E3.59394
G1 X93.513 Y105.406 E3.61773
G1 X93.572 Y104.432 E3.65018
G1 X93.719 Y103.471 E3.68252
G1 X93.95 Y102.524 E3.71494
G1 X94.251 Y101.636 E3.74612
G1 X94.657 Y100.711 E3.77972
G1 X95.092 Y99.919 E3.80978
G1 X95.674 Y99.052 E3.84451
G1 X96.265 Y98.322 E3.87575
G1 X96.967 Y97.597 E3.90931
G0 F6000 X97.229 Y97.9
G1 F1200 X97.938 Y97.287 E3.94048
G1 X98.67 Y96.757 E3.97054
G1 X99.658 Y96.178 E4.00863
G1 X100.572 Y95.708 E4.04281
G1 X106.676 Y92.718 E4.26888
G1 X107.308 Y92.42 E4.29212
G1 X108.175 Y92.059 E4.32336
G1 X109.07 Y91.776 E4.35458
G1 X109.986 Y91.572 E4.38579
G1 X110.881 Y91.454 E4.41582
G1 X111.657 Y91.413 E4.44166
G1 X112.441 Y91.401 E4.46774
G1 X114.798 Y91.4 E4.54614
G1 X115.66 Y91.412 E4.57481
G1 X116.597 Y91.468 E4.60603
G1 X117.525 Y91.607 E4.63724
G1 X118.438 Y91.828 E4.66848
G1 X119.294 Y92.116 E4.69852
G1 X120.186 Y92.506 E4.7309
G1 X121.007 Y92.959 E4.76209
G1 X121.758 Y93.461 E4.79213
G1 X122.517 Y94.073 E4.82456
G1 X123.191 Y94.726 E4.85578
G1 X123.805 Y95.435 E4.88697
G1 X124.355 Y96.196 E4.9182
G1 X124.817 Y96.972 E4.94824
G1 X125.24 Y97.849 E4.98062
G1 X125.569 Y98.727 E5.01181
G1 X125.82 Y99.632 E5.04305
G1 X125.991 Y100.559 E5.0744
G1 X126.086 Y101.689 E5.11211
G1 X126.1 Y102.33 E5.13344
G1 X126.099 Y117.395 E5.6345
G1 X126.089 Y118.14 E5.65928
G1 X126.035 Y119.077 E5.6905
G1 X125.897 Y120.006 E5.72174
G1 X125.678 Y120.918 E5.75293
G1 X125.38 Y121.808 E5.78415
G1 X125.003 Y122.668 E5.81538
G1 X124.553 Y123.49 E5.84655
G1 X124.031 Y124.271 E5.87779
G1 X123.442 Y125.001 E5.90899
G1 X122.817 Y125.652 E5.93901
G1 X122.082 Y126.293 E5.97144
G1 X121.322 Y126.843 E6.00265
G1 X120.516 Y127.324 E6.03387
G1 X119.671 Y127.732 E6.06508
G1 X118.793 Y128.063 E6.09628
G1 X117.889 Y128.316 E6.12751
G1 X116.962 Y128.488 E6.15886
G1 X115.811 Y128.586 E6.19729
G1 X115.17 Y128.6 E6.21861
G1 X112.056 Y128.599 E6.32218
G1 X111.337 Y128.588 E6.3461
G1 X110.4 Y128.532 E6.37732
G1 X109.472 Y128.393 E6.40853
G1 X108.559 Y128.172 E6.43977
G1 X107.672 Y127.872 E6.47092
G1 X106.88 Y127.527 E6.49965
G1 X106.213 Y127.202 E6.52433
G1 X100.331 Y124.189 E6.74414
G1 X99.528 Y123.764 E6.77435
G1 X98.719 Y123.286 E6.80561
G1 X97.958 Y122.74 E6.83676
G1 X97.246 Y122.127 E6.86801
G1 X96.591 Y121.454 E6.89924
G1 X96.02 Y120.755 E6.92926
G1 X95.473 Y119.948 E6.96169
G1 X95.02 Y119.128 E6.99285
G1 X94.639 Y118.27 E7.02407
G1 X94.336 Y117.382 E7.05528
G1 X94.113 Y116.47 E7.08651
G1 X93.971 Y115.541 E7.11776
G1 X93.912 Y114.607 E7.14889
G1 X93.9 Y113.878 E7.17314
G1 X93.901 Y106.127 E7.43094
G1 X93.912 Y105.43 E7.45412
G1 X93.968 Y104.492 E7.48538
G1 X94.108 Y103.565 E7.51656
G1 X94.329 Y102.652 E7.5478
G1 X94.618 Y101.796 E7.57785
G1 X95.008 Y100.904 E7.61023
G1 X95.443 Y100.112 E7.64029
G1 X95.985 Y99.304 E7.67265
G1 X96.576 Y98.574 E7.70389
G1 X97.229 Y97.9 E7.7351
G0 F6000 X97.491 Y98.202
G1 F1200 X98.173 Y97.611 E7.76511
G1 X98.905 Y97.081 E7.79517
G1 X99.841 Y96.534 E7.83123
G1 X100.748 Y96.067 E7.86516
G1 X106.847 Y93.08 E8.09104
G1 X107.463 Y92.789 E8.1137
G1 X108.296 Y92.44 E8.14373
G1 X109.157 Y92.166 E8.17379
G1 X110.038 Y91.969 E8.20381
G1 X110.933 Y91.851 E8.23384
G1 X111.663 Y91.813 E8.25815
G1 X112.441 Y91.801 E8.28403
G1 X114.793 Y91.8 E8.36226
G1 X115.637 Y91.811 E8.39033
G1 X116.539 Y91.864 E8.42038
G1 X117.432 Y91.996 E8.45041
G1 X118.31 Y92.207 E8.48044
G1 X119.166 Y92.495 E8.51048
G1 X119.993 Y92.857 E8.54051
G1 X120.785 Y93.292 E8.57056
G1 X121.536 Y93.794 E8.60061
G1 X122.239 Y94.361 E8.63064
G1 X122.889 Y94.988 E8.66068
G1 X123.481 Y95.67 E8.69072
G1 X124.011 Y96.401 E8.72075
G1 X124.473 Y97.177 E8.75079
G1 X124.866 Y97.99 E8.78082
G1 X125.184 Y98.835 E8.81085
G1 X125.427 Y99.705 E8.8409
G1 X125.592 Y100.593 E8.87094
G1 X125.687 Y101.723 E8.90865
G1 X125.7 Y102.33 E8.92885
G1 X125.699 Y117.39 E9.42974
G1 X125.69 Y118.117 E9.45393
G1 X125.639 Y119.019 E9.48397
G1 X125.508 Y119.913 E9.51403
G1 X125.299 Y120.791 E9.54405
G1 X125.013 Y121.648 E9.57409
G1 X124.652 Y122.476 E9.60414
G1 X124.22 Y123.268 E9.63414
G1 X123.719 Y124.02 E9.6642
G1 X123.153 Y124.724 E9.69424
G1 X122.528 Y125.375 E9.72426
G1 X121.847 Y125.969 E9.75431
G1 X121.116 Y126.5 E9.78436
G1 X120.342 Y126.964 E9.81438
G1 X119.529 Y127.358 E9.84443
G1 X118.685 Y127.678 E9.87445
G1 X117.815 Y127.923 E9.90451
G1 X116.928 Y128.089 E9.93452
G1 X115.777 Y128.187 E9.97295
G1 X115.17 Y128.2 E9.99314
G1 X112.062 Y128.199 E10.09651
G1 X111.36 Y128.189 E10.11986
G1 X110.458 Y128.136 E10.14992
G1 X109.565 Y128.004 E10.17994
G1 X108.687 Y127.793 E10.20997
G1 X107.831 Y127.505 E10.24001
G1 X107.055 Y127.168 E10.26815
G1 X106.395 Y126.846 E10.29258
G1 X100.518 Y123.836 E10.51219
G1 X99.731 Y123.419 E10.54181
G1 X98.952 Y122.961 E10.57187
G1 X98.218 Y122.436 E10.60189
G1 X97.532 Y121.848 E10.63194
G1 X96.901 Y121.201 E10.662
G1 X96.33 Y120.502 E10.69201
G1 X95.823 Y119.754 E10.72207
G1 X95.385 Y118.965 E10.75208
G1 X95.017 Y118.14 E10.78213
G1 X94.724 Y117.286 E10.81216
G1 X94.508 Y116.409 E10.8422
G1 X94.37 Y115.516 E10.87225
G1 X94.312 Y114.6 E10.90278
G1 X94.3 Y113.878 E10.9268
G1 X94.301 Y106.133 E11.1844
G1 X94.311 Y105.453 E11.20702
G1 X94.364 Y104.551 E11.23707
G1 X94.497 Y103.658 E11.2671
G1 X94.708 Y102.78 E11.29713
G1 X94.997 Y101.924 E11.32718
G1 X95.359 Y101.097 E11.35721
G1 X95.794 Y100.305 E11.38726
G1 X96.296 Y99.555 E11.41728
G1 X96.864 Y98.852 E11.44734
G1 X97.491 Y98.202 E11.47738
G1 F1500 E4.97738
;MESH:hairs-nut-guide.stl
G0 F6000 X104.441 Y104.875
G0 X114.9 Y117.4
;TYPE:WALL-INNER
G1 F1500 E11.47738
G1 F1200 X114.9 Y102.6 E11.96963
G1 X111.963 Y102.6 E12.06731
G1 X105.1 Y105.96 E12.32147
G1 X105.1 Y114.048 E12.59047
G1 X111.645 Y117.4 E12.83505
G1 X114.9 Y117.4 E12.94331
G0 F6000 X115.3 Y117.8
;TYPE:WALL-OUTER
G1 F1200 X115.3 Y102.2 E13.46217
G1 X111.87 Y102.2 E13.57625
G1 X104.7 Y105.71 E13.84177
G1 X104.7 Y114.292 E14.12721
G1 X111.549 Y117.8 E14.38315
G1 X115.3 Y117.8 E14.50791
G0 F6000 X115.03 Y117.53
G0 X114.8 Y117.04
G0 X114.54 Y117.04
;TYPE:SKIN
G1 F1200 X111.732 Y117.04 E14.6013
G1 X105.46 Y113.826 E14.8357
G1 X105.46 Y106.185 E15.08984
G1 X112.047 Y102.96 E15.33378
G1 X114.54 Y102.96 E15.41669
G1 X114.54 Y117.04 E15.885
G0 F6000 X114.8 Y117.04
G0 X111.684 Y117.238
G0 X105.399 Y114.088
G0 X105.66 Y113.579
G1 F1200 X105.911 Y113.831 E15.89683
G0 F6000 X105.66 Y113.014
G1 F1200 X107.072 Y114.426 E15.96324
G0 F6000 X106.861 Y114.837
G0 X108.021 Y115.431
G0 X108.232 Y115.02
G1 F1200 X105.66 Y112.448 E16.08422
G0 F6000 X105.66 Y111.882
G1 F1200 X109.392 Y115.615 E16.25979
G0 F6000 X109.182 Y116.026
G0 X110.341 Y116.619
G0 X110.552 Y116.209
G1 F1200 X105.66 Y111.316 E16.48992
G0 F6000 X105.66 Y110.751
G1 F1200 X111.712 Y116.804 E16.77461
G0 F6000 X112.313 Y116.838
G1 F1200 X105.66 Y110.185 E17.08754
G0 F6000 X105.66 Y109.619
G1 F1200 X112.878 Y116.838 E17.42708
G0 F6000 X113.444 Y116.838
G1 F1200 X105.66 Y109.054 E17.79322
G0 F6000 X105.66 Y108.488
G1 F1200 X114.01 Y116.838 E18.18597
G0 F6000 X114.339 Y116.602
G1 F1200 X105.66 Y107.922 E18.59423
G0 F6000 X105.66 Y107.357
G1 F1200 X114.339 Y116.036 E19.00246
G0 F6000 X114.339 Y115.471
G1 F1200 X105.66 Y106.791 E19.41072
G0 F6000 X105.716 Y106.282
G1 F1200 X114.339 Y114.905 E19.81632
G0 F6000 X114.339 Y114.339
G1 F1200 X106.096 Y106.096 E20.20405
G0 F6000 X106.476 Y105.91
G1 F1200 X114.339 Y113.774 E20.57392
G0 F6000 X114.339 Y113.208
G1 F1200 X106.855 Y105.724 E20.92595
G0 F6000 X107.235 Y105.538
G1 F1200 X114.339 Y112.642 E21.2601
G0 F6000 X114.339 Y112.077
G1 F1200 X107.615 Y105.352 E21.5764
G0 F6000 X107.995 Y105.166
G1 F1200 X114.339 Y111.511 E21.87482
G0 F6000 X114.339 Y110.945
G1 F1200 X108.374 Y104.98 E22.1554
G0 F6000 X108.754 Y104.794
G1 F1200 X114.339 Y110.38 E22.41812
G0 F6000 X114.339 Y109.814
G1 F1200 X109.134 Y104.608 E22.66297
G0 F6000 X109.513 Y104.422
G1 F1200 X114.339 Y109.248 E22.88997
G0 F6000 X114.339 Y108.683
G1 F1200 X109.893 Y104.236 E23.09912
G0 F6000 X110.273 Y104.05
G1 F1200 X114.339 Y108.117 E23.2904
G0 F6000 X114.339 Y107.551
G1 F1200 X110.653 Y103.864 E23.4638
G0 F6000 X111.032 Y103.678
G1 F1200 X114.339 Y106.985 E23.61935
G0 F6000 X114.339 Y106.42
G1 F1200 X111.412 Y103.492 E23.75705
G0 F6000 X111.792 Y103.306
G1 F1200 X114.339 Y105.854 E23.87688
G0 F6000 X114.339 Y105.288
G1 F1200 X112.21 Y103.159 E23.97702
G0 F6000 X112.776 Y103.159
G1 F1200 X114.339 Y104.723 E24.05056
G0 F6000 X114.339 Y104.157
G1 F1200 X113.342 Y103.159 E24.09748
G0 F6000 X113.907 Y103.159
G1 F1200 X114.339 Y103.591 E24.1178
M104 S200
G1 F1500 E17.6178
;MESH:NONMESH
G0 F300 X114.339 Y103.591 Z0.4
G0 F6000 X114.8 Y103.591
G0 X114.728 Y102.772
G0 X112 Y102.762
G0 X104.916 Y105.844
G0 X104.441 Y104.875
G0 X97.491 Y98.202
;TIME_ELAPSED:46.191231
;LAYER:1
M106 S85
;TYPE:SKIRT
G1 F1500 E24.1178
G1 F1200 X98.173 Y97.611 E24.14782
G1 X98.905 Y97.081 E24.17787
G1 X99.841 Y96.534 E24.21393
G1 X100.748 Y96.067 E24.24786
G1 X106.847 Y93.08 E24.47374
G1 X107.463 Y92.789 E24.4964
G1 X108.296 Y92.44 E24.52644
G1 X109.157 Y92.166 E24.55649
G1 X110.038 Y91.969 E24.58651
G1 X110.933 Y91.851 E24.61654
G1 X111.663 Y91.813 E24.64085
G1 X112.441 Y91.801 E24.66673
G1 X114.793 Y91.8 E24.74496
G1 X115.637 Y91.811 E24.77303
G1 X116.539 Y91.864 E24.80309
G1 X117.432 Y91.996 E24.83311
G1 X118.31 Y92.207 E24.86314
G1 X119.166 Y92.495 E24.89318
G1 X119.993 Y92.857 E24.92321
G1 X120.785 Y93.292 E24.95326
G1 X121.536 Y93.794 E24.98331
G1 X122.239 Y94.361 E25.01335
G1 X122.889 Y94.988 E25.04339
G1 X123.481 Y95.67 E25.07342
G1 X124.011 Y96.401 E25.10345
G1 X124.473 Y97.177 E25.13349
G1 X124.866 Y97.99 E25.16353
G1 X125.184 Y98.835 E25.19355
G1 X125.427 Y99.705 E25.2236
G1 X125.592 Y100.593 E25.25364
G1 X125.687 Y101.723 E25.29136
G1 X125.7 Y102.33 E25.31155
G1 X125.699 Y117.39 E25.81245
G1 X125.69 Y118.117 E25.83663
G1 X125.639 Y119.019 E25.86668
G1 X125.508 Y119.913 E25.89673
G1 X125.299 Y120.791 E25.92675
G1 X125.013 Y121.648 E25.9568
G1 X124.652 Y122.476 E25.98684
G1 X124.22 Y123.268 E26.01685
G1 X123.719 Y124.02 E26.0469
G1 X123.153 Y124.724 E26.07694
G1 X122.528 Y125.375 E26.10696
G1 X121.847 Y125.969 E26.13702
G1 X121.116 Y126.5 E26.16707
G1 X120.342 Y126.964 E26.19708
G1 X119.529 Y127.358 E26.22713
G1 X118.685 Y127.678 E26.25715
G1 X117.815 Y127.923 E26.28721
G1 X116.928 Y128.089 E26.31723
G1 X115.777 Y128.187 E26.35565
G1 X115.17 Y128.2 E26.37584
G1 X112.062 Y128.199 E26.47921
G1 X111.36 Y128.189 E26.50257
G1 X110.458 Y128.136 E26.53262
G1 X109.565 Y128.004 E26.56264
G1 X108.687 Y127.793 E26.59268
G1 X107.831 Y127.505 E26.62271
G1 X107.055 Y127.168 E26.65085
G1 X106.395 Y126.846 E26.67528
G1 X100.518 Y123.836 E26.89489
G1 X99.731 Y123.419 E26.92452
G1 X98.952 Y122.961 E26.95457
G1 X98.218 Y122.436 E26.98459
G1 X97.532 Y121.848 E27.01464
G1 X96.901 Y121.201 E27.0447
G1 X96.33 Y120.502 E27.07472
G1 X95.823 Y119.754 E27.10477
G1 X95.385 Y118.965 E27.13479
G1 X95.017 Y118.14 E27.16483
G1 X94.724 Y117.286 E27.19486
G1 X94.508 Y116.409 E27.2249
G1 X94.37 Y115.516 E27.25496
G1 X94.312 Y114.6 E27.28548
G1 X94.3 Y113.878 E27.3095
G1 X94.301 Y106.133 E27.5671
G1 X94.311 Y105.453 E27.58972
G1 X94.364 Y104.551 E27.61977
G1 X94.497 Y103.658 E27.6498
G1 X94.708 Y102.78 E27.67984
G1 X94.997 Y101.924 E27.70988
G1 X95.359 Y101.097 E27.73991
G1 X95.794 Y100.305 E27.76996
G1 X96.296 Y99.555 E27.79998
G1 X96.864 Y98.852 E27.83004
G1 X97.491 Y98.202 E27.86008
G1 F1500 E21.36008
;MESH:hairs-nut-guide.stl
G0 F7500 X104.441 Y104.875
G0 X114.9 Y117.4
;TYPE:WALL-INNER
G1 F1500 E27.86008
G1 F1350 X114.9 Y102.6 E28.35233
G1 X111.963 Y102.6 E28.45001
G1 X105.1 Y105.96 E28.70417
G1 X105.1 Y114.048 E28.97318
G1 X111.645 Y117.4 E29.21775
G1 X114.9 Y117.4 E29.32601
G0 F7500 X115.3 Y117.8
;TYPE:WALL-OUTER
G1 F1350 X115.3 Y102.2 E29.84487
G1 X111.87 Y102.2 E29.95895
G1 X104.7 Y105.71 E30.22447
G1 X104.7 Y114.292 E30.50991
G1 X111.549 Y117.8 E30.76585
G1 X115.3 Y117.8 E30.89061
G0 F7500 X115.03 Y117.53
G0 X114.8 Y117.04
G0 X114.54 Y117.04
;TYPE:SKIN
G1 F1350 X111.732 Y117.04 E30.984
G1 X105.46 Y113.826 E31.21841
G1 X105.46 Y106.185 E31.47255
G1 X112.047 Y102.96 E31.71648
G1 X114.54 Y102.96 E31.7994
G1 X114.54 Y117.04 E32.2677
G0 F7500 X114.339 Y116.46
G1 F1350 X113.96 Y116.838 E32.2855
G0 F7500 X113.395 Y116.838
G1 F1350 X114.339 Y115.894 E32.32991
G0 F7500 X114.339 Y115.329
G1 F1350 X112.829 Y116.838 E32.40091
G0 F7500 X112.263 Y116.838
G1 F1350 X114.339 Y114.763 E32.49853
G0 F7500 X114.339 Y114.197
G1 F1350 X111.725 Y116.811 E32.62149
G0 F7500 X111.351 Y116.619
G1 F1350 X114.339 Y113.632 E32.76201
G0 F7500 X114.339 Y113.066
G1 F1350 X110.977 Y116.427 E32.92013
G0 F7500 X110.603 Y116.236
G1 F1350 X114.339 Y112.5 E33.09586
G0 F7500 X114.339 Y111.935
G1 F1350 X110.229 Y116.044 E33.28915
G0 F7500 X109.855 Y115.853
G1 F1350 X114.339 Y111.369 E33.50007
G0 F7500 X114.339 Y110.803
