;FLAVOR:Marlin
;TIME:2097
;Filament used: 0.64799m
;Layer height: 0.2
;MINX:95
;MINY:90.5
;MINZ:0.2
;MAXX:125
;MAXY:129.5
;MAXZ:32
;Generated with Cura_SteamEngine 5.2.1
M82 ;absolute extrusion mode
; Ender 3 Custom Start G-code
G92 E0 ; Reset Extruder
G28 ; Home all axes
M104 S175 ; Start heating up the nozzle most of the way
M190 S60 ; Start heating the bed, wait until target temperature reached
M109 S200 ; Finish heating the nozzle
G1 Z2.0 F3000 ; Move Z Axis up little to prevent scratching of Heat Bed
G1 X0.1 Y20 Z0.3 F5000.0 ; Move to start position
G1 X0.1 Y200.0 Z0.3 F1500.0 E15 ; Draw the first line
G1 X0.4 Y200.0 Z0.3 F5000.0 ; Move to side a little
G1 X0.4 Y20 Z0.3 F1500.0 E30 ; Draw the second line
G92 E0 ; Reset Extruder
G1 Z2.0 F3000 ; Move Z Axis up little to prevent scratching of Heat Bed
G1 X5 Y20 Z0.3 F5000.0 ; Move over to prevent blob squish
G92 E0
G92 E0
G1 F1500 E-6.5
;LAYER_COUNT:160
;LAYER:0
M107
G0 F6000 X98.198 Y93.764 Z0.2
;TYPE:SKIRT
G1 F1500 E0
G1 F1200 X98.886 Y93.127 E0.03119
G1 X99.626 Y92.551 E0.06237
G1 X100.412 Y92.039 E0.09357
G1 X101.239 Y91.597 E0.12476
G1 X102.101 Y91.227 E0.15596
G1 X102.991 Y90.931 E0.18716
G1 X103.903 Y90.713 E0.21835
G1 X104.83 Y90.572 E0.24953
G1 X105.701 Y90.513 E0.27857
G1 X106.33 Y90.5 E0.29949
G1 X113.451 Y90.501 E0.53634
G1 X114.149 Y90.511 E0.55956
G1 X115.085 Y90.565 E0.59074
G1 X116.013 Y90.697 E0.62192
G1 X116.927 Y90.909 E0.65312
G1 X117.819 Y91.198 E0.68431
G1 X118.684 Y91.561 E0.71551
G1 X119.514 Y91.997 E0.74669
G1 X120.305 Y92.502 E0.77791
G1 X121.049 Y93.073 E0.8091
G1 X121.742 Y93.705 E0.84029
G1 X122.379 Y94.393 E0.87148
G1 X122.954 Y95.134 E0.90268
G1 X123.465 Y95.92 E0.93386
G1 X123.907 Y96.748 E0.96507
G1 X124.276 Y97.61 E0.99626
G1 X124.571 Y98.5 E1.02745
G1 X124.789 Y99.412 E1.05863
G1 X124.929 Y100.34 E1.08985
G1 X124.987 Y101.201 E1.11855
G1 X125 Y101.83 E1.13948
G1 X124.999 Y117.9 E1.67397
G1 X124.99 Y118.627 E1.69815
G1 X124.939 Y119.564 E1.72936
G1 X124.807 Y120.492 E1.76054
G1 X124.598 Y121.406 E1.79172
G1 X124.311 Y122.299 E1.82292
G1 X123.949 Y123.165 E1.85414
G1 X123.515 Y123.996 E1.88532
G1 X123.011 Y124.787 E1.91651
G1 X122.442 Y125.532 E1.94769
G1 X121.811 Y126.227 E1.97891
G1 X121.124 Y126.865 E2.0101
G1 X120.385 Y127.442 E2.04128
G1 X119.599 Y127.954 E2.07248
G1 X118.773 Y128.397 E2.10366
G1 X117.911 Y128.769 E2.13488
G1 X117.022 Y129.065 E2.16605
G1 X116.11 Y129.285 E2.19725
G1 X115.183 Y129.426 E2.22844
G1 X114.299 Y129.487 E2.25791
G1 X113.67 Y129.5 E2.27883
G1 X106.565 Y129.499 E2.51515
G1 X105.867 Y129.49 E2.53836
G1 X104.931 Y129.438 E2.56954
G1 X104.002 Y129.306 E2.60075
G1 X103.088 Y129.096 E2.63194
G1 X102.195 Y128.809 E2.66314
G1 X101.33 Y128.446 E2.69434
G1 X100.499 Y128.012 E2.72552
G1 X99.708 Y127.508 E2.75672
G1 X98.963 Y126.938 E2.78792
G1 X98.269 Y126.307 E2.81912
G1 X97.632 Y125.62 E2.85028
G1 X97.055 Y124.88 E2.88149
G1 X96.543 Y124.094 E2.91269
G1 X96.1 Y123.267 E2.94389
G1 X95.729 Y122.406 E2.97507
G1 X95.433 Y121.516 E3.00627
G1 X95.214 Y120.604 E3.03746
G1 X95.073 Y119.677 E3.06865
G1 X95.013 Y118.788 E3.09829
G1 X95 Y118.158 E3.11924
G1 X95.001 Y102.025 E3.65583
G1 X95.01 Y101.36 E3.67795
G1 X95.063 Y100.424 E3.70913
G1 X95.195 Y99.495 E3.74034
G1 X95.406 Y98.581 E3.77154
G1 X95.694 Y97.689 E3.80272
G1 X96.057 Y96.824 E3.83392
G1 X96.492 Y95.993 E3.86511
G1 X96.996 Y95.203 E3.89628
G1 X97.566 Y94.458 E3.92748
G1 X98.198 Y93.764 E3.9587
G0 F6000 X98.589 Y93.939
G1 F1200 X99.274 Y93.323 E3.98934
G1 X100.01 Y92.77 E4.01996
G1 X100.791 Y92.282 E4.05059
G1 X101.611 Y91.864 E4.0812
G1 X102.465 Y91.519 E4.11184
G1 X103.345 Y91.249 E4.14245
G1 X104.245 Y91.057 E4.17306
G1 X105.159 Y90.943 E4.2037
G1 X105.712 Y90.913 E4.22211
G1 X106.33 Y90.9 E4.24267
G1 X113.293 Y90.9 E4.47426
G1 X114.143 Y90.911 E4.50254
G1 X115.062 Y90.964 E4.53315
G1 X115.973 Y91.097 E4.56378
G1 X116.869 Y91.308 E4.59439
G1 X117.743 Y91.596 E4.625
G1 X118.59 Y91.959 E4.65565
G1 X119.401 Y92.394 E4.68626
G1 X120.171 Y92.898 E4.71687
G1 X120.895 Y93.467 E4.74749
G1 X121.567 Y94.097 E4.77813
G1 X122.182 Y94.782 E4.80875
G1 X122.735 Y95.518 E4.83937
G1 X123.222 Y96.299 E4.86998
G1 X123.639 Y97.12 E4.90061
G1 X123.984 Y97.974 E4.93124
G1 X124.253 Y98.854 E4.96185
G1 X124.445 Y99.755 E4.99249
G1 X124.558 Y100.668 E5.02309
G1 X124.587 Y101.212 E5.04121
G1 X124.6 Y101.83 E5.06176
G1 X124.599 Y117.895 E5.59609
G1 X124.59 Y118.622 E5.62027
G1 X124.539 Y119.541 E5.65088
G1 X124.408 Y120.453 E5.68153
G1 X124.198 Y121.349 E5.71214
G1 X123.912 Y122.224 E5.74276
G1 X123.551 Y123.071 E5.77338
G1 X123.117 Y123.883 E5.804
G1 X122.615 Y124.655 E5.83463
G1 X122.047 Y125.38 E5.86526
G1 X121.419 Y126.053 E5.89588
G1 X120.735 Y126.669 E5.92649
G1 X120 Y127.223 E5.95711
G1 X119.22 Y127.712 E5.98773
G1 X118.4 Y128.131 E6.01835
G1 X117.547 Y128.477 E6.04897
G1 X116.667 Y128.748 E6.07959
G1 X115.767 Y128.941 E6.11021
G1 X114.853 Y129.056 E6.14085
G1 X114.288 Y129.087 E6.15967
G1 X113.67 Y129.1 E6.18023
G1 X106.57 Y129.099 E6.41638
G1 X105.872 Y129.09 E6.43959
G1 X104.953 Y129.038 E6.47021
G1 X104.042 Y128.907 E6.50082
G1 X103.146 Y128.697 E6.53143
G1 X102.271 Y128.41 E6.56206
G1 X101.424 Y128.048 E6.59269
G1 X100.612 Y127.614 E6.62332
G1 X99.841 Y127.112 E6.65392
G1 X99.116 Y126.544 E6.68455
G1 X98.443 Y125.915 E6.71519
G1 X97.828 Y125.231 E6.74578
G1 X97.274 Y124.496 E6.77639
G1 X96.786 Y123.715 E6.80702
G1 X96.367 Y122.895 E6.83765
G1 X96.021 Y122.042 E6.86827
G1 X95.751 Y121.162 E6.89888
G1 X95.558 Y120.261 E6.92953
G1 X95.444 Y119.348 E6.96013
G1 X95.413 Y118.777 E6.97915
G1 X95.4 Y118.158 E6.99974
G1 X95.401 Y102.031 E7.53613
G1 X95.41 Y101.366 E7.55825
G1 X95.462 Y100.446 E7.5889
G1 X95.594 Y99.535 E7.61951
G1 X95.805 Y98.639 E7.65013
G1 X96.092 Y97.764 E7.68076
G1 X96.455 Y96.918 E7.71138
G1 X96.889 Y96.106 E7.742
G1 X97.392 Y95.335 E7.77262
G1 X97.961 Y94.611 E7.80325
G1 X98.589 Y93.939 E7.83384
G0 F6000 X98.981 Y94.117
G1 F1200 X99.662 Y93.524 E7.86387
G1 X100.394 Y92.994 E7.89393
G1 X101.169 Y92.531 E7.92396
G1 X101.982 Y92.138 E7.95399
G1 X102.827 Y91.818 E7.98404
G1 X103.696 Y91.575 E8.01405
G1 X104.584 Y91.409 E8.0441
G1 X105.723 Y91.313 E8.08212
G1 X106.33 Y91.3 E8.10231
G1 X113.293 Y91.3 E8.3339
G1 X114.137 Y91.311 E8.36198
G1 X115.039 Y91.364 E8.39203
G1 X115.932 Y91.496 E8.42205
G1 X116.81 Y91.707 E8.45209
G1 X117.666 Y91.995 E8.48213
G1 X118.493 Y92.357 E8.51215
G1 X119.285 Y92.792 E8.54221
G1 X120.036 Y93.294 E8.57225
G1 X120.739 Y93.861 E8.60229
G1 X121.389 Y94.488 E8.63233
G1 X121.981 Y95.17 E8.66236
G1 X122.511 Y95.901 E8.6924
G1 X122.973 Y96.677 E8.72243
G1 X123.366 Y97.49 E8.75247
G1 X123.684 Y98.335 E8.7825
G1 X123.927 Y99.205 E8.81254
G1 X124.092 Y100.093 E8.84258
G1 X124.187 Y101.223 E8.8803
G1 X124.2 Y101.83 E8.90049
G1 X124.199 Y117.89 E9.43465
G1 X124.19 Y118.617 E9.45883
G1 X124.139 Y119.519 E9.48888
G1 X124.008 Y120.413 E9.51893
G1 X123.799 Y121.291 E9.54895
G1 X123.513 Y122.148 E9.579
G1 X123.152 Y122.976 E9.60904
G1 X122.72 Y123.768 E9.63905
G1 X122.219 Y124.52 E9.6691
G1 X121.653 Y125.224 E9.69915
G1 X121.028 Y125.875 E9.72916
G1 X120.347 Y126.469 E9.75922
G1 X119.616 Y127 E9.78927
G1 X118.842 Y127.464 E9.81928
G1 X118.029 Y127.858 E9.84933
G1 X117.185 Y128.178 E9.87935
G1 X116.315 Y128.423 E9.90942
G1 X115.428 Y128.589 E9.93943
G1 X114.277 Y128.687 E9.97785
G1 X113.67 Y128.7 E9.99804
G1 X106.575 Y128.699 E10.23402
G1 X105.877 Y128.69 E10.25724
G1 X104.976 Y128.639 E10.28726
G1 X104.082 Y128.507 E10.31731
G1 X103.204 Y128.298 E10.34733
G1 X102.347 Y128.011 E10.37739
G1 X101.52 Y127.65 E10.40741
G1 X100.727 Y127.217 E10.43746
G1 X99.976 Y126.716 E10.46748
G1 X99.272 Y126.15 E10.49753
G1 X98.621 Y125.524 E10.52757
G1 X98.028 Y124.843 E10.5576
G1 X97.498 Y124.112 E10.58763
G1 X97.034 Y123.337 E10.61767
G1 X96.64 Y122.524 E10.64772
G1 X96.32 Y121.68 E10.67774
G1 X96.076 Y120.81 E10.7078
G1 X95.91 Y119.922 E10.73784
G1 X95.813 Y118.767 E10.77639
G1 X95.8 Y118.158 E10.79665
G1 X95.801 Y102.036 E11.33287
G1 X95.81 Y101.371 E11.35499
G1 X95.862 Y100.469 E11.38504
G1 X95.994 Y99.576 E11.41507
G1 X96.204 Y98.698 E11.44509
G1 X96.491 Y97.841 E11.47515
G1 X96.853 Y97.014 E11.50518
G1 X97.286 Y96.222 E11.5352
G1 X97.788 Y95.471 E11.56525
G1 X98.355 Y94.767 E11.59531
G1 X98.981 Y94.117 E11.62533
G1 F1500 E5.12533
;MESH:box-Cut.stl
G0 F6000 X106.414 Y100.835
G0 X106.6 Y117.9
;TYPE:WALL-INNER
G1 F1500 E11.62533
G1 F1200 X113.4 Y117.9 E11.8515
G1 X113.4 Y103.507 E12.33021
G1 X113.4 Y102.1 E12.37701
G1 X106.6 Y102.1 E12.60318
G1 X106.6 Y105.05 E12.70129
G1 X107 Y104.65 E12.72011
G1 X111 Y104.65 E12.85315
G1 X111.297 Y104.728 E12.86336
G1 X111.508 Y104.928 E12.87303
G1 X111.6 Y105.25 E12.88417
G1 X111.6 Y114.833 E13.2029
G1 X111.508 Y115.072 E13.21142
G1 X111.297 Y115.272 E13.22109
G1 X111.082 Y115.35 E13.2287
G1 X107 Y115.35 E13.36446
G1 X106.6 Y115.014 E13.38184
G1 X106.6 Y117.9 E13.47783
G0 F6000 X106.2 Y118.3
;TYPE:WALL-OUTER
G1 F1200 X113.8 Y118.3 E13.7306
G1 X113.8 Y103.507 E14.22262
G1 X113.8 Y101.7 E14.28272
G1 X106.2 Y101.7 E14.5355
G1 X106.2 Y104.25 E14.62031
G1 F1066.7 X106.25 Y105.25 E14.65778
G1 F956.2 X106.252 Y114.837 E15.05795
G1 F1061.9 X106.2 Y115.75 E15.09232
G1 F1200 X106.2 Y118.3 E15.17714
G1 F1500 E8.67714
G0 F6000 X106.47 Y118.03
G0 X106.5 Y114.794
G1 F1500 E15.17714
G0 F6000 X106.751 Y114.794
G1 F956.2 X106.75 Y105.25 E15.57552
G1 F1066.7 X107 Y105.05 E15.5875
G1 F1200 X111 Y105.05 E15.72054
G1 X111.17 Y105.142 E15.72697
G1 X111.2 Y105.25 E15.73069
G1 X111.198 Y114.785 E16.04783
G1 X111.17 Y114.858 E16.05043
G1 X111.035 Y114.948 E16.05583
G1 X107 Y114.95 E16.19003
G1 F1061.9 X106.751 Y114.794 E16.20107
G0 F6000 X106.5 Y114.794
G0 X106.7 Y117.54
G0 X106.96 Y117.54
;TYPE:SKIN
G1 F1200 X113.04 Y117.54 E16.4033
G1 X113.04 Y103.507 E16.87003
G1 X113.04 Y102.46 E16.90486
G1 X106.96 Y102.46 E17.10708
G1 X106.961 Y104.29 E17.16795
G1 X111.023 Y104.29 E17.30305
G1 X111.467 Y104.408 E17.31833
G1 X111.821 Y104.732 E17.33429
G1 X111.96 Y105.224 E17.35129
G1 X111.958 Y114.888 E17.67272
G1 X111.813 Y115.269 E17.68628
G1 X111.484 Y115.584 E17.70143
G1 X111.135 Y115.708 E17.71375
G1 X106.96 Y115.71 E17.85261
G1 X106.96 Y117.54 E17.91347
G0 F6000 X107.722 Y117.338
G1 F1200 X107.159 Y116.776 E17.93993
G0 F6000 X107.159 Y116.21
G1 F1200 X108.287 Y117.338 E17.99299
G0 F6000 X108.853 Y117.338
G1 F1200 X107.424 Y115.909 E18.06021
G0 F6000 X107.989 Y115.908
G1 F1200 X109.419 Y117.338 E18.12747
G0 F6000 X109.984 Y117.338
G1 F1200 X108.554 Y115.908 E18.19473
G0 F6000 X109.119 Y115.907
G1 F1200 X110.55 Y117.338 E18.26204
G0 F6000 X111.116 Y117.338
G1 F1200 X109.684 Y115.906 E18.3294
G0 F6000 X110.249 Y115.906
G1 F1200 X111.681 Y117.338 E18.39676
G0 F6000 X112.247 Y117.338
G1 F1200 X110.814 Y115.905 E18.46416
G0 F6000 X111.325 Y115.85
G1 F1200 X112.813 Y117.338 E18.53415
G0 F6000 X112.84 Y116.799
G1 F1200 X111.696 Y115.656 E18.58794
G0 F6000 X111.971 Y115.365
G1 F1200 X112.84 Y116.234 E18.62881
G0 F6000 X112.84 Y115.668
G1 F1200 X112.142 Y114.971 E18.66162
G0 F6000 X112.155 Y114.418
G1 F1200 X112.84 Y115.102 E18.69382
G0 F6000 X112.84 Y114.537
G1 F1200 X112.155 Y113.852 E18.72604
G0 F6000 X112.155 Y113.286
G1 F1200 X112.84 Y113.971 E18.75826
G0 F6000 X112.84 Y113.405
G1 F1200 X112.156 Y112.722 E18.79041
G0 F6000 X112.156 Y112.156
G1 F1200 X112.84 Y112.84 E18.82258
G0 F6000 X112.84 Y112.274
G1 F1200 X112.156 Y111.59 E18.85475
G0 F6000 X112.157 Y111.025
G1 F1200 X112.84 Y111.708 E18.88688
G0 F6000 X112.84 Y111.143
G1 F1200 X112.157 Y110.459 E18.91903
G0 F6000 X112.157 Y109.894
G1 F1200 X112.84 Y110.577 E18.95116
G0 F6000 X112.84 Y110.011
G1 F1200 X112.157 Y109.328 E18.98328
G0 F6000 X112.157 Y108.763
G1 F1200 X112.84 Y109.445 E19.01538
G0 F6000 X112.84 Y108.88
G1 F1200 X112.157 Y108.197 E19.04751
G0 F6000 X112.157 Y107.632
G1 F1200 X112.84 Y108.314 E19.07961
G0 F6000 X112.84 Y107.748
G1 F1200 X112.158 Y107.067 E19.11167
G0 F6000 X112.158 Y106.501
G1 F1200 X112.84 Y107.183 E19.14375
G0 F6000 X112.84 Y106.617
G1 F1200 X112.158 Y105.935 E19.17583
G0 F6000 X112.158 Y105.37
G1 F1200 X112.84 Y106.051 E19.20788
G0 F6000 X112.84 Y105.486
G1 F1200 X111.935 Y104.581 E19.25045
G0 F6000 X111.682 Y104.328
G1 F1200 X110.014 Y102.66 E19.32891
G0 F6000 X109.448 Y102.66
G1 F1200 X110.877 Y104.089 E19.39613
G0 F6000 X110.312 Y104.089
G1 F1200 X108.883 Y102.66 E19.46334
G0 F6000 X108.317 Y102.66
G1 F1200 X109.746 Y104.089 E19.53056
G0 F6000 X109.18 Y104.089
G1 F1200 X107.751 Y102.66 E19.59777
G0 F6000 X107.186 Y102.66
G1 F1200 X108.615 Y104.089 E19.66499
G0 F6000 X108.049 Y104.089
G1 F1200 X107.159 Y103.199 E19.70685
G0 F6000 X107.159 Y103.765
G1 F1200 X107.483 Y104.089 E19.72209
G0 F6000 X107.483 Y104.55
G0 X106.785 Y104.687
G0 X106.772 Y102.272
G0 X110.58 Y102.2
G0 X110.58 Y102.66
G1 F1200 X112.84 Y104.92 E19.82839
G0 F6000 X112.84 Y104.354
G1 F1200 X111.145 Y102.66 E19.9081
G0 F6000 X111.711 Y102.66
G1 F1200 X112.84 Y103.789 E19.9612
G0 F6000 X112.84 Y103.223
M104 S200
G1 F1200 X112.277 Y102.66 E19.98769
G1 F1500 E13.48769
;MESH:NONMESH
G0 F300 X112.277 Y102.66 Z0.4
G0 F6000 X112.277 Y102.2
G0 X106.772 Y102.272
G0 X106.785 Y104.687
G0 X111.428 Y104.822
G0 X111.428 Y115.178
G0 X106.784 Y115.346
G0 X106.6 Y117.9
;TIME_ELAPSED:41.959530
;LAYER:1
M106 S85
;TYPE:WALL-INNER
;MESH:box-Cut.stl
G1 F1500 E19.98769
G1 F1350 X113.4 Y117.9 E20.21385
G1 X113.4 Y102.1 E20.73936
G1 X106.6 Y102.1 E20.96553
G1 X106.6 Y105.05 E21.06365
G1 X107 Y104.65 E21.08247
G1 X111 Y104.65 E21.21551
G1 X111.297 Y104.728 E21.22572
G1 X111.508 Y104.928 E21.23539
G1 X111.6 Y105.25 E21.24653
G1 X111.6 Y114.75 E21.5625
G1 X111.592 Y114.854 E21.56597
G1 X111.508 Y115.072 E21.57374
G1 X111.297 Y115.272 E21.58341
G1 X111.082 Y115.35 E21.59101
G1 X107 Y115.35 E21.72678
G1 X106.6 Y115.014 E21.74416
G1 X106.6 Y117.9 E21.84015
G0 F7500 X106.2 Y118.3
;TYPE:WALL-OUTER
G1 F1350 X113.8 Y118.3 E22.09292
G1 X113.8 Y103.507 E22.58494
G1 X113.8 Y101.7 E22.64504
G1 X106.2 Y101.7 E22.89782
G1 X106.2 Y104.25 E22.98263
G1 F1200 X106.25 Y105.25 E23.0201
G1 F1075.7 X106.252 Y114.837 E23.42027
G1 F1194.7 X106.2 Y115.75 E23.45464
G1 F1350 X106.2 Y118.3 E23.53945
G1 F1500 E17.03945
G0 F7500 X106.47 Y118.03
G0 X106.5 Y114.794
G1 F1500 E23.53945
G0 F7500 X106.751 Y114.794
G1 F1075.7 X106.75 Y105.25 E23.93784
G1 F1200 X107 Y105.05 E23.94981
G1 F1350 X111 Y105.05 E24.08286
G1 X111.17 Y105.142 E24.08928
G1 X111.2 Y105.25 E24.09301
G1 X111.198 Y114.785 E24.41015
G1 X111.17 Y114.858 E24.41275
G1 X111.035 Y114.948 E24.41814
G1 X107 Y114.95 E24.55235
G1 F1194.7 X106.751 Y114.794 E24.56339
G0 F7500 X106.5 Y114.794
G0 X106.7 Y117.54
G0 X106.96 Y117.54
;TYPE:SKIN
G1 F1350 X113.04 Y117.54 E24.76561
G1 X113.04 Y103.507 E25.23235
G1 X113.04 Y102.46 E25.26718
G1 X106.96 Y102.46 E25.4694
G1 X106.961 Y104.29 E25.53027
G1 X111.023 Y104.29 E25.66537
G1 X111.467 Y104.408 E25.68065
G1 X111.821 Y104.732 E25.69661
G1 X111.96 Y105.224 E25.71361
G1 X111.958 Y114.888 E26.03504
G1 X111.813 Y115.269 E26.0486
G1 X111.484 Y115.584 E26.06375
G1 X111.135 Y115.708 E26.07607
G1 X106.96 Y115.71 E26.21493
G1 X106.96 Y117.54 E26.27579
G0 F7500 X106.7 Y117.54
G0 X112.328 Y117.8
G0 X112.328 Y117.339
G1 F1350 X112.839 Y116.828 E26.29983
G0 F7500 X112.839 Y116.263
G1 F1350 X111.763 Y117.339 E26.35044
G0 F7500 X111.197 Y117.339
G1 F1350 X112.839 Y115.697 E26.42768
G0 F7500 X112.839 Y115.131
G1 F1350 X110.631 Y117.339 E26.53153
G0 F7500 X110.066 Y117.339
G1 F1350 X112.839 Y114.566 E26.66197
G0 F7500 X112.839 Y114
G1 F1350 X112.156 Y114.683 E26.69409
G0 F7500 X112.156 Y114.117
G1 F1350 X112.839 Y113.434 E26.72622
G0 F7500 X112.839 Y112.869
G1 F1350 X112.156 Y113.552 E26.75835
G0 F7500 X112.157 Y112.985
G1 F1350 X112.839 Y112.303 E26.79042
G0 F7500 X112.839 Y111.737
G1 F1350 X112.157 Y112.42 E26.82253
G0 F7500 X112.157 Y111.854
G1 F1350 X112.839 Y111.172 E26.85461
G0 F7500 X112.839 Y110.606
G1 F1350 X112.157 Y111.288 E26.88669
G0 F7500 X112.157 Y110.722
G1 F1350 X112.839 Y110.04 E26.91876
G0 F7500 X112.839 Y109.474
G1 F1350 X112.157 Y110.156 E26.95084
G0 F7500 X112.157 Y109.59
G1 F1350 X112.839 Y108.909 E26.9829
G0 F7500 X112.839 Y108.343
