;FLAVOR:Marlin
;TIME:13134
;Filament used: 10.6755m
;Layer height: 0.2
;MINX:3.382
;MINY:3.113
;MINZ:0.2
;MAXX:214.242
;MAXY:213.973
;MAXZ:15
;Generated with Cura_SteamEngine 5.2.1
M82 ;absolute extrusion mode
; Ender 3 Custom Start G-code
G92 E0 ; Reset Extruder
G28 ; Home all axes
M104 S175 ; Start heating up the nozzle most of the way
M190 S60 ; Start heating the bed, wait until target temperature reached
M109 S200 ; Finish heating the nozzle
G1 Z2.0 F3000 ; Move Z Axis up little to prevent scratching of Heat Bed
G1 X0.1 Y20 Z0.3 F5000.0 ; Move to start position
G1 X0.1 Y200.0 Z0.3 F1500.0 E15 ; Draw the first line
G1 X0.4 Y200.0 Z0.3 F5000.0 ; Move to side a little
G1 X0.4 Y20 Z0.3 F1500.0 E30 ; Draw the second line
G92 E0 ; Reset Extruder
G1 Z2.0 F3000 ; Move Z Axis up little to prevent scratching of Heat Bed
G1 X5 Y20 Z0.3 F5000.0 ; Move over to prevent blob squish
G92 E0
G92 E0
G1 F1500 E-6.5
;LAYER_COUNT:75
;LAYER:0
M107
G0 F6000 X8.643 Y8.617 Z0.2
;TYPE:SKIRT
G1 F1500 E0
G1 F1200 X9.535 Y7.792 E0.04041
G1 X10.003 Y7.405 E0.06061
G1 X11.076 Y6.561 E0.10602
G1 X11.838 Y6.015 E0.13719
G1 X12.978 Y5.364 E0.18086
G1 X14.153 Y4.787 E0.2244
G1 X14.771 Y4.502 E0.24703
G1 X15.639 Y4.146 E0.27824
G1 X16.825 Y3.791 E0.31941
G1 X17.743 Y3.572 E0.3508
G1 X18.695 Y3.366 E0.3832
G1 X19.62 Y3.209 E0.4144
G1 X20.83 Y3.123 E0.45475
G1 X21.487 Y3.113 E0.4766
G1 X22.778 Y3.123 E0.51954
G1 X23.715 Y3.172 E0.55075
G1 X24.982 Y3.368 E0.59339
G1 X26.225 Y3.639 E0.63571
G1 X26.904 Y3.804 E0.65895
G1 X27.806 Y4.064 E0.69017
G1 X28.987 Y4.538 E0.73249
G1 X29.857 Y4.947 E0.76447
G1 X30.734 Y5.382 E0.79703
G1 X31.555 Y5.837 E0.82825
G1 X32.575 Y6.544 E0.86953
G1 X33.586 Y7.336 E0.91224
G1 X34.144 Y7.796 E0.9363
G1 X34.825 Y8.407 E0.96673
G1 X35.4 Y8.969 E0.99347
G1 X208.482 Y182.053 E9.13476
G1 X209.003 Y182.59 E9.15965
G1 X209.641 Y183.308 E9.19159
G1 X210.23 Y184.032 E9.22264
G1 X210.825 Y184.795 E9.25482
G1 X211.367 Y185.56 E9.286
G1 X211.989 Y186.653 E9.32783
G1 X212.409 Y187.501 E9.3593
G1 X212.832 Y188.403 E9.39244
G1 X213.191 Y189.269 E9.42362
G1 X213.54 Y190.416 E9.46349
G1 X213.76 Y191.327 E9.49467
G1 X213.977 Y192.318 E9.52841
G1 X214.139 Y193.242 E9.55961
G1 X214.231 Y194.491 E9.60126
G1 X214.242 Y195.165 E9.62368
G1 X214.232 Y196.459 E9.66672
G1 X214.183 Y197.396 E9.69793
G1 X213.986 Y198.669 E9.74077
G1 X213.777 Y199.638 E9.77374
G1 X213.549 Y200.589 E9.80627
G1 X213.288 Y201.489 E9.83744
G1 X212.856 Y202.576 E9.87634
G1 X212.456 Y203.436 E9.90789
G1 X211.995 Y204.37 E9.94253
G1 X211.544 Y205.192 E9.97372
G1 X210.826 Y206.238 E10.01591
G1 X210.248 Y206.979 E10.04717
G1 X209.61 Y207.761 E10.08074
G1 X208.987 Y208.462 E10.11193
G1 X208.116 Y209.269 E10.15142
G1 X207.437 Y209.827 E10.18066
G1 X206.548 Y210.524 E10.21823
G1 X205.786 Y211.07 E10.24941
G1 X204.638 Y211.727 E10.2934
G1 X203.799 Y212.142 E10.32453
G1 X202.889 Y212.568 E10.35795
G1 X202.022 Y212.927 E10.38916
G1 X200.801 Y213.294 E10.43157
G1 X199.627 Y213.571 E10.47169
G1 X198.925 Y213.721 E10.49556
G1 X198 Y213.878 E10.52677
G1 X196.793 Y213.963 E10.56701
G1 X196.136 Y213.973 E10.58887
G1 X194.847 Y213.963 E10.63174
G1 X193.91 Y213.914 E10.66295
G1 X192.647 Y213.719 E10.70545
G1 X191.687 Y213.513 E10.73811
G1 X190.704 Y213.277 E10.77173
G1 X189.803 Y213.016 E10.80293
G1 X188.645 Y212.551 E10.84444
G1 X187.521 Y212.02 E10.88578
G1 X186.88 Y211.699 E10.90963
G1 X186.06 Y211.243 E10.94083
G1 X185.041 Y210.537 E10.98207
G1 X184.049 Y209.76 E11.02398
G1 X183.516 Y209.322 E11.04692
G1 X182.854 Y208.731 E11.07644
G1 X182.268 Y208.162 E11.1036
G1 X9.123 Y35.016 E19.24784
G1 X8.655 Y34.535 E19.27016
G1 X8.044 Y33.852 E19.30064
G1 X7.44 Y33.113 E19.33238
G1 X6.832 Y32.336 E19.3652
G1 X6.286 Y31.573 E19.3964
G1 X5.663 Y30.489 E19.43799
G1 X5.221 Y29.599 E19.47104
G1 X4.802 Y28.704 E19.50391
G1 X4.441 Y27.838 E19.53511
G1 X4.07 Y26.616 E19.57759
G1 X3.781 Y25.4 E19.61916
G1 X3.632 Y24.7 E19.64296
G1 X3.476 Y23.775 E19.67416
G1 X3.392 Y22.523 E19.7159
G1 X3.382 Y21.266 E19.75771
G1 X3.393 Y20.56 E19.78119
G1 X3.448 Y19.623 E19.81241
G1 X3.638 Y18.418 E19.85299
G1 X3.843 Y17.465 E19.88541
G1 X4.08 Y16.48 E19.9191
G1 X4.341 Y15.579 E19.9503
G1 X4.807 Y14.42 E19.99185
G1 X5.217 Y13.547 E20.02393
G1 X5.647 Y12.678 E20.05618
G1 X6.101 Y11.857 E20.08738
G1 X6.81 Y10.831 E20.12886
G1 X7.384 Y10.098 E20.15983
G1 X8.02 Y9.318 E20.1933
G1 X8.643 Y8.617 E20.22449
G0 F6000 X8.942 Y8.883
G1 F1200 X9.79 Y8.1 E20.26288
G1 X10.258 Y7.713 E20.28308
G1 X11.322 Y6.876 E20.32811
G1 X12.071 Y6.34 E20.35874
G1 X13.156 Y5.722 E20.40027
G1 X14.321 Y5.15 E20.44344
G1 X14.939 Y4.865 E20.46607
G1 X15.791 Y4.516 E20.49669
G1 X16.918 Y4.18 E20.53581
G1 X17.836 Y3.961 E20.5672
G1 X18.779 Y3.757 E20.59929
G1 X19.687 Y3.603 E20.62992
G1 X20.836 Y3.523 E20.66823
G1 X21.493 Y3.513 E20.69008
G1 X22.774 Y3.523 E20.73269
G1 X23.694 Y3.572 E20.76333
G1 X24.898 Y3.759 E20.80386
G1 X25.856 Y3.965 E20.83645
G1 X26.81 Y4.193 E20.86907
G1 X27.694 Y4.449 E20.89968
G1 X28.817 Y4.9 E20.93993
G1 X29.687 Y5.309 E20.97191
G1 X30.555 Y5.74 E21.00414
G1 X31.36 Y6.187 E21.03477
G1 X32.329 Y6.859 E21.07399
G1 X33.332 Y7.645 E21.11637
G1 X33.89 Y8.105 E21.14042
G1 X34.546 Y8.693 E21.16972
G1 X35.021 Y9.156 E21.19179
G1 X208.195 Y182.332 E29.33741
G1 X208.716 Y182.869 E29.36229
G1 X209.331 Y183.561 E29.39308
G1 X209.92 Y184.285 E29.42413
G1 X210.509 Y185.04 E29.45598
G1 X211.041 Y185.791 E29.48659
G1 X211.631 Y186.83 E29.52633
G1 X212.164 Y187.913 E29.56647
G1 X212.47 Y188.571 E29.59061
G1 X212.821 Y189.422 E29.62123
G1 X213.152 Y190.512 E29.65912
G1 X213.37 Y191.413 E29.68995
G1 X213.587 Y192.404 E29.72369
G1 X213.744 Y193.311 E29.75431
G1 X213.831 Y194.498 E29.79389
G1 X213.842 Y195.172 E29.81631
G1 X213.832 Y196.455 E29.85899
G1 X213.783 Y197.375 E29.88963
G1 X213.595 Y198.585 E29.93036
G1 X213.386 Y199.554 E29.96333
G1 X213.16 Y200.494 E29.99548
G1 X212.903 Y201.378 E30.0261
G1 X212.493 Y202.409 E30.063
G1 X212.222 Y202.998 E30.08457
G1 X211.636 Y204.193 E30.12884
G1 X211.193 Y205 E30.15945
G1 X210.51 Y205.993 E30.19954
G1 X209.938 Y206.726 E30.23046
G1 X209.3 Y207.508 E30.26403
G1 X208.688 Y208.195 E30.29463
G1 X207.86 Y208.961 E30.33215
G1 X207.19 Y209.512 E30.361
G1 X206.301 Y210.209 E30.39857
G1 X205.553 Y210.745 E30.42918
G1 X204.461 Y211.368 E30.471
G1 X203.391 Y211.894 E30.51065
G1 X202.72 Y212.206 E30.53526
G1 X201.869 Y212.557 E30.56588
G1 X200.709 Y212.905 E30.60616
G1 X199.786 Y213.125 E30.63772
G1 X198.841 Y213.33 E30.66988
G1 X197.933 Y213.483 E30.70051
G1 X196.787 Y213.563 E30.73872
G1 X196.13 Y213.573 E30.76057
G1 X194.85 Y213.563 E30.80315
G1 X193.931 Y213.514 E30.83376
G1 X192.731 Y213.328 E30.87415
G1 X191.478 Y213.055 E30.9168
G1 X190.799 Y212.889 E30.94005
G1 X189.915 Y212.631 E30.97068
G1 X188.815 Y212.189 E31.0101
G1 X187.945 Y211.781 E31.04206
G1 X187.059 Y211.341 E31.07497
G1 X186.254 Y210.893 E31.10561
G1 X185.287 Y210.222 E31.14476
G1 X184.303 Y209.451 E31.18633
G1 X183.77 Y209.013 E31.20928
G1 X183.132 Y208.443 E31.23773
G1 X182.551 Y207.879 E31.26467
G1 X9.41 Y34.737 E39.40871
G1 X8.942 Y34.256 E39.43103
G1 X8.353 Y33.598 E39.4604
G1 X7.755 Y32.866 E39.49184
G1 X7.147 Y32.089 E39.52466
G1 X6.612 Y31.34 E39.55527
G1 X6.02 Y30.31 E39.59478
G1 X5.708 Y29.688 E39.61793
G1 X5.164 Y28.534 E39.66036
G1 X4.81 Y27.684 E39.69099
G1 X4.459 Y26.522 E39.73136
G1 X4.172 Y25.317 E39.77256
G1 X4.023 Y24.617 E39.79636
G1 X3.871 Y23.709 E39.82698
G1 X3.792 Y22.519 E39.86665
G1 X3.782 Y21.272 E39.90813
G1 X3.793 Y20.566 E39.93161
G1 X3.848 Y19.647 E39.96223
G1 X4.029 Y18.502 E40.00079
G1 X4.301 Y17.257 E40.04317
G1 X4.468 Y16.575 E40.06653
G1 X4.726 Y15.691 E40.09716
G1 X5.169 Y14.59 E40.13663
G1 X5.579 Y13.717 E40.16871
G1 X6.005 Y12.856 E40.20066
G1 X6.451 Y12.051 E40.23127
G1 X7.126 Y11.076 E40.27071
G1 X7.694 Y10.35 E40.30137
G1 X8.33 Y9.57 E40.33484
G1 X8.942 Y8.883 E40.36544
G0 F6000 X9.241 Y9.149
G1 F1200 X10.045 Y8.408 E40.40181
G1 X10.513 Y8.021 E40.42201
G1 X11.569 Y7.191 E40.46668
G1 X12.304 Y6.666 E40.49672
G1 X13.333 Y6.081 E40.53609
G1 X14.488 Y5.513 E40.5789
G1 X15.106 Y5.228 E40.60154
G1 X15.942 Y4.887 E40.63157
G1 X17.011 Y4.569 E40.66866
G1 X17.929 Y4.35 E40.70005
G1 X18.863 Y4.148 E40.73183
G1 X19.753 Y3.998 E40.76185
G1 X20.842 Y3.923 E40.79816
G1 X21.754 Y3.912 E40.82849
G1 X22.77 Y3.922 E40.86229
G1 X23.672 Y3.971 E40.89233
G1 X24.814 Y4.15 E40.93078
G1 X26.037 Y4.416 E40.97241
G1 X26.716 Y4.581 E40.99565
G1 X27.583 Y4.833 E41.02568
G1 X28.647 Y5.262 E41.06384
G1 X29.517 Y5.671 E41.09581
G1 X30.377 Y6.098 E41.12775
G1 X31.166 Y6.537 E41.15778
G1 X32.084 Y7.175 E41.19496
G1 X32.858 Y7.778 E41.22759
G1 X33.635 Y8.414 E41.26099
G1 X34.267 Y8.98 E41.28921
G1 X34.835 Y9.535 E41.31562
G1 X207.908 Y182.61 E49.45649
G1 X208.429 Y183.147 E49.48138
G1 X209.02 Y183.813 E49.51099
G1 X209.758 Y184.724 E49.54999
G1 X210.193 Y185.285 E49.5736
G1 X210.714 Y186.022 E49.60362
G1 X211.272 Y187.008 E49.6413
G1 X211.801 Y188.082 E49.68112
G1 X212.107 Y188.74 E49.70525
G1 X212.451 Y189.575 E49.73529
G1 X212.763 Y190.607 E49.77115
G1 X212.979 Y191.498 E49.80164
G1 X213.196 Y192.489 E49.83538
G1 X213.35 Y193.379 E49.86543
G1 X213.431 Y194.505 E49.90297
G1 X213.442 Y195.179 E49.92539
G1 X213.432 Y196.451 E49.9677
G1 X213.384 Y197.353 E49.99774
G1 X213.204 Y198.501 E50.03639
G1 X212.995 Y199.47 E50.06936
G1 X212.772 Y200.399 E50.10114
G1 X212.519 Y201.266 E50.13118
G1 X212.129 Y202.241 E50.16611
G1 X211.739 Y203.082 E50.19694
G1 X211.278 Y204.016 E50.23158
G1 X210.842 Y204.807 E50.26162
G1 X210.194 Y205.748 E50.29962
G1 X209.628 Y206.473 E50.33022
G1 X208.99 Y207.255 E50.36378
G1 X208.389 Y207.929 E50.39382
G1 X207.605 Y208.653 E50.42931
G1 X207.168 Y209.016 E50.44821
G1 X206.054 Y209.894 E50.49538
G1 X205.32 Y210.419 E50.5254
G1 X204.283 Y211.01 E50.5651
G1 X203.444 Y211.425 E50.59623
G1 X202.552 Y211.843 E50.62899
G1 X201.717 Y212.187 E50.65903
G1 X200.616 Y212.516 E50.69725
G1 X199.459 Y212.789 E50.73679
G1 X198.757 Y212.939 E50.76066
G1 X197.867 Y213.088 E50.79068
G1 X196.781 Y213.163 E50.82688
G1 X195.868 Y213.174 E50.85725
G1 X194.854 Y213.164 E50.89098
G1 X193.953 Y213.115 E50.92099
G1 X192.815 Y212.937 E50.9593
G1 X191.855 Y212.731 E50.99196
G1 X190.894 Y212.5 E51.02483
G1 X190.027 Y212.247 E51.05487
G1 X188.985 Y211.827 E51.09224
G1 X188.115 Y211.419 E51.1242
G1 X187.238 Y210.983 E51.15677
G1 X186.449 Y210.544 E51.1868
G1 X185.533 Y209.907 E51.22391
G1 X184.557 Y209.142 E51.26516
G1 X184.024 Y208.704 E51.2881
G1 X183.41 Y208.156 E51.31548
G1 X182.956 Y207.717 E51.33648
G1 X9.696 Y34.458 E59.48608
G1 X9.228 Y33.977 E59.5084
G1 X8.662 Y33.344 E59.53664
G1 X8.07 Y32.62 E59.56775
G1 X7.462 Y31.843 E59.60056
G1 X6.938 Y31.108 E59.63058
G1 X6.378 Y30.13 E59.66807
G1 X5.945 Y29.26 E59.70039
G1 X5.526 Y28.365 E59.73326
G1 X5.18 Y27.531 E59.76329
G1 X4.848 Y26.428 E59.8016
G1 X4.564 Y25.234 E59.84242
G1 X4.415 Y24.534 E59.86622
G1 X4.266 Y23.643 E59.89627
G1 X4.192 Y22.515 E59.93387
G1 X4.182 Y21.278 E59.97501
G1 X4.193 Y20.572 E59.9985
G1 X4.247 Y19.671 E60.02852
G1 X4.42 Y18.586 E60.06506
G1 X4.625 Y17.633 E60.09748
G1 X4.857 Y16.67 E60.13043
G1 X5.11 Y15.803 E60.16047
G1 X5.531 Y14.76 E60.19788
G1 X5.941 Y13.887 E60.22996
G1 X6.363 Y13.035 E60.26158
G1 X6.801 Y12.245 E60.29162
G1 X7.441 Y11.322 E60.32898
G1 X8.004 Y10.603 E60.35935
G1 X8.64 Y9.823 E60.39283
G1 X9.241 Y9.149 E60.42286
G1 F1500 E53.92286
;MESH:bar-support.stl
G0 F6000 X172.574 Y175.736
G0 X172.934 Y177.258
;TYPE:WALL-INNER
G1 F1500 E60.42286
G1 F1200 X172.755 Y176.478 E60.44948
G1 X172.755 Y175.665 E60.47652
G1 X172.934 Y174.884 E60.50317
G1 X173.286 Y174.162 E60.52989
G1 X173.785 Y173.534 E60.55657
G1 X174.424 Y173.022 E60.5838
G1 X175.152 Y172.666 E60.61075
G1 X175.93 Y172.487 E60.63731
G1 X176.745 Y172.486 E60.66441
G1 X177.523 Y172.664 E60.69096
G1 X178.247 Y173.013 E60.71769
G1 X178.874 Y173.515 E60.7444
G1 X197.989 Y192.63 E61.64352
G1 X198.489 Y193.25 E61.67001
G1 X198.839 Y193.98 E61.69693
G1 X199.017 Y194.753 E61.72332
G1 X199.017 Y195.569 E61.75046
G1 X198.84 Y196.344 E61.7769
G1 X198.492 Y197.069 E61.80364
G1 X198.033 Y197.649 E61.82824
G1 X197.987 Y197.7 E61.83053
G1 X197.343 Y198.22 E61.85806
G1 X196.618 Y198.57 E61.88484
G1 X195.837 Y198.749 E61.91149
G1 X195.026 Y198.749 E61.93846
G1 X194.249 Y198.57 E61.96498
G1 X193.517 Y198.218 E61.99199
G1 X192.898 Y197.72 E62.01842
G1 X173.738 Y178.555 E62.91976
G1 X173.285 Y177.987 E62.94393
G1 X172.934 Y177.258 E62.97084
G0 F6000 X173.323 Y177.144
;TYPE:WALL-OUTER
G1 F1200 X173.16 Y176.453 E62.99445
G1 X173.16 Y175.69 E63.01983
G1 X173.323 Y174.999 E63.04344
G1 X173.624 Y174.376 E63.06646
G1 X174.067 Y173.818 E63.09015
G1 X174.639 Y173.359 E63.11455
G1 X175.268 Y173.054 E63.1378
G1 X175.955 Y172.892 E63.16127
G1 X176.699 Y172.886 E63.18602
G1 X177.409 Y173.053 E63.21028
G1 X178.016 Y173.345 E63.23268
G1 X178.591 Y173.798 E63.25703
G1 X197.721 Y192.93 E64.15689
G1 X198.152 Y193.474 E64.17998
G1 X198.461 Y194.123 E64.20388
G1 X198.617 Y194.816 E64.22751
G1 X198.615 Y195.535 E64.25142
G1 X198.465 Y196.19 E64.27377
G1 X198.157 Y196.842 E64.29776
G1 X197.72 Y197.4 E64.32133
G1 X197.139 Y197.872 E64.34623
G1 X196.501 Y198.183 E64.36983
G1 X195.803 Y198.347 E64.39368
G1 X195.085 Y198.349 E64.41756
G1 X194.396 Y198.194 E64.44105
G1 X193.747 Y197.885 E64.46496
G1 X193.181 Y197.437 E64.48897
G1 X174.051 Y178.305 E65.38883
G1 X173.615 Y177.75 E65.41231
G1 X173.323 Y177.144 E65.43468
G1 F1500 E58.93468
G0 F6000 X172.79 Y177.077
G0 X173.672 Y178.209
G0 X192.77 Y197.847
G0 X190.706 Y199.91
G0 X190.889 Y200.376
;TYPE:WALL-INNER
G1 F1500 E65.43468
G1 F1200 X192.125 Y201.362 E65.48727
G1 X193.513 Y202.029 E65.53849
G1 X195.017 Y202.374 E65.58981
G1 X196.554 Y202.374 E65.64093
G1 X198.058 Y202.03 E65.69224
G1 X199.447 Y201.362 E65.74351
G1 X200.67 Y200.384 E65.79559
G1 X201.631 Y199.178 E65.84688
G1 X202.299 Y197.788 E65.89817
G1 X202.643 Y196.286 E65.94942
G1 X202.643 Y194.949 E65.99389
G1 X202.643 Y194.744 E66.00071
G1 X202.298 Y193.24 E66.05203
G1 X201.631 Y191.856 E66.10313
G1 X200.652 Y190.629 E66.15534
G1 X26.732 Y16.708 E74.33603
G1 X25.498 Y15.724 E74.38852
G1 X24.11 Y15.056 E74.43975
G1 X22.606 Y14.713 E74.49106
G1 X21.069 Y14.713 E74.54218
G1 X19.565 Y15.056 E74.59349
G1 X18.176 Y15.724 E74.64475
G1 X16.966 Y16.689 E74.69623
G1 X15.992 Y17.908 E74.74813
G1 X15.324 Y19.298 E74.79942
G1 X14.981 Y20.8 E74.85066
G1 X14.981 Y22.342 E74.90195
G1 X15.323 Y23.84 E74.95306
G1 X15.992 Y25.23 E75.00436
G1 X16.976 Y26.463 E75.05683
G1 X190.889 Y200.376 E83.23717
G0 F6000 X190.622 Y200.675
;TYPE:WALL-OUTER
G1 F1200 X191.911 Y201.703 E83.292
G1 X193.38 Y202.409 E83.34621
G1 X194.972 Y202.774 E83.40054
G1 X196.599 Y202.774 E83.45465
G1 X198.191 Y202.41 E83.50897
G1 X199.661 Y201.703 E83.56322
G1 X200.955 Y200.668 E83.61833
G1 X201.972 Y199.392 E83.6726
G1 X202.679 Y197.921 E83.72689
G1 X203.043 Y196.331 E83.78114
G1 X203.043 Y194.949 E83.8271
G1 X203.043 Y194.699 E83.83542
G1 X202.678 Y193.107 E83.88974
G1 X201.972 Y191.642 E83.94383
G1 X200.951 Y190.362 E83.99829
G1 X26.999 Y16.409 E92.18048
G1 X25.712 Y15.383 E92.23522
G1 X24.243 Y14.676 E92.28945
G1 X22.651 Y14.313 E92.34376
G1 X21.024 Y14.313 E92.39787
G1 X19.432 Y14.676 E92.45218
G1 X17.962 Y15.383 E92.50643
G1 X16.682 Y16.404 E92.56089
G1 X15.651 Y17.694 E92.61582
G1 X14.944 Y19.165 E92.6701
G1 X14.581 Y20.755 E92.72434
G1 X14.581 Y22.387 E92.77863
G1 X14.943 Y23.973 E92.83273
G1 X15.651 Y25.444 E92.88703
G1 X16.677 Y26.73 E92.94175
G1 X190.622 Y200.675 E101.12359
G0 F6000 X191.129 Y200.105
;TYPE:SKIN
G1 F1200 X192.32 Y201.056 E101.17428
G1 X193.633 Y201.685 E101.2227
G1 X195.06 Y202.014 E101.27141
G1 X196.512 Y202.014 E101.3197
G1 X197.937 Y201.686 E101.36834
G1 X199.251 Y201.056 E101.41681
G1 X200.415 Y200.124 E101.4664
G1 X201.325 Y198.982 E101.51497
G1 X201.956 Y197.667 E101.56348
G1 X202.283 Y196.243 E101.61208
G1 X202.283 Y194.948 E101.65515
G1 X202.283 Y194.783 E101.66063
G1 X201.955 Y193.358 E101.70927
G1 X201.325 Y192.052 E101.7575
G1 X200.381 Y190.868 E101.80786
G1 X26.491 Y16.977 E109.98714
G1 X25.303 Y16.03 E110.03767
