;FLAVOR:Marlin
;TIME:11065
;Filament used: 11.6581m
;Layer height: 0.28
;MINX:4.098
;MINY:6.315
;MINZ:0.28
;MAXX:218.194
;MAXY:211.054
;MAXZ:15.12
;TARGET_MACHINE.NAME:Creality Ender-3 Pro
;Generated with Cura_SteamEngine 5.6.0
M82 ;absolute extrusion mode
; Ender 3 Custom Start G-code
G92 E0 ; Reset Extruder
G28 ; Home all axes
G1 Z5.0 F3000 ; Move Z Axis up a bit during heating to not damage bed
M104 S175 ; Start heating up the nozzle most of the way
M190 S60 ; Start heating the bed, wait until target temperature reached
M109 S200 ; Finish heating the nozzle
G1 Z2.0 F3000 ; Move Z Axis up little to prevent scratching of Heat Bed
G1 X0.1 Y20 Z0.3 F5000.0 ; Move to start position
G1 X0.1 Y200.0 Z0.3 F1500.0 E15 ; Draw the first line
G1 X0.4 Y200.0 Z0.3 F5000.0 ; Move to side a little
G1 X0.4 Y20 Z0.3 F1500.0 E30 ; Draw the second line
G92 E0 ; Reset Extruder
G1 Z2.0 F3000 ; Move Z Axis up little to prevent scratching of Heat Bed
G1 X5 Y20 Z0.3 F5000.0 ; Move over to prevent blob squish
G92 E0
G92 E0
G1 F1500 E-6.5
;LAYER_COUNT:54
;LAYER:0
M107
G0 F6000 X147.428 Y75.325 Z0.28
;TYPE:SKIRT
G1 F1500 E0
G1 F1200 X149.484 Y73.73 E0.12117
G1 X151.433 Y72.125 E0.23873
G1 X153.315 Y70.486 E0.35494
G1 X155.185 Y68.764 E0.47331
G1 X156.986 Y67.007 E0.59047
G1 X158.727 Y65.207 E0.70708
G1 X160.432 Y63.346 E0.8246
G1 X162.082 Y61.435 E0.94217
G1 X163.682 Y59.475 E1.05998
G1 X165.211 Y57.491 E1.17661
G1 X166.679 Y55.466 E1.29308
G1 X168.105 Y53.381 E1.4107
G1 X169.468 Y51.262 E1.52802
G1 X170.762 Y49.119 E1.64458
G1 X171.999 Y46.931 E1.76162
G1 X173.189 Y44.68 E1.88018
G1 X174.301 Y42.428 E1.99713
G1 X175.347 Y40.148 E2.11394
G1 X176.328 Y37.839 E2.23076
G1 X177.268 Y35.437 E2.35086
G1 X178.097 Y33.133 E2.46488
G1 X178.877 Y30.749 E2.58168
G1 X179.931 Y27.114 E2.75791
G1 X181.702 Y20.505 E3.07651
G1 X182.009 Y19.434 E3.12839
G1 X182.278 Y18.613 E3.16862
G1 X182.412 Y18.248 E3.18673
G1 X182.748 Y17.423 E3.22821
G1 X183.139 Y16.584 E3.27131
G1 X183.559 Y15.786 E3.3133
G1 X183.838 Y15.302 E3.33931
G1 X184.273 Y14.611 E3.37733
G1 X184.479 Y14.305 E3.39451
G1 X184.84 Y13.8 E3.42341
G1 X185.391 Y13.093 E3.46515
G1 X185.94 Y12.454 E3.50438
G1 X186.61 Y11.743 E3.54987
G1 X187.239 Y11.143 E3.59035
G1 X187.936 Y10.539 E3.63329
G1 X188.268 Y10.271 E3.65316
G1 X188.948 Y9.76 E3.69277
G1 X189.656 Y9.278 E3.73265
G1 X190.495 Y8.766 E3.77842
G1 X190.986 Y8.495 E3.80453
G1 X191.355 Y8.304 E3.82388
G1 X191.979 Y8.007 E3.85606
G1 X192.609 Y7.731 E3.88809
G1 X193.333 Y7.445 E3.92433
G1 X193.76 Y7.294 E3.94542
G1 X194.634 Y7.022 E3.98805
G1 X195.162 Y6.88 E4.0135
G1 X196.015 Y6.685 E4.05425
G1 X196.907 Y6.526 E4.09644
G1 X197.818 Y6.411 E4.1392
G1 X198.752 Y6.339 E4.18282
G1 X199.161 Y6.323 E4.20187
G1 X199.758 Y6.315 E4.22968
G1 X200.58 Y6.338 E4.26797
G1 X201.414 Y6.396 E4.30689
G1 X202.114 Y6.475 E4.3397
G1 X202.578 Y6.542 E4.36153
G1 X203.246 Y6.66 E4.39311
G1 X203.684 Y6.752 E4.41395
G1 X204.362 Y6.915 E4.44642
G1 X204.907 Y7.067 E4.47277
G1 X205.422 Y7.225 E4.49785
G1 X206.136 Y7.469 E4.53299
G1 X206.648 Y7.669 E4.55858
G1 X207.572 Y8.076 E4.6056
G1 X208.368 Y8.472 E4.647
G1 X209.176 Y8.926 E4.69015
G1 X209.909 Y9.388 E4.7305
G1 X210.233 Y9.606 E4.74868
G1 X210.719 Y9.954 E4.77651
G1 X211.395 Y10.482 E4.81646
G1 X212.047 Y11.039 E4.85639
G1 X212.35 Y11.316 E4.8755
G1 X212.754 Y11.706 E4.90165
G1 X213.364 Y12.345 E4.94278
G1 X213.958 Y13.03 E4.985
G1 X214.511 Y13.732 E5.02662
G1 X215.019 Y14.446 E5.06742
G1 X215.239 Y14.777 E5.08593
G1 X215.565 Y15.297 E5.1145
G1 X215.95 Y15.975 E5.15081
G1 X216.152 Y16.355 E5.17085
G1 X216.415 Y16.891 E5.19865
G1 X216.749 Y17.639 E5.23679
G1 X216.903 Y18.017 E5.2558
G1 X217.203 Y18.831 E5.29619
G1 X217.48 Y19.719 E5.33951
G1 X217.629 Y20.269 E5.36604
G1 X217.821 Y21.107 E5.40607
G1 X217.985 Y22.03 E5.44973
G1 X218.098 Y22.928 E5.49187
G1 X218.17 Y23.855 E5.53517
G1 X218.194 Y24.752 E5.57695
G1 X218.191 Y25.153 E5.59562
G1 X218.156 Y25.978 E5.63407
G1 X218.067 Y26.957 E5.67985
G1 X217.947 Y27.812 E5.72005
G1 X217.85 Y28.35 E5.7455
G1 X217.667 Y29.181 E5.78513
G1 X217.391 Y30.268 E5.83735
G1 X212.015 Y50.327 E6.80434
G1 X211.602 Y51.901 E6.88011
G1 X207.71 Y66.394 E7.57888
G1 X207.45 Y67.403 E7.6274
G1 X205.554 Y74.474 E7.96828
G1 X205.353 Y75.188 E8.00282
G1 X205.044 Y76.112 E8.04819
G1 X204.656 Y77.005 E8.09353
G1 X204.19 Y77.859 E8.13883
G1 X203.65 Y78.671 E8.18424
G1 X203.042 Y79.43 E8.22952
G1 X202.392 Y80.11 E8.27332
G1 X201.574 Y80.822 E8.32382
G1 X200.594 Y81.589 E8.38177
G1 X34.078 Y207.067 E18.09041
G1 X33.274 Y207.653 E18.13673
G1 X32.936 Y207.886 E18.15585
G1 X32.107 Y208.415 E18.20164
G1 X31.404 Y208.813 E18.23926
G1 X30.769 Y209.142 E18.27256
G1 X30.099 Y209.46 E18.30709
G1 X29.294 Y209.796 E18.34771
G1 X28.424 Y210.11 E18.39078
G1 X27.527 Y210.385 E18.43447
G1 X26.699 Y210.593 E18.47422
G1 X25.844 Y210.768 E18.51486
G1 X24.873 Y210.915 E18.56059
G1 X23.991 Y211.002 E18.60185
G1 X23.139 Y211.046 E18.64158
G1 X22.59 Y211.054 E18.66715
G1 X21.764 Y211.037 E18.70562
G1 X21.218 Y211.005 E18.73108
G1 X20.374 Y210.924 E18.77057
G1 X19.701 Y210.829 E18.80221
G1 X19.224 Y210.749 E18.82473
G1 X18.548 Y210.61 E18.85687
G1 X18.146 Y210.516 E18.87609
G1 X17.578 Y210.364 E18.90347
G1 X17.094 Y210.219 E18.927
G1 X16.465 Y210.013 E18.95782
G1 X15.634 Y209.698 E18.9992
G1 X15.137 Y209.487 E19.02434
G1 X14.327 Y209.109 E19.06597
G1 X13.522 Y208.683 E19.10837
G1 X13.173 Y208.48 E19.12717
G1 X12.456 Y208.03 E19.16659
G1 X11.947 Y207.678 E19.19541
G1 X11.257 Y207.169 E19.23533
G1 X10.599 Y206.641 E19.27462
G1 X9.867 Y205.984 E19.32042
G1 X9.618 Y205.743 E19.33655
G1 X9.134 Y205.24 E19.36906
G1 X8.584 Y204.631 E19.40727
G1 X8.012 Y203.94 E19.44904
G1 X7.502 Y203.252 E19.48892
G1 X7.272 Y202.921 E19.50768
G1 X6.8 Y202.188 E19.54828
G1 X6.37 Y201.447 E19.58817
G1 X6.075 Y200.885 E19.61773
G1 X5.703 Y200.103 E19.65805
G1 X5.541 Y199.729 E19.67703
G1 X5.216 Y198.903 E19.71836
G1 X4.928 Y198.052 E19.7602
G1 X4.682 Y197.19 E19.80194
G1 X4.478 Y196.307 E19.84414
G1 X4.372 Y195.755 E19.87031
G1 X4.303 Y195.331 E19.89031
G1 X4.192 Y194.468 E19.93083
G1 X4.121 Y193.584 E19.97212
G1 X4.1 Y192.998 E19.99943
G1 X4.098 Y192.123 E20.04017
G1 X4.137 Y191.26 E20.0804
G1 X4.23 Y190.322 E20.12429
G1 X4.283 Y189.925 E20.14294
G1 X4.416 Y189.152 E20.17946
G1 X4.578 Y188.378 E20.21628
G1 X4.741 Y187.711 E20.24826
G1 X5.02 Y186.783 E20.29338
G1 X5.287 Y186.025 E20.3308
G1 X5.431 Y185.656 E20.34924
G1 X5.671 Y185.087 E20.378
G1 X5.846 Y184.707 E20.39748
G1 X6.209 Y183.975 E20.43553
G1 X6.674 Y183.14 E20.48003
G1 X7.076 Y182.495 E20.51542
G1 X7.478 Y181.909 E20.54851
G1 X7.976 Y181.235 E20.58753
G1 X8.568 Y180.504 E20.63133
G1 X8.836 Y180.2 E20.6502
G1 X9.44 Y179.559 E20.69121
G1 X10.059 Y178.961 E20.73129
G1 X10.477 Y178.589 E20.75734
G1 X11.137 Y178.043 E20.79723
G1 X11.901 Y177.452 E20.84221
G1 X147.428 Y75.325 E28.74407
G0 F6000 X147.669 Y75.644
G1 F1200 X149.729 Y74.046 E28.86547
G1 X151.696 Y72.427 E28.98409
G1 X153.578 Y70.788 E29.1003
G1 X155.456 Y69.058 E29.2192
G1 X157.265 Y67.293 E29.33688
G1 X159.022 Y65.477 E29.45454
G1 X160.727 Y63.616 E29.57207
G1 X162.385 Y61.696 E29.69019
G1 X163.992 Y59.728 E29.8085
G1 X165.528 Y57.735 E29.92567
G1 X167.003 Y55.701 E30.04266
G1 X168.435 Y53.607 E30.16079
G1 X169.81 Y51.469 E30.27915
G1 X171.104 Y49.326 E30.39572
G1 X172.353 Y47.118 E30.51384
G1 X173.543 Y44.867 E30.6324
G1 X174.66 Y42.605 E30.74988
G1 X175.71 Y40.315 E30.86718
G1 X176.696 Y37.995 E30.98456
G1 X177.64 Y35.583 E31.10517
G1 X178.473 Y33.268 E31.21973
G1 X179.257 Y30.873 E31.33708
G1 X180.315 Y27.225 E31.51394
G1 X182.087 Y20.615 E31.8326
G1 X182.389 Y19.559 E31.88374
G1 X182.654 Y18.751 E31.92334
G1 X182.783 Y18.399 E31.9408
G1 X183.111 Y17.592 E31.98136
G1 X183.493 Y16.77 E32.02357
G1 X183.905 Y15.986 E32.06481
G1 X184.177 Y15.515 E32.09013
G1 X184.605 Y14.834 E32.12758
G1 X184.804 Y14.538 E32.14419
G1 X185.156 Y14.046 E32.17236
G1 X185.695 Y13.353 E32.21324
G1 X186.231 Y12.728 E32.25158
G1 X186.886 Y12.032 E32.29608
G1 X187.501 Y11.445 E32.33567
G1 X188.187 Y10.85 E32.37796
G1 X188.508 Y10.591 E32.39716
G1 X189.173 Y10.091 E32.4359
G1 X189.881 Y9.609 E32.47579
G1 X190.689 Y9.116 E32.51986
G1 X191.17 Y8.85 E32.54545
G1 X191.527 Y8.665 E32.56418
G1 X192.14 Y8.373 E32.59579
G1 X192.756 Y8.103 E32.62711
G1 X193.467 Y7.822 E32.66271
G1 X193.879 Y7.676 E32.68306
G1 X194.738 Y7.408 E32.72496
G1 X195.251 Y7.27 E32.7497
G1 X196.085 Y7.079 E32.78954
G1 X196.957 Y6.923 E32.83079
G1 X197.849 Y6.81 E32.87266
G1 X198.768 Y6.739 E32.91558
G1 X199.167 Y6.723 E32.93417
G1 X199.747 Y6.715 E32.96118
G1 X200.553 Y6.737 E32.99873
G1 X201.369 Y6.793 E33.03681
G1 X202.057 Y6.871 E33.06905
G1 X202.509 Y6.936 E33.09032
G1 X203.164 Y7.051 E33.12128
G1 X203.591 Y7.141 E33.1416
G1 X204.255 Y7.3 E33.17339
G1 X204.79 Y7.449 E33.19925
G1 X205.292 Y7.603 E33.2237
G1 X205.99 Y7.842 E33.25806
G1 X206.502 Y8.042 E33.28365
G1 X207.394 Y8.434 E33.32902
G1 X208.172 Y8.821 E33.36948
G1 X208.963 Y9.265 E33.41172
G1 X209.686 Y9.72 E33.4515
G1 X210.001 Y9.932 E33.46918
G1 X210.473 Y10.269 E33.49619
G1 X211.135 Y10.786 E33.5353
G1 X211.777 Y11.335 E33.57463
G1 X212.072 Y11.604 E33.59322
G1 X212.465 Y11.983 E33.61865
G1 X213.062 Y12.607 E33.65886
G1 X213.644 Y13.277 E33.70018
G1 X214.185 Y13.964 E33.7409
G1 X214.686 Y14.667 E33.7811
G1 X214.9 Y14.989 E33.7991
G1 X215.217 Y15.495 E33.8269
G1 X215.597 Y16.163 E33.86269
G1 X215.793 Y16.532 E33.88214
G1 X216.05 Y17.054 E33.90924
G1 X216.379 Y17.79 E33.94678
G1 X216.528 Y18.155 E33.96513
G1 X216.821 Y18.95 E34.00459
G1 X217.094 Y19.824 E34.04722
G1 X217.239 Y20.359 E34.07303
G1 X217.427 Y21.177 E34.11212
G1 X217.588 Y22.08 E34.15483
G1 X217.699 Y22.959 E34.19608
G1 X217.77 Y23.866 E34.23844
G1 X217.794 Y24.749 E34.27958
G1 X217.791 Y25.136 E34.2976
G1 X217.756 Y25.961 E34.33605
G1 X217.671 Y26.901 E34.38
G1 X217.553 Y27.741 E34.41949
G1 X217.459 Y28.264 E34.44424
G1 X217.279 Y29.083 E34.48328
G1 X217.005 Y30.164 E34.53521
G1 X211.629 Y50.223 E35.50221
G1 X211.216 Y51.797 E35.57798
G1 X207.324 Y66.29 E36.27674
G1 X207.064 Y67.299 E36.32526
G1 X205.169 Y74.366 E36.66596
G1 X204.973 Y75.062 E36.69962
G1 X204.677 Y75.953 E36.74334
G1 X204.305 Y76.814 E36.78702
G1 X203.857 Y77.638 E36.83069
G1 X203.338 Y78.421 E36.87443
G1 X202.752 Y79.154 E36.91813
G1 X202.129 Y79.808 E36.96019
G1 X201.327 Y80.507 E37.00973
G1 X200.353 Y81.27 E37.06734
G1 X33.842 Y206.744 E46.77568
G1 X33.047 Y207.324 E46.8215
G1 X32.721 Y207.549 E46.83995
G1 X31.91 Y208.067 E46.88476
G1 X31.22 Y208.458 E46.92169
G1 X30.597 Y208.781 E46.95436
G1 X29.945 Y209.091 E46.98798
G1 X29.158 Y209.42 E47.0277
G1 X28.307 Y209.728 E47.06984
G1 X27.429 Y209.997 E47.1126
G1 X26.619 Y210.201 E47.1515
G1 X25.764 Y210.376 E47.19213
G1 X24.833 Y210.517 E47.23598
G1 X23.971 Y210.603 E47.27632
G1 X23.133 Y210.646 E47.31539
G1 X22.598 Y210.654 E47.3403
G1 X21.787 Y210.638 E47.37807
G1 X21.256 Y210.607 E47.40284
G1 X20.43 Y210.528 E47.44148
G1 X19.767 Y210.435 E47.47265
G1 X19.304 Y210.357 E47.49452
G1 X18.64 Y210.221 E47.52608
G1 X18.249 Y210.129 E47.54478
G1 X17.693 Y209.981 E47.57157
G1 X17.218 Y209.839 E47.59466
G1 X16.607 Y209.639 E47.62459
G1 X15.79 Y209.33 E47.66527
G1 X15.306 Y209.125 E47.68974
G1 X14.514 Y208.755 E47.73045
G1 X13.723 Y208.337 E47.77211
G1 X13.385 Y208.141 E47.7903
G1 X12.683 Y207.701 E47.82888
G1 X12.184 Y207.356 E47.85712
G1 X11.507 Y206.857 E47.89629
G1 X10.849 Y206.329 E47.93557
G1 X10.145 Y205.696 E47.97965
G1 X9.906 Y205.465 E47.99513
G1 X9.431 Y204.972 E48.02701
G1 X8.892 Y204.376 E48.06443
G1 X8.333 Y203.702 E48.1052
G1 X7.83 Y203.024 E48.14451
G1 X7.608 Y202.705 E48.16261
G1 X7.146 Y201.987 E48.20236
G1 X6.724 Y201.261 E48.24147
G1 X6.436 Y200.713 E48.27029
G1 X6.07 Y199.944 E48.30995
G1 X5.913 Y199.582 E48.32832
G1 X5.595 Y198.775 E48.36871
G1 X5.313 Y197.942 E48.40966
G1 X5.072 Y197.1 E48.45044
G1 X4.871 Y196.232 E48.49193
G1 X4.767 Y195.69 E48.51763
G1 X4.7 Y195.28 E48.53697
G1 X4.591 Y194.436 E48.5766
G1 X4.521 Y193.569 E48.6171
G1 X4.5 Y192.997 E48.64376
G1 X4.498 Y192.141 E48.68362
G1 X4.537 Y191.278 E48.72384
G1 X4.626 Y190.375 E48.76609
G1 X4.677 Y189.993 E48.78404
G1 X4.808 Y189.234 E48.8199
G1 X4.967 Y188.473 E48.8561
G1 X5.13 Y187.806 E48.88808
G1 X5.397 Y186.916 E48.93134
G1 X5.66 Y186.17 E48.96817
G1 X5.8 Y185.811 E48.98612
G1 X6.035 Y185.254 E49.01427
G1 X6.204 Y184.885 E49.03317
G1 X6.559 Y184.169 E49.07038
G1 X7.014 Y183.351 E49.11396
G1 X7.406 Y182.721 E49.14851
G1 X7.8 Y182.147 E49.18093
G1 X8.298 Y181.473 E49.21995
G1 X8.868 Y180.768 E49.26217
G1 X9.127 Y180.474 E49.28041
G1 X9.718 Y179.847 E49.32054
G1 X10.325 Y179.26 E49.35985
G1 X10.732 Y178.897 E49.38525
G1 X11.382 Y178.359 E49.42454
G1 X12.142 Y177.771 E49.46928
G1 X147.669 Y75.644 E57.37114
G0 F6000 X147.91 Y75.963
G1 F1200 X149.974 Y74.362 E57.49278
G1 X151.959 Y72.729 E57.61246
G1 X153.841 Y71.09 E57.72867
G1 X155.727 Y69.352 E57.84809
G1 X157.544 Y67.579 E57.96631
G1 X159.317 Y65.747 E58.08502
G1 X161.022 Y63.886 E58.20255
G1 X162.688 Y61.957 E58.32123
G1 X164.302 Y59.981 E58.44003
G1 X165.845 Y57.979 E58.55773
G1 X167.327 Y55.936 E58.67526
G1 X168.765 Y53.833 E58.79388
G1 X170.152 Y51.676 E58.9133
G1 X171.446 Y49.533 E59.02986
G1 X172.707 Y47.305 E59.14907
G1 X173.897 Y45.054 E59.26763
G1 X175.019 Y42.782 E59.38562
G1 X176.073 Y40.482 E59.50343
G1 X177.064 Y38.151 E59.62137
G1 X178.012 Y35.729 E59.74248
G1 X178.849 Y33.403 E59.85759
G1 X179.637 Y30.997 E59.97548
G1 X180.699 Y27.336 E60.15298
G1 X182.472 Y20.725 E60.47169
G1 X182.769 Y19.684 E60.5221
G1 X183.03 Y18.888 E60.56111
G1 X183.154 Y18.549 E60.57792
G1 X183.474 Y17.76 E60.61756
G1 X183.847 Y16.956 E60.65883
G1 X184.251 Y16.186 E60.69932
G1 X184.516 Y15.728 E60.72396
G1 X184.937 Y15.057 E60.76085
G1 X185.129 Y14.771 E60.77689
G1 X185.472 Y14.291 E60.80436
G1 X185.999 Y13.613 E60.84434
G1 X186.522 Y13.002 E60.88179
G1 X187.163 Y12.321 E60.92534
G1 X187.763 Y11.747 E60.96401
G1 X188.438 Y11.161 E61.00563
G1 X188.748 Y10.911 E61.02417
G1 X189.398 Y10.422 E61.06205
G1 X190.106 Y9.94 E61.10193
G1 X190.883 Y9.466 E61.14431
G1 X191.354 Y9.205 E61.16939
G1 X191.699 Y9.026 E61.18748
G1 X192.301 Y8.739 E61.21854
G1 X192.903 Y8.475 E61.24915
G1 X193.6 Y8.199 E61.28405
G1 X193.999 Y8.058 E61.30376
G1 X194.842 Y7.794 E61.34489
G1 X195.34 Y7.66 E61.36891
G1 X196.156 Y7.473 E61.40789
G1 X197.008 Y7.32 E61.44819
G1 X197.88 Y7.209 E61.48913
G1 X198.784 Y7.139 E61.53135
G1 X199.173 Y7.123 E61.54948
G1 X199.736 Y7.115 E61.57569
G1 X200.526 Y7.136 E61.61249
G1 X201.324 Y7.19 E61.64974
G1 X202 Y7.267 E61.68142
G1 X202.44 Y7.33 E61.70211
G1 X203.082 Y7.443 E61.73247
G1 X203.498 Y7.53 E61.75226
G1 X204.148 Y7.685 E61.78337
G1 X204.672 Y7.831 E61.8087
G1 X205.163 Y7.982 E61.83262
G1 X205.845 Y8.215 E61.86618
G1 X206.347 Y8.411 E61.89127
G1 X206.741 Y8.577 E61.91118
G1 X207.216 Y8.792 E61.93546
G1 X207.976 Y9.17 E61.97498
G1 X208.75 Y9.604 E62.0163
G1 X209.463 Y10.052 E62.05551
G1 X209.769 Y10.258 E62.07269
G1 X210.227 Y10.585 E62.0989
G1 X210.875 Y11.09 E62.13715
G1 X211.507 Y11.63 E62.17586
G1 X211.794 Y11.892 E62.19395
G1 X212.176 Y12.26 E62.21865
G1 X212.76 Y12.87 E62.25797
G1 X213.33 Y13.525 E62.29841
G1 X213.859 Y14.196 E62.33819
G1 X214.353 Y14.888 E62.37778
G1 X214.561 Y15.201 E62.39528
G1 X214.869 Y15.693 E62.42231
G1 X215.244 Y16.351 E62.45758
G1 X215.434 Y16.709 E62.47645
G1 X215.685 Y17.217 E62.50283
G1 X216.009 Y17.941 E62.53977
G1 X216.153 Y18.293 E62.55748
G1 X216.439 Y19.07 E62.59603
G1 X216.708 Y19.928 E62.6379
G1 X216.849 Y20.449 E62.66303
G1 X217.033 Y21.248 E62.70121
G1 X217.191 Y22.13 E62.74293
G1 X217.3 Y22.991 E62.78335
G1 X217.37 Y23.877 E62.82473
G1 X217.394 Y24.746 E62.86521
G1 X217.391 Y25.119 E62.88258
G1 X217.356 Y25.944 E62.92103
G1 X217.275 Y26.845 E62.96315
G1 X217.159 Y27.67 E63.00195
G1 X217.068 Y28.178 E63.02598
G1 X216.891 Y28.985 E63.06445
G1 X216.619 Y30.06 E63.11608
G1 X211.243 Y50.119 E64.08308
G1 X210.83 Y51.693 E64.15885
G1 X206.938 Y66.186 E64.85761
G1 X206.678 Y67.195 E64.90613
G1 X204.784 Y74.258 E65.24663
G1 X204.593 Y74.937 E65.27948
G1 X204.31 Y75.795 E65.32155
