;FLAVOR:Marlin
;TIME:11025
;Filament used: 11.6301m
;Layer height: 0.28
;MINX:3.835
;MINY:7.628
;MINZ:0.28
;MAXX:217.935
;MAXY:212.37
;MAXZ:15.12
;TARGET_MACHINE.NAME:Creality Ender-3 Pro
;Generated with Cura_SteamEngine 5.6.0
M82 ;absolute extrusion mode
; Ender 3 Custom Start G-code
G92 E0 ; Reset Extruder
G28 ; Home all axes
G1 Z5.0 F3000 ; Move Z Axis up a bit during heating to not damage bed
M104 S175 ; Start heating up the nozzle most of the way
M190 S60 ; Start heating the bed, wait until target temperature reached
M109 S200 ; Finish heating the nozzle
G1 Z2.0 F3000 ; Move Z Axis up little to prevent scratching of Heat Bed
G1 X0.1 Y20 Z0.3 F5000.0 ; Move to start position
G1 X0.1 Y200.0 Z0.3 F1500.0 E15 ; Draw the first line
G1 X0.4 Y200.0 Z0.3 F5000.0 ; Move to side a little
G1 X0.4 Y20 Z0.3 F1500.0 E30 ; Draw the second line
G92 E0 ; Reset Extruder
G1 Z2.0 F3000 ; Move Z Axis up little to prevent scratching of Heat Bed
G1 X5 Y20 Z0.3 F5000.0 ; Move over to prevent blob squish
G92 E0
G92 E0
G1 F1500 E-6.5
;LAYER_COUNT:54
;LAYER:0
M107
G0 F6000 X147.177 Y76.63 Z0.28
;TYPE:SKIRT
G1 F1500 E0
G1 F1200 X149.243 Y75.026 E0.12179
G1 X151.154 Y73.455 E0.23698
G1 X153.072 Y71.784 E0.35544
G1 X154.922 Y70.079 E0.47258
G1 X156.731 Y68.314 E0.59027
G1 X158.469 Y66.52 E0.70658
G1 X160.167 Y64.663 E0.82375
G1 X161.803 Y62.772 E0.94018
G1 X163.414 Y60.798 E1.05882
G1 X164.948 Y58.807 E1.17586
G1 X166.422 Y56.774 E1.29279
G1 X167.843 Y54.697 E1.40997
G1 X169.213 Y52.565 E1.52797
G1 X170.5 Y50.434 E1.64389
G1 X171.748 Y48.227 E1.76195
G1 X172.924 Y46.006 E1.87898
G1 X174.04 Y43.742 E1.99651
G1 X175.087 Y41.46 E2.11342
G1 X176.076 Y39.132 E2.2312
G1 X176.994 Y36.789 E2.34837
G1 X177.832 Y34.453 E2.46393
G1 X178.623 Y32.043 E2.58204
G1 X179.667 Y28.442 E2.75662
G1 X181.46 Y21.754 E3.07904
G1 X181.673 Y21.002 E3.11544
G1 X181.878 Y20.339 E3.14775
G1 X182.16 Y19.546 E3.18694
G1 X182.501 Y18.712 E3.2289
G1 X182.772 Y18.121 E3.25917
G1 X183.03 Y17.606 E3.28599
G1 X183.522 Y16.727 E3.3329
G1 X184.028 Y15.916 E3.37741
G1 X184.565 Y15.135 E3.42154
G1 X184.797 Y14.828 E3.43946
G1 X185.255 Y14.257 E3.47355
G1 X185.897 Y13.53 E3.51871
G1 X186.337 Y13.071 E3.54831
G1 X186.994 Y12.444 E3.5906
G1 X187.645 Y11.879 E3.63074
G1 X188.371 Y11.307 E3.67378
G1 X189.104 Y10.787 E3.71563
G1 X189.924 Y10.263 E3.76094
G1 X190.703 Y9.821 E3.80264
G1 X191.066 Y9.632 E3.8217
G1 X191.84 Y9.262 E3.86165
G1 X192.339 Y9.045 E3.88699
G1 X193.13 Y8.736 E3.92653
G1 X193.996 Y8.448 E3.96902
G1 X194.924 Y8.188 E4.0139
G1 X195.734 Y8.003 E4.05259
G1 X196.134 Y7.926 E4.07156
G1 X196.75 Y7.827 E4.10061
G1 X197.216 Y7.764 E4.1225
G1 X197.955 Y7.688 E4.1571
G1 X198.492 Y7.652 E4.18216
G1 X199.355 Y7.628 E4.22236
G1 X199.771 Y7.63 E4.24173
G1 X200.463 Y7.657 E4.27398
G1 X201.303 Y7.724 E4.31321
G1 X202.078 Y7.819 E4.34957
G1 X202.446 Y7.875 E4.3669
G1 X203.296 Y8.035 E4.40718
G1 X203.809 Y8.154 E4.4317
G1 X204.556 Y8.353 E4.4677
G1 X204.999 Y8.486 E4.48923
G1 X205.619 Y8.692 E4.51966
G1 X206.481 Y9.021 E4.56262
G1 X207.285 Y9.375 E4.60352
G1 X208.115 Y9.789 E4.64671
G1 X208.919 Y10.242 E4.68969
G1 X209.651 Y10.701 E4.72992
G1 X210.42 Y11.239 E4.77362
G1 X211.163 Y11.815 E4.81739
G1 X211.453 Y12.058 E4.83501
G1 X212.071 Y12.61 E4.8736
G1 X212.48 Y13.003 E4.90001
G1 X213.1 Y13.65 E4.94173
G1 X213.372 Y13.957 E4.96083
G1 X213.942 Y14.641 E5.00229
G1 X214.378 Y15.211 E5.03571
G1 X214.923 Y16.003 E5.08048
G1 X215.292 Y16.589 E5.11272
G1 X215.718 Y17.341 E5.15297
G1 X216.145 Y18.178 E5.19672
G1 X216.301 Y18.515 E5.21401
G1 X216.595 Y19.215 E5.24936
G1 X216.865 Y19.93 E5.28495
G1 X217.182 Y20.903 E5.3326
G1 X217.365 Y21.575 E5.36503
G1 X217.525 Y22.248 E5.39724
G1 X217.617 Y22.703 E5.41886
G1 X217.727 Y23.341 E5.44901
G1 X217.843 Y24.262 E5.49223
G1 X217.91 Y25.152 E5.53379
G1 X217.935 Y26.03 E5.57469
G1 X217.917 Y26.909 E5.61563
G1 X217.895 Y27.34 E5.63572
G1 X217.848 Y27.922 E5.66291
G1 X217.801 Y28.343 E5.68264
G1 X217.679 Y29.19 E5.72248
G1 X217.494 Y30.138 E5.76746
G1 X217.375 Y30.641 E5.79153
G1 X217.161 Y31.471 E5.83144
G1 X211.617 Y52.164 E6.82898
G1 X211.281 Y53.449 E6.89082
G1 X207.311 Y68.232 E7.60357
G1 X205.277 Y75.856 E7.97099
G1 X205.094 Y76.504 E8.00235
G1 X204.785 Y77.429 E8.04776
G1 X204.396 Y78.321 E8.09307
G1 X203.929 Y79.176 E8.13844
G1 X203.389 Y79.986 E8.18377
G1 X202.78 Y80.745 E8.22908
G1 X202.103 Y81.451 E8.27462
G1 X201.318 Y82.133 E8.32305
G1 X200.325 Y82.91 E8.38176
G1 X33.868 Y208.344 E18.08697
G1 X32.986 Y208.986 E18.13777
G1 X32.295 Y209.451 E18.17655
G1 X31.94 Y209.673 E18.19605
G1 X31.42 Y209.978 E18.22412
G1 X30.625 Y210.401 E18.26605
G1 X29.864 Y210.762 E18.30527
G1 X29.037 Y211.108 E18.34701
G1 X28.653 Y211.253 E18.36613
G1 X27.823 Y211.533 E18.40691
G1 X26.896 Y211.795 E18.45177
G1 X25.93 Y212.014 E18.49789
G1 X25.202 Y212.142 E18.53231
G1 X24.557 Y212.233 E18.56264
G1 X23.823 Y212.31 E18.59701
G1 X22.823 Y212.364 E18.64364
G1 X22.442 Y212.37 E18.66138
G1 X21.558 Y212.353 E18.70255
G1 X20.637 Y212.292 E18.74553
G1 X19.715 Y212.183 E18.78876
G1 X18.792 Y212.028 E18.83234
G1 X18.235 Y211.911 E18.85885
G1 X17.428 Y211.708 E18.8976
G1 X16.62 Y211.465 E18.93688
G1 X16.227 Y211.333 E18.95619
G1 X15.401 Y211.022 E18.99729
G1 X14.866 Y210.796 E19.02433
G1 X14.495 Y210.627 E19.04331
G1 X13.776 Y210.272 E19.08065
G1 X13.232 Y209.978 E19.10944
G1 X12.891 Y209.779 E19.12783
G1 X12.158 Y209.32 E19.1681
G1 X11.399 Y208.792 E19.21115
G1 X10.699 Y208.252 E19.25232
G1 X10.262 Y207.887 E19.27883
G1 X9.63 Y207.314 E19.31855
G1 X8.983 Y206.674 E19.36093
G1 X8.353 Y205.983 E19.40447
G1 X7.756 Y205.256 E19.44828
G1 X7.244 Y204.567 E19.48825
G1 X6.723 Y203.791 E19.53177
G1 X6.257 Y203.019 E19.57376
G1 X6.121 Y202.776 E19.58673
G1 X5.808 Y202.165 E19.61869
G1 X5.436 Y201.381 E19.6591
G1 X5.104 Y200.602 E19.69853
G1 X4.79 Y199.734 E19.74151
G1 X4.513 Y198.833 E19.7854
G1 X4.299 Y197.988 E19.82599
G1 X4.209 Y197.574 E19.84572
G1 X4.057 Y196.733 E19.88551
G1 X3.938 Y195.826 E19.92811
G1 X3.862 Y194.892 E19.97174
G1 X3.835 Y193.985 E20.014
G1 X3.853 Y193.076 E20.05633
G1 X3.911 Y192.201 E20.09717
G1 X3.965 Y191.678 E20.12165
G1 X4.086 Y190.827 E20.16167
G1 X4.155 Y190.437 E20.18011
G1 X4.291 Y189.788 E20.21099
G1 X4.483 Y189.023 E20.24772
G1 X4.588 Y188.649 E20.26581
G1 X4.758 Y188.107 E20.29226
G1 X5.056 Y187.266 E20.3338
G1 X5.407 Y186.413 E20.37675
G1 X5.79 Y185.601 E20.41856
G1 X6.254 Y184.732 E20.46443
G1 X6.653 Y184.064 E20.50066
G1 X6.874 Y183.72 E20.5197
G1 X7.374 Y182.996 E20.56067
G1 X7.712 Y182.546 E20.58688
G1 X8.31 Y181.815 E20.63085
G1 X8.881 Y181.184 E20.67048
G1 X9.514 Y180.543 E20.71243
G1 X10.196 Y179.921 E20.75541
G1 X10.919 Y179.322 E20.79913
G1 X11.695 Y178.724 E20.84475
G1 X147.177 Y76.63 E28.74401
G0 F6000 X147.418 Y76.949
G1 F1200 X149.488 Y75.342 E28.86603
G1 X151.417 Y73.757 E28.98229
G1 X153.335 Y72.086 E29.10074
G1 X155.193 Y70.373 E29.21841
G1 X157.01 Y68.6 E29.33663
G1 X158.764 Y66.79 E29.45399
G1 X160.462 Y64.933 E29.57116
G1 X162.113 Y63.025 E29.68864
G1 X163.724 Y61.051 E29.80729
G1 X165.265 Y59.051 E29.92485
G1 X166.746 Y57.009 E30.04231
G1 X168.18 Y54.913 E30.16057
G1 X169.55 Y52.781 E30.27857
G1 X170.842 Y50.641 E30.39497
G1 X172.102 Y48.414 E30.51412
G1 X173.278 Y46.193 E30.63114
G1 X174.399 Y43.919 E30.74919
G1 X175.45 Y41.627 E30.8666
G1 X176.444 Y39.288 E30.98494
G1 X177.366 Y36.935 E31.10262
G1 X178.212 Y34.578 E31.21923
G1 X179.003 Y32.168 E31.33734
G1 X180.051 Y28.553 E31.5126
G1 X181.845 Y21.863 E31.83512
G1 X182.055 Y21.12 E31.87107
G1 X182.255 Y20.473 E31.9026
G1 X182.53 Y19.697 E31.94094
G1 X182.864 Y18.879 E31.98208
G1 X183.13 Y18.3 E32.01175
G1 X183.379 Y17.801 E32.03772
G1 X183.861 Y16.939 E32.08371
G1 X184.358 Y16.142 E32.12744
G1 X184.884 Y15.376 E32.17071
G1 X185.109 Y15.078 E32.1881
G1 X185.555 Y14.522 E32.22129
G1 X186.186 Y13.807 E32.26569
G1 X186.626 Y13.348 E32.2953
G1 X187.256 Y12.746 E32.33587
G1 X187.893 Y12.193 E32.37515
G1 X188.603 Y11.633 E32.41726
G1 X189.32 Y11.124 E32.4582
G1 X190.122 Y10.611 E32.50253
G1 X190.888 Y10.176 E32.54355
G1 X191.239 Y9.993 E32.56198
G1 X192 Y9.629 E32.60127
G1 X192.485 Y9.418 E32.62589
G1 X193.276 Y9.109 E32.66544
G1 X194.104 Y8.833 E32.70608
G1 X195.013 Y8.578 E32.75004
G1 X195.81 Y8.396 E32.7881
G1 X196.198 Y8.321 E32.80651
G1 X196.803 Y8.223 E32.83504
G1 X197.257 Y8.162 E32.85637
G1 X197.982 Y8.087 E32.89031
G1 X198.503 Y8.052 E32.91463
G1 X199.353 Y8.028 E32.95422
G1 X199.756 Y8.03 E32.97299
G1 X200.432 Y8.056 E33.00449
G1 X201.255 Y8.121 E33.04293
G1 X202.018 Y8.214 E33.07872
G1 X202.372 Y8.268 E33.0954
G1 X203.206 Y8.425 E33.13491
G1 X203.706 Y8.541 E33.15881
G1 X204.453 Y8.74 E33.19481
G1 X204.885 Y8.869 E33.2158
G1 X205.476 Y9.066 E33.24481
G1 X206.338 Y9.395 E33.28778
G1 X207.107 Y9.733 E33.32689
G1 X207.919 Y10.137 E33.36912
G1 X208.707 Y10.581 E33.41124
G1 X209.422 Y11.029 E33.45053
G1 X210.175 Y11.555 E33.4933
G1 X210.906 Y12.122 E33.53637
G1 X211.196 Y12.365 E33.55399
G1 X211.794 Y12.899 E33.59132
G1 X212.191 Y13.28 E33.61694
G1 X212.801 Y13.916 E33.65798
G1 X213.065 Y14.213 E33.67648
G1 X213.624 Y14.884 E33.71715
G1 X214.048 Y15.438 E33.74963
G1 X214.593 Y16.23 E33.7944
G1 X214.944 Y16.787 E33.82506
G1 X215.362 Y17.523 E33.86447
G1 X215.782 Y18.346 E33.90749
G1 X215.932 Y18.67 E33.92412
G1 X216.221 Y19.357 E33.95882
G1 X216.485 Y20.054 E33.99353
G1 X216.796 Y21.008 E34.04025
G1 X216.976 Y21.668 E34.07211
G1 X217.133 Y22.328 E34.1037
G1 X217.223 Y22.771 E34.12475
G1 X217.33 Y23.391 E34.15404
G1 X217.444 Y24.292 E34.19633
G1 X217.51 Y25.164 E34.23705
G1 X217.535 Y26.022 E34.27702
G1 X217.518 Y26.888 E34.31735
G1 X217.496 Y27.308 E34.33694
G1 X217.45 Y27.878 E34.36356
G1 X217.405 Y28.286 E34.38268
G1 X217.286 Y29.113 E34.42158
G1 X217.101 Y30.061 E34.46656
G1 X216.988 Y30.541 E34.48952
G1 X216.775 Y31.367 E34.52924
G1 X211.231 Y52.06 E35.52678
G1 X210.895 Y53.345 E35.58862
G1 X206.925 Y68.128 E36.30137
G1 X204.892 Y75.747 E36.66856
G1 X204.714 Y76.378 E36.69909
G1 X204.418 Y77.27 E36.74285
G1 X204.045 Y78.13 E36.7865
G1 X203.596 Y78.955 E36.83023
G1 X203.077 Y79.736 E36.8739
G1 X202.491 Y80.469 E36.9176
G1 X201.841 Y81.149 E36.9614
G1 X201.071 Y81.818 E37.0089
G1 X200.084 Y82.591 E37.06727
G1 X33.632 Y208.021 E46.77219
G1 X32.763 Y208.654 E46.82225
G1 X32.082 Y209.112 E46.86046
G1 X31.738 Y209.328 E46.87938
G1 X31.232 Y209.625 E46.9067
G1 X30.453 Y210.04 E46.9478
G1 X29.71 Y210.393 E46.9861
G1 X28.895 Y210.734 E47.02724
G1 X28.525 Y210.874 E47.04566
G1 X27.709 Y211.149 E47.08575
G1 X27.196 Y211.301 E47.11067
G1 X26.808 Y211.405 E47.12937
G1 X25.86 Y211.62 E47.17464
G1 X25.146 Y211.746 E47.2084
G1 X24.515 Y211.835 E47.23807
G1 X23.781 Y211.912 E47.27244
G1 X22.816 Y211.964 E47.31744
G1 X22.449 Y211.97 E47.33453
G1 X21.584 Y211.954 E47.37481
G1 X20.684 Y211.895 E47.41681
G1 X19.781 Y211.789 E47.45915
G1 X18.874 Y211.637 E47.50197
G1 X18.332 Y211.523 E47.52776
G1 X17.543 Y211.325 E47.56564
G1 X16.747 Y211.086 E47.60434
G1 X16.368 Y210.959 E47.62295
G1 X15.557 Y210.654 E47.66329
G1 X15.032 Y210.432 E47.68984
G1 X14.672 Y210.268 E47.70826
G1 X13.966 Y209.92 E47.74491
G1 X13.433 Y209.632 E47.77312
G1 X13.103 Y209.44 E47.7909
G1 X12.386 Y208.991 E47.83029
G1 X11.643 Y208.475 E47.87241
G1 X10.955 Y207.945 E47.91285
G1 X10.53 Y207.59 E47.93864
G1 X9.911 Y207.03 E47.9775
G1 X9.278 Y206.404 E48.01896
G1 X8.662 Y205.729 E48.06151
G1 X8.077 Y205.017 E48.10442
G1 X7.576 Y204.344 E48.14349
G1 X7.065 Y203.584 E48.18613
G1 X6.606 Y202.824 E48.22747
G1 X6.477 Y202.593 E48.23979
G1 X6.169 Y201.993 E48.2712
G1 X5.804 Y201.224 E48.31083
G1 X5.48 Y200.466 E48.34922
G1 X5.172 Y199.616 E48.39132
G1 X4.901 Y198.735 E48.43424
G1 X4.69 Y197.903 E48.4742
G1 X4.603 Y197.503 E48.49327
G1 X4.454 Y196.681 E48.53216
G1 X4.337 Y195.793 E48.57387
G1 X4.262 Y194.88 E48.61653
G1 X4.235 Y193.993 E48.65785
G1 X4.252 Y193.102 E48.69935
G1 X4.309 Y192.242 E48.73948
G1 X4.361 Y191.734 E48.76326
G1 X4.48 Y190.896 E48.80267
G1 X4.546 Y190.519 E48.82049
G1 X4.679 Y189.885 E48.85065
G1 X4.868 Y189.131 E48.88685
G1 X4.97 Y188.768 E48.90441
G1 X5.135 Y188.24 E48.93017
G1 X5.426 Y187.418 E48.97077
G1 X5.769 Y186.583 E49.0128
G1 X6.143 Y185.789 E49.05367
G1 X6.597 Y184.937 E49.09863
G1 X6.99 Y184.28 E49.13427
G1 X7.203 Y183.947 E49.15268
G1 X7.694 Y183.236 E49.19291
G1 X8.022 Y182.799 E49.21836
G1 X8.607 Y182.083 E49.26141
G1 X9.165 Y181.465 E49.30018
G1 X9.784 Y180.839 E49.34117
G1 X10.466 Y180.217 E49.38416
G1 X11.163 Y179.639 E49.42632
G1 X11.936 Y179.043 E49.47177
G1 X147.418 Y76.949 E57.37103
G0 F6000 X147.659 Y77.268
G1 F1200 X149.733 Y75.658 E57.49329
G1 X151.68 Y74.059 E57.6106
G1 X153.598 Y72.388 E57.72906
G1 X155.464 Y70.667 E57.84726
G1 X157.289 Y68.886 E57.966
G1 X159.059 Y67.06 E58.08441
G1 X160.757 Y65.203 E58.20158
G1 X162.423 Y63.278 E58.32012
G1 X164.034 Y61.304 E58.43877
G1 X165.582 Y59.295 E58.55686
G1 X167.07 Y57.244 E58.67485
G1 X168.517 Y55.129 E58.79418
G1 X169.887 Y52.997 E58.91218
G1 X171.184 Y50.848 E59.02906
G1 X172.456 Y48.601 E59.14929
G1 X173.632 Y46.38 E59.26632
G1 X174.758 Y44.096 E59.38489
G1 X175.813 Y41.794 E59.5028
G1 X176.812 Y39.444 E59.62171
G1 X177.738 Y37.081 E59.73988
G1 X178.592 Y34.703 E59.85754
G1 X179.383 Y32.293 E59.97565
G1 X180.435 Y28.664 E60.15158
G1 X182.23 Y21.972 E60.47421
G1 X182.437 Y21.238 E60.50972
G1 X182.632 Y20.606 E60.54052
G1 X182.9 Y19.848 E60.57795
G1 X183.227 Y19.046 E60.61828
G1 X183.488 Y18.478 E60.64739
G1 X183.728 Y17.996 E60.67246
G1 X184.201 Y17.15 E60.71759
G1 X184.688 Y16.368 E60.76049
G1 X185.203 Y15.617 E60.80289
G1 X185.421 Y15.328 E60.81975
G1 X185.855 Y14.787 E60.85205
G1 X186.475 Y14.084 E60.89569
G1 X186.903 Y13.637 E60.92451
G1 X187.518 Y13.048 E60.96416
G1 X188.141 Y12.507 E61.00258
G1 X188.835 Y11.959 E61.04376
G1 X189.535 Y11.461 E61.08376
G1 X190.32 Y10.959 E61.12715
G1 X191.073 Y10.531 E61.16748
G1 X191.412 Y10.354 E61.18529
G1 X192.159 Y9.996 E61.22386
G1 X192.631 Y9.791 E61.24782
G1 X193.422 Y9.482 E61.28736
G1 X194.212 Y9.218 E61.32615
G1 X195.102 Y8.968 E61.36919
G1 X195.886 Y8.789 E61.40664
G1 X196.262 Y8.716 E61.42447
G1 X196.856 Y8.619 E61.4525
G1 X197.298 Y8.56 E61.47326
G1 X198.009 Y8.486 E61.50655
G1 X198.514 Y8.452 E61.53012
G1 X199.351 Y8.428 E61.56911
G1 X199.741 Y8.43 E61.58727
G1 X200.401 Y8.455 E61.61802
G1 X201.207 Y8.518 E61.65567
G1 X201.958 Y8.609 E61.69089
G1 X202.298 Y8.661 E61.70691
G1 X203.116 Y8.815 E61.74567
G1 X203.603 Y8.927 E61.76894
G1 X204.338 Y9.123 E61.80436
G1 X204.759 Y9.249 E61.82482
G1 X205.334 Y9.44 E61.85303
G1 X206.177 Y9.761 E61.89504
G1 X206.929 Y10.091 E61.93327
G1 X207.723 Y10.486 E61.97457
G1 X208.495 Y10.92 E62.01581
G1 X209.193 Y11.357 E62.05415
G1 X209.93 Y11.871 E62.09599
G1 X210.649 Y12.429 E62.13837
G1 X210.93 Y12.664 E62.15543
G1 X211.517 Y13.187 E62.19204
G1 X211.902 Y13.557 E62.2169
G1 X212.502 Y14.182 E62.25724
G1 X212.758 Y14.469 E62.27515
G1 X213.306 Y15.127 E62.31503
G1 X213.718 Y15.665 E62.34658
G1 X214.263 Y16.457 E62.39135
G1 X214.596 Y16.985 E62.42041
G1 X215.006 Y17.705 E62.45899
G1 X215.419 Y18.515 E62.50133
G1 X215.563 Y18.825 E62.51725
G1 X215.847 Y19.499 E62.5513
G1 X216.105 Y20.178 E62.58513
G1 X216.41 Y21.113 E62.63092
G1 X216.587 Y21.761 E62.6622
G1 X216.741 Y22.408 E62.69317
G1 X216.829 Y22.839 E62.71365
G1 X216.933 Y23.441 E62.7421
G1 X217.045 Y24.322 E62.78345
G1 X217.11 Y25.176 E62.82333
G1 X217.135 Y26.014 E62.86237
G1 X217.119 Y26.867 E62.9021
G1 X217.097 Y27.276 E62.92117
G1 X217.052 Y27.835 E62.94728
G1 X217.009 Y28.229 E62.96574
G1 X216.893 Y29.036 E63.0037
G1 X216.711 Y29.97 E63.04801
G1 X216.601 Y30.441 E63.07053
G1 X216.389 Y31.263 E63.11006
G1 X210.845 Y51.956 E64.1076
G1 X210.509 Y53.241 E64.16944
G1 X206.539 Y68.024 E64.88219
G1 X204.507 Y75.639 E65.24919
G1 X204.334 Y76.253 E65.27889
G1 X204.051 Y77.111 E65.32096
G1 X203.693 Y77.94 E65.36301
G1 X203.263 Y78.734 E65.40505
G1 X202.764 Y79.487 E65.44711
G1 X202.201 Y80.193 E65.48916
G1 X201.578 Y80.847 E65.53122
G1 X200.824 Y81.503 E65.57776
G1 X199.843 Y82.272 E65.6358
G1 X33.396 Y207.698 E75.34042
G1 X32.54 Y208.322 E75.38974
G1 X31.87 Y208.773 E75.42735
